; generated by Slic3r 0.7.2b on 2012-06-12 at 21:37:55

; layer_height = 0.1
; perimeters = 1
; solid_layers = 3
; fill_density = 0
; nozzle_diameter = 0.4
; filament_diameter = 2.94
; extrusion_multiplier = 1
; perimeter_speed = 20
; infill_speed = 30
; travel_speed = 90
; extrusion_width_ratio = 0
; scale = 1
; single wall width = 0.56mm

M104 S180 ; set temperature
M92 X78.7402 Y78.7402 E926 ;Set the right speed
G28 ;home all axes
M106 ;turn fan on
M109 S180 ; wait for temperature to be reached
G90 ; use absolute coordinates
G21 ; set units to millimeters
G92 E0 ; reset extrusion distance
M82 ; use absolute distances for extrusion
M106 S254
G1 Z0.100 F5400.000
G1 X92.461 Y93.447
G1
G1 X92.594 Y93.373 F360.000 E0.00121
G1 X93.134 Y93.156 E0.00583
G1 X93.759 Y92.849 E0.01135
G1 X93.812 Y92.827 E0.01180
G1 X93.831 Y92.818 E0.01197
G1 X94.420 Y92.583 E0.01700
G1 X94.620 Y92.530 E0.01864
G1 X94.974 Y92.460 E0.02150
G1 X95.146 Y92.457 E0.02287
G1 X95.741 Y92.497 E0.02760
G1 X96.001 Y92.540 E0.02969
G1 X96.170 Y92.598 E0.03110
G1 X96.472 Y92.669 E0.03357
G1 X96.551 Y92.699 E0.03424
G1 X96.625 Y92.756 E0.03498
G1 X96.626 Y92.757 E0.03499
G1 X96.649 Y92.880 E0.03598
G1 X96.661 Y92.990 E0.03687
G1 X96.608 Y93.066 E0.03760
G1 X96.573 Y93.205 E0.03874
G1 X96.557 Y93.220 E0.03891
G1 X96.545 Y93.245 E0.03913
G1 X96.268 Y93.444 E0.04184
G1 X96.241 Y93.660 E0.04357
G1 X96.231 Y93.671 E0.04369
G1 X96.214 Y93.708 E0.04401
G1 X96.012 Y93.891 E0.04617
G1 X95.887 Y94.077 E0.04795
G1 X95.812 Y94.132 E0.04869
G1 X95.513 Y94.436 E0.05207
G1 X95.478 Y94.464 E0.05243
G1 X95.464 Y94.489 E0.05265
G1 X95.111 Y94.827 E0.05653
G1 X95.066 Y94.918 E0.05734
G1 X94.776 Y95.244 E0.06080
G1 X94.770 Y95.464 E0.06254
G1 X94.739 Y95.507 E0.06296
G1 X94.712 Y95.563 E0.06346
G1 X94.451 Y95.893 E0.06679
G1 X94.319 Y96.095 E0.06871
G1 X93.458 Y97.229 E0.08001
G1 X92.615 Y98.621 E0.09292
G1 X92.233 Y99.423 E0.09996
G1 X91.932 Y100.287 E0.10722
G1 X91.459 Y102.166 E0.12259
G1 X91.153 Y104.273 E0.13948
G1 X91.079 Y105.394 E0.14839
G1 X91.049 Y107.893 E0.16822
G1 X90.883 Y108.092 E0.17028
G1 X90.925 Y108.957 E0.17715
G1 X90.915 Y109.119 E0.17844
G1 X91.063 Y110.198 E0.18707
G1 X91.062 Y110.230 E0.18733
G1 X91.321 Y111.541 E0.19793
G1 X91.679 Y112.767 E0.20806
G1 X92.148 Y113.850 E0.21742
G1 X93.296 Y115.724 E0.23486
G1 X93.310 Y115.741 E0.23503
G1 X93.943 Y116.561 E0.24325
G1 X94.106 Y116.652 E0.24473
G1 X94.819 Y117.149 E0.25162
G1 X95.389 Y117.239 E0.25621
G1 X95.677 Y117.367 E0.25870
G1 X95.895 Y117.445 E0.26054
G1 X96.495 Y117.712 E0.26575
G1 X97.314 Y117.975 E0.27258
G1 X98.055 Y117.905 E0.27848
G1 X98.175 Y117.921 E0.27944
G1 X98.220 Y117.918 E0.27979
G1 X98.612 Y117.919 E0.28290
G1 X98.878 Y117.900 E0.28503
G1 X99.296 Y117.713 E0.28865
G1 X99.246 Y117.658 E0.28924
G1 X99.372 Y117.617 E0.29029
G1 X99.405 Y117.452 E0.29162
G1 X98.747 Y116.890 E0.29848
G1 X98.719 Y116.620 E0.30064
G1 X98.322 Y116.263 E0.30487
G1 X97.905 Y115.157 E0.31425
G1 X97.918 Y114.746 E0.31751
G1 X96.819 Y113.389 E0.33137
G1 X96.671 Y113.077 E0.33410
G1 X95.803 Y111.582 E0.34782
G1 X95.025 Y109.646 E0.36437
G1 X94.540 Y107.559 E0.38137
G1 X94.383 Y105.468 E0.39800
G1 X94.540 Y103.377 E0.41463
G1 X95.020 Y101.285 E0.43166
G1 X95.771 Y99.334 E0.44825
G1 X96.824 Y97.560 E0.46461
G1 X97.868 Y96.271 E0.47778
G1 X99.469 Y94.816 E0.49493
G1 X99.634 Y94.612 E0.49702
G1 X101.021 Y93.716 E0.51012
G1 X101.319 Y93.355 E0.51383
G1 X102.719 Y92.707 E0.52606
G1 X102.839 Y91.868 E0.53279
G1 X102.898 Y91.830 E0.53334
G1 X102.918 Y91.714 E0.53428
G1 X103.689 Y90.445 E0.54605
G1 X103.463 Y89.555 E0.55334
G1 X103.441 Y89.188 E0.55625
G1 X103.580 Y88.885 E0.55889
G1 X103.529 Y87.673 E0.56852
G1 X103.716 Y87.465 E0.57075
G1 X103.725 Y87.453 E0.57086
G1 X104.657 Y87.585 E0.57833
G1 X105.726 Y88.033 E0.58752
G1 X105.875 Y88.162 E0.58909
G1 X107.132 Y88.833 E0.60039
G1 X107.249 Y88.945 E0.60168
G1 X109.215 Y89.963 E0.61924
G1 X111.246 Y89.630 E0.63557
G1 X111.367 Y89.560 E0.63667
G1 X112.562 Y89.357 E0.64629
G1 X112.698 Y89.288 E0.64750
G1 X113.631 Y89.233 E0.65492
G1 X114.498 Y89.395 E0.66191
G1 X114.522 Y89.443 E0.66234
G1 X114.690 Y89.726 E0.66495
G1 X114.577 Y90.906 E0.67435
G1 X114.680 Y91.240 E0.67712
G1 X114.633 Y91.582 E0.67986
G1 X114.409 Y92.235 E0.68534
G1 X113.996 Y92.922 E0.69170
G1 X114.882 Y93.842 E0.70183
G1 X114.883 Y93.879 E0.70212
G1 X114.919 Y93.922 E0.70257
G1 X114.833 Y94.747 E0.70915
G1 X115.974 Y95.819 E0.72157
G1 X116.218 Y96.301 E0.72586
G1 X117.255 Y97.581 E0.73892
G1 X118.283 Y99.399 E0.75549
G1 X119.045 Y101.337 E0.77202
G1 X119.508 Y103.377 E0.78861
G1 X119.665 Y105.468 E0.80525
G1 X119.508 Y107.560 E0.82188
G1 X119.045 Y109.600 E0.83848
G1 X118.284 Y111.537 E0.85499
G1 X117.247 Y113.324 E0.87139
G1 X115.958 Y114.915 E0.88763
G1 X114.396 Y116.286 E0.90412
G1 X112.526 Y117.421 E0.92147
G1 X111.945 Y117.709 E0.92661
G1 X111.534 Y117.623 E0.92994
G1 X111.280 Y117.844 E0.93261
G1 X111.076 Y117.912 E0.93431
G1 X110.993 Y117.954 E0.93505
G1 X110.988 Y117.862 E0.93578
G1 X109.842 Y118.253 E0.94539
G1 X109.216 Y119.363 E0.95550
G1 X108.977 Y119.510 E0.95772
G1 X108.755 Y120.076 E0.96254
G1 X108.301 Y120.793 E0.96928
G1 X107.887 Y121.336 E0.97470
G1 X107.075 Y121.720 E0.98183
G1 X106.655 Y121.963 E0.98567
G1 X105.795 Y122.298 E0.99299
G1 X104.394 Y122.619 E1.00440
G1 X102.927 Y122.870 E1.01621
G1 X101.323 Y122.895 E1.02893
G1 X99.621 Y122.731 E1.04250
G1 X97.982 Y122.323 E1.05590
G1 X97.510 Y122.093 E1.06006
G1 X97.314 Y121.846 E1.06256
G1 X96.594 Y121.513 E1.06886
G1 X96.350 Y121.326 E1.07130
G1 X95.280 Y120.742 E1.08096
G1 X94.162 Y120.016 E1.09154
G1 X93.170 Y119.238 E1.10154
G1 X92.229 Y118.341 E1.11185
G1 X91.253 Y117.230 E1.12359
G1 X90.449 Y116.026 E1.13507
G1 X89.818 Y114.589 E1.14752
G1 X89.280 Y113.125 E1.15989
G1 X88.024 Y107.863 E1.20281
G1 X87.992 Y106.133 E1.21654
G1 X88.099 Y104.445 E1.22995
G1 X88.545 Y101.310 E1.25508
G1 X88.554 Y101.279 E1.25533
G1 X88.558 Y101.242 E1.25562
G1 X88.855 Y100.064 E1.26526
G1 X88.880 Y99.864 E1.26686
G1 X89.098 Y99.077 E1.27333
G1 X89.073 Y98.807 E1.27548
G1 X89.156 Y98.492 E1.27807
G1 X89.643 Y97.320 E1.28814
G1 X90.187 Y96.291 E1.29738
G1 X90.753 Y95.387 E1.30583
G1 X91.329 Y94.607 E1.31353
G1 X91.900 Y93.950 E1.32043
G1 X92.399 Y93.503 E1.32574
G1 X94.934 Y105.468 F5400.000
G1 X95.084 Y103.460 F540.000 E1.34212
G1 X95.546 Y101.446 E1.35891
G1 X96.267 Y99.575 E1.37520
G1 X97.275 Y97.875 E1.39126
G1 X98.269 Y96.649 E1.40409
G1 X99.869 Y95.194 E1.42167
G1 X100.006 Y95.026 E1.42343
G1 X101.391 Y94.131 E1.43683
G1 X101.664 Y93.801 E1.44031
G1 X103.220 Y93.080 E1.45425
G1 X103.347 Y92.194 E1.46153
G1 X103.397 Y92.161 E1.46201
G1 X103.441 Y91.911 E1.46408
G1 X104.278 Y90.533 E1.47718
G1 X104.008 Y89.471 E1.48608
G1 X103.997 Y89.292 E1.48754
G1 X104.134 Y88.994 E1.49021
G1 X104.095 Y88.060 E1.49780
G1 X104.510 Y88.119 E1.50121
G1 X105.432 Y88.505 E1.50933
G1 X105.561 Y88.618 E1.51072
G1 X106.807 Y89.283 E1.52221
G1 X106.927 Y89.397 E1.52355
G1 X109.124 Y90.535 E1.54366
G1 X111.434 Y90.156 E1.56268
G1 X111.556 Y90.085 E1.56382
G1 X112.737 Y89.885 E1.57356
G1 X112.845 Y89.830 E1.57455
G1 X113.596 Y89.785 E1.58066
G1 X114.123 Y89.884 E1.58502
G1 X114.020 Y90.963 E1.59383
G1 X114.120 Y91.285 E1.59657
G1 X114.096 Y91.454 E1.59796
G1 X113.909 Y92.002 E1.60266
G1 X113.308 Y93.000 E1.61213
G1 X114.350 Y94.082 E1.62434
G1 X114.258 Y94.960 E1.63152
G1 X115.527 Y96.153 E1.64568
G1 X115.755 Y96.602 E1.64976
G1 X116.799 Y97.891 E1.66325
G1 X117.786 Y99.635 E1.67954
G1 X118.519 Y101.499 E1.69581
G1 X118.964 Y103.459 E1.71214
G1 X119.114 Y105.468 E1.72852
G1 X118.964 Y107.478 E1.74490
G1 X118.519 Y109.437 E1.76123
G1 X117.788 Y111.297 E1.77747
G1 X116.793 Y113.012 E1.79358
G1 X115.561 Y114.533 E1.80949
G1 X114.070 Y115.842 E1.82562
G1 X112.261 Y116.940 E1.84281
G1 X111.872 Y117.132 E1.84634
G1 X111.379 Y117.030 E1.85043
G1 X111.156 Y117.224 E1.85283
G1 X109.467 Y117.801 E1.86734
G1 X108.807 Y118.970 E1.87825
G1 X108.533 Y119.138 E1.88086
G1 X108.263 Y119.826 E1.88687
G1 X107.850 Y120.479 E1.89315
G1 X107.532 Y120.897 E1.89741
G1 X106.819 Y121.233 E1.90382
G1 X106.416 Y121.467 E1.90760
G1 X105.634 Y121.772 E1.91443
G1 X104.286 Y122.080 E1.92567
G1 X102.876 Y122.321 E1.93729
G1 X101.345 Y122.345 E1.94973
G1 X99.714 Y122.188 E1.96305
G1 X98.171 Y121.804 E1.97598
G1 X97.863 Y121.654 E1.97876
G1 X97.663 Y121.402 E1.98137
G1 X96.879 Y121.040 E1.98839
G1 X96.650 Y120.864 E1.99074
G1 X95.562 Y120.270 E2.00082
G1 X94.482 Y119.568 E2.01128
G1 X93.530 Y118.822 E2.02111
G1 X92.626 Y117.961 E2.03126
G1 X91.690 Y116.895 E2.04279
G1 X90.933 Y115.761 E2.05387
G1 X90.328 Y114.384 E2.06610
G1 X89.807 Y112.966 E2.07837
G1 X88.572 Y107.793 E2.12159
G1 X88.542 Y106.145 E2.13499
G1 X88.646 Y104.495 E2.14843
G1 X89.083 Y101.426 E2.17362
G1 X89.093 Y101.387 E2.17395
G1 X89.099 Y101.346 E2.17428
G1 X89.396 Y100.166 E2.18418
G1 X89.420 Y99.972 E2.18576
G1 X89.654 Y99.127 E2.19289
G1 X89.629 Y98.853 E2.19512
G1 X89.678 Y98.668 E2.19668
G1 X90.140 Y97.555 E2.20648
G1 X90.664 Y96.566 E2.21557
G1 X91.208 Y95.697 E2.22391
G1 X91.758 Y94.951 E2.23144
G1 X92.292 Y94.336 E2.23806
G1 X92.782 Y93.897 E2.24341
G1 X92.831 Y93.870 E2.24386
G1 X93.358 Y93.658 E2.24848
G1 X93.985 Y93.350 E2.25415
G1 X94.040 Y93.328 E2.25464
G1 X94.056 Y93.319 E2.25479
G1 X94.592 Y93.105 E2.25948
G1 X94.744 Y93.066 E2.26075
G1 X95.032 Y93.008 E2.26314
G1 X95.132 Y93.007 E2.26395
G1 X95.816 Y93.053 E2.26952
G1 X95.889 Y93.262 E2.27132
G1 X95.594 Y93.529 E2.27455
G1 X95.485 Y93.691 E2.27614
G1 X95.452 Y93.715 E2.27647
G1 X95.145 Y94.027 E2.28003
G1 X95.057 Y94.097 E2.28094
G1 X95.029 Y94.144 E2.28138
G1 X94.662 Y94.497 E2.28552
G1 X94.607 Y94.607 E2.28653
G1 X94.232 Y95.030 E2.29112
G1 X94.225 Y95.292 E2.29325
G1 X94.004 Y95.572 E2.29615
G1 X93.870 Y95.779 E2.29816
G1 X93.003 Y96.920 E2.30980
G1 X92.130 Y98.360 E2.32349
G1 X91.725 Y99.214 E2.33117
G1 X91.406 Y100.129 E2.33905
G1 X90.921 Y102.052 E2.35516
G1 X90.606 Y104.223 E2.37299
G1 X90.530 Y105.373 E2.38236
G1 X90.503 Y107.691 E2.40120
G1 X90.324 Y107.905 E2.40346
G1 X90.375 Y108.953 E2.41199
G1 X90.363 Y109.140 E2.41351
G1 X90.513 Y110.230 E2.42246
G1 X90.512 Y110.278 E2.42285
G1 X90.787 Y111.671 E2.43439
G1 X91.161 Y112.954 E2.44525
G1 X91.657 Y114.097 E2.45538
G1 X92.858 Y116.060 E2.47408
G1 X92.888 Y116.093 E2.47444
G1 X93.577 Y116.985 E2.48360
G1 X93.814 Y117.118 E2.48581
G1 X94.608 Y117.672 E2.49368
G1 X95.233 Y117.771 E2.49882
G1 X95.473 Y117.877 E2.50095
G1 X95.690 Y117.955 E2.50283
G1 X96.299 Y118.226 E2.50825
G1 X97.254 Y118.533 E2.51639
G1 X98.045 Y118.458 E2.52285
G1 X98.154 Y118.472 E2.52375
G1 X98.235 Y118.468 E2.52441
G1 X98.631 Y118.468 E2.52762
G1 X99.014 Y118.441 E2.53075
G1 X99.841 Y118.070 E2.53811
G1 X100.007 Y117.244 E2.54496
G1 X99.271 Y116.615 E2.55282
G1 X99.244 Y116.353 E2.55497
G1 X98.789 Y115.944 E2.55994
G1 X98.458 Y115.065 E2.56757
G1 X98.473 Y114.559 E2.57169
G1 X97.287 Y113.094 E2.58701
G1 X97.157 Y112.821 E2.58946
G1 X96.298 Y111.340 E2.60338
G1 X95.550 Y109.481 E2.61967
G1 X95.084 Y107.476 E2.63640
G1 X94.940 Y105.552 E2.65208
G1 X95.497 Y105.552 F5400.000
G1 X95.635 Y107.392 F540.000 E2.66707
G1 X96.082 Y109.313 E2.68310
G1 X96.799 Y111.096 E2.69872
G1 X97.649 Y112.562 E2.71249
G1 X97.760 Y112.796 E2.71459
G1 X99.035 Y114.369 E2.73106
G1 X99.017 Y114.972 E2.73596
G1 X99.261 Y115.621 E2.74159
G1 X99.775 Y116.082 E2.74720
G1 X99.801 Y116.337 E2.74929
G1 X100.616 Y117.034 E2.75800
G1 X100.330 Y118.460 E2.76982
G1 X99.152 Y118.989 E2.78031
G1 X98.650 Y119.024 E2.78440
G1 X98.251 Y119.023 E2.78764
G1 X98.133 Y119.030 E2.78860
G1 X98.034 Y119.017 E2.78942
G1 X97.193 Y119.097 E2.79629
G1 X96.101 Y118.746 E2.80561
G1 X95.483 Y118.471 E2.81110
G1 X95.265 Y118.393 E2.81298
G1 X95.074 Y118.308 E2.81468
G1 X94.395 Y118.201 E2.82027
G1 X93.518 Y117.589 E2.82896
G1 X93.206 Y117.414 E2.83187
G1 X92.461 Y116.449 E2.84177
G1 X92.416 Y116.399 E2.84232
G1 X91.159 Y114.348 E2.86187
G1 X90.637 Y113.143 E2.87254
G1 X90.246 Y111.803 E2.88389
G1 X89.955 Y110.327 E2.89612
G1 X89.956 Y110.262 E2.89664
G1 X89.805 Y109.160 E2.90568
G1 X89.818 Y108.949 E2.90740
G1 X89.758 Y107.715 E2.91745
G1 X89.949 Y107.486 E2.91986
G1 X89.974 Y105.351 E2.93722
G1 X90.052 Y104.171 E2.94683
G1 X90.377 Y101.936 E2.96518
G1 X90.873 Y99.970 E2.98167
G1 X91.210 Y99.003 E2.98999
G1 X91.640 Y98.096 E2.99814
G1 X92.542 Y96.607 E3.01230
G1 X93.414 Y95.460 E3.02401
G1 X93.552 Y95.248 E3.02606
G1 X93.674 Y95.093 E3.02766
G1 X93.681 Y94.812 E3.02995
G1 X94.143 Y94.293 E3.03559
G1 X94.208 Y94.163 E3.03678
G1 X94.590 Y93.795 E3.04108
G1 X94.631 Y93.726 E3.04174
G1 X94.725 Y93.651 E3.04272
G1 X94.284 Y93.827 E3.04658
G1 X94.270 Y93.834 E3.04670
G1 X94.214 Y93.857 E3.04720
G1 X93.584 Y94.167 E3.05290
G1 X93.095 Y94.362 E3.05718
G1 X92.689 Y94.727 E3.06162
G1 X92.192 Y95.299 E3.06777
G1 X91.668 Y96.010 E3.07495
G1 X91.145 Y96.844 E3.08295
G1 X90.643 Y97.792 E3.09167
G1 X90.205 Y98.847 E3.10096
G1 X90.191 Y98.900 E3.10140
G1 X90.217 Y99.176 E3.10366
G1 X89.967 Y100.082 E3.11129
G1 X89.943 Y100.269 E3.11283
G1 X89.645 Y101.452 E3.12274
G1 X89.639 Y101.497 E3.12311
G1 X89.627 Y101.544 E3.12351
G1 X89.200 Y104.546 E3.14815
G1 X89.098 Y106.158 E3.16127
G1 X89.126 Y107.723 E3.17400
G1 X90.340 Y112.805 E3.21646
G1 X90.844 Y114.176 E3.22833
G1 X91.422 Y115.493 E3.24002
G1 X92.131 Y116.555 E3.25041
G1 X93.027 Y117.575 E3.26144
G1 X93.894 Y118.401 E3.27117
G1 X94.805 Y119.116 E3.28058
G1 X95.847 Y119.792 E3.29067
G1 X96.954 Y120.397 E3.30093
G1 X97.169 Y120.561 E3.30312
G1 X98.017 Y120.953 E3.31072
G1 X98.220 Y121.210 E3.31338
G1 X98.362 Y121.278 E3.31465
G1 X99.808 Y121.639 E3.32677
G1 X101.368 Y121.789 E3.33950
G1 X102.824 Y121.766 E3.35134
G1 X104.177 Y121.535 E3.36250
G1 X105.470 Y121.239 E3.37328
G1 X106.174 Y120.965 E3.37942
G1 X106.560 Y120.740 E3.38305
G1 X107.172 Y120.452 E3.38854
G1 X107.393 Y120.161 E3.39151
G1 X107.765 Y119.574 E3.39716
G1 X108.084 Y118.762 E3.40425
G1 X108.393 Y118.571 E3.40721
G1 X109.087 Y117.344 E3.41866
G1 X110.873 Y116.733 E3.43401
G1 X111.222 Y116.430 E3.43777
G1 X111.797 Y116.549 E3.44254
G1 X111.993 Y116.452 E3.44432
G1 X113.740 Y115.392 E3.46092
G1 X115.158 Y114.147 E3.47626
G1 X116.334 Y112.696 E3.49144
G1 X117.286 Y111.055 E3.50686
G1 X117.986 Y109.273 E3.52242
G1 X118.412 Y107.395 E3.53807
G1 X118.557 Y105.468 E3.55377
G1 X118.412 Y103.542 E3.56947
G1 X117.986 Y101.663 E3.58513
G1 X117.283 Y99.875 E3.60074
G1 X116.338 Y98.205 E3.61634
G1 X115.286 Y96.906 E3.62992
G1 X115.076 Y96.492 E3.63370
G1 X113.676 Y95.177 E3.64931
G1 X113.770 Y94.281 E3.65663
G1 X112.612 Y93.078 E3.67020
G1 X113.402 Y91.766 E3.68265
G1 X113.551 Y91.329 E3.68640
G1 X113.456 Y91.021 E3.68902
G1 X113.520 Y90.347 E3.69453
G1 X112.994 Y90.378 E3.69882
G1 X112.913 Y90.419 E3.69955
G1 X111.747 Y90.617 E3.70917
G1 X111.623 Y90.688 E3.71032
G1 X109.032 Y91.113 E3.73167
G1 X106.601 Y89.854 E3.75391
G1 X106.479 Y89.737 E3.75529
G1 X105.244 Y89.078 E3.76667
G1 X105.135 Y88.983 E3.76784
G1 X104.682 Y88.794 E3.77183
G1 X104.695 Y89.104 E3.77435
G1 X104.562 Y89.394 E3.77695
G1 X104.874 Y90.622 E3.78725
G1 X103.971 Y92.110 E3.80139
G1 X103.903 Y92.496 E3.80458
G1 X103.862 Y92.523 E3.80498
G1 X103.727 Y93.458 E3.81266
G1 X102.012 Y94.252 E3.82802
G1 X101.765 Y94.551 E3.83117
G1 X100.382 Y95.444 E3.84455
G1 X100.275 Y95.577 E3.84593
G1 X98.674 Y97.032 E3.86352
G1 X97.733 Y98.194 E3.87567
G1 X96.769 Y99.818 E3.89102
G1 X96.079 Y101.609 E3.90661
G1 X95.636 Y103.543 E3.92274
G1 X95.491 Y105.468 E3.93843
G1 X96.049 Y105.468 F5400.000
G1 X96.187 Y103.626 F540.000 E3.95344
G1 X96.612 Y101.771 E3.96891
G1 X97.271 Y100.062 E3.98380
G1 X98.190 Y98.512 E3.99845
G1 X99.079 Y97.415 E4.00992
G1 X100.680 Y95.960 E4.02751
G1 X100.758 Y95.863 E4.02852
G1 X102.139 Y94.972 E4.04187
G1 X102.360 Y94.703 E4.04470
G1 X104.234 Y93.836 E4.06148
G1 X104.376 Y92.852 E4.06956
G1 X104.408 Y92.831 E4.06987
G1 X104.500 Y92.309 E4.07418
G1 X105.470 Y90.711 E4.08937
G1 X105.211 Y89.691 E4.09793
G1 X106.150 Y90.192 E4.10658
G1 X106.275 Y90.311 E4.10799
G1 X108.940 Y91.692 E4.13238
G1 X111.813 Y91.220 E4.15604
