; generated by Slic3r 0.7.2b on 2012-06-30 at 21:20:37

; layer_height = 0.1
; perimeters = 2
; solid_layers = 10
; fill_density = 0
; nozzle_diameter = 0.4
; filament_diameter = 2.94
; extrusion_multiplier = 1
; perimeter_speed = 20
; infill_speed = 30
; travel_speed = 90
; extrusion_width_ratio = 0
; scale = 1
; single wall width = 0.56mm

M104 S190 ; set temperature
M92 X78.7402 Y78.7402 E926 ;Set the right speed
G28 ;home all axes
M106 ;turn fan on
M109 S190 ; wait for temperature to be reached
G90 ; use absolute coordinates
G21 ; set units to millimeters
G92 E0 ; reset extrusion distance
M82 ; use absolute distances for extrusion
M106 S254
G1 Z0.100 F5400.000
G1 X102.000 Y100.347
G1
G1 X102.562 Y99.804 F360.000 E0.00620
G1 X102.728 Y99.664 E0.00792
G1 X102.768 Y99.625 E0.00837
G1 X102.905 Y99.516 E0.00976
G1 X102.976 Y99.449 E0.01053
G1 X103.079 Y99.371 E0.01156
G1 X103.189 Y99.272 E0.01273
G1 X103.249 Y99.229 E0.01331
G1 X103.406 Y99.091 E0.01497
G1 X103.409 Y99.089 E0.01500
G1 X103.421 Y99.077 E0.01514
G1 X103.613 Y98.934 E0.01703
G1 X103.658 Y98.890 E0.01754
G1 X103.777 Y98.802 E0.01871
G1 X103.883 Y98.692 E0.01992
G1 X103.920 Y98.665 E0.02029
G1 X103.951 Y98.629 E0.02066
G1 X104.086 Y98.519 E0.02204
G1 X104.142 Y98.447 E0.02277
G1 X104.228 Y98.375 E0.02366
G1 X104.274 Y98.302 E0.02434
G1 X104.347 Y98.233 E0.02514
G1 X104.419 Y98.106 E0.02629
G1 X104.504 Y97.991 E0.02742
G1 X104.674 Y97.649 E0.03046
G1 X104.688 Y97.582 E0.03100
G1 X104.758 Y97.375 E0.03273
G1 X104.769 Y97.229 E0.03389
G1 X104.791 Y97.110 E0.03486
G1 X104.786 Y96.825 E0.03711
G1 X104.739 Y96.336 E0.04102
G1 X104.737 Y96.297 E0.04132
G1 X104.747 Y96.245 E0.04174
G1 X104.762 Y96.250 E0.04186
G1 X104.875 Y96.291 E0.04282
G1 X105.116 Y96.402 E0.04492
G1 X105.203 Y96.453 E0.04572
G1 X105.271 Y96.486 E0.04632
G1 X105.342 Y96.533 E0.04700
G1 X105.430 Y96.580 E0.04779
G1 X105.490 Y96.621 E0.04837
G1 X105.605 Y96.688 E0.04942
G1 X105.648 Y96.719 E0.04984
G1 X105.794 Y96.808 E0.05120
G1 X105.819 Y96.826 E0.05144
G1 X106.315 Y97.134 E0.05607
G1 X106.649 Y97.289 E0.05900
G1 X107.181 Y97.484 E0.06349
G1 X107.671 Y97.475 E0.06738
G1 X107.712 Y97.477 E0.06770
G1 X108.069 Y97.436 E0.07056
G1 X108.143 Y97.422 E0.07115
G1 X108.430 Y97.349 E0.07351
G1 X108.439 Y97.346 E0.07358
G1 X108.798 Y97.250 E0.07652
G1 X108.829 Y97.239 E0.07679
G1 X108.937 Y97.216 E0.07766
G1 X108.990 Y97.198 E0.07811
G1 X109.068 Y97.184 E0.07873
G1 X109.131 Y97.166 E0.07925
G1 X109.187 Y97.159 E0.07970
G1 X109.254 Y97.144 E0.08024
G1 X109.296 Y97.140 E0.08058
G1 X109.370 Y97.128 E0.08117
G1 X109.449 Y97.122 E0.08180
G1 X109.490 Y97.123 E0.08213
G1 X109.541 Y97.122 E0.08253
G1 X109.633 Y97.128 E0.08327
G1 X109.637 Y97.138 E0.08335
G1 X109.658 Y97.187 E0.08377
G1 X109.659 Y97.194 E0.08383
G1 X109.667 Y97.218 E0.08403
G1 X109.677 Y97.289 E0.08459
G1 X109.680 Y97.301 E0.08469
G1 X109.681 Y97.338 E0.08498
G1 X109.686 Y97.391 E0.08541
G1 X109.669 Y97.539 E0.08659
G1 X109.591 Y97.987 E0.09020
G1 X109.571 Y98.241 E0.09222
G1 X109.579 Y98.347 E0.09306
G1 X109.578 Y98.466 E0.09401
G1 X109.610 Y98.606 E0.09515
G1 X109.612 Y98.669 E0.09565
G1 X109.633 Y98.722 E0.09610
G1 X109.653 Y98.859 E0.09720
G1 X109.697 Y98.955 E0.09803
G1 X109.716 Y99.049 E0.09880
G1 X109.772 Y99.144 E0.09966
G1 X109.794 Y99.218 E0.10028
G1 X109.844 Y99.299 E0.10103
G1 X109.869 Y99.375 E0.10167
G1 X109.930 Y99.468 E0.10256
G1 X109.967 Y99.554 E0.10330
G1 X110.066 Y99.697 E0.10468
G1 X110.083 Y99.734 E0.10500
G1 X110.110 Y99.770 E0.10535
G1 X110.187 Y99.912 E0.10663
G1 X110.276 Y100.031 E0.10781
G1 X110.312 Y100.094 E0.10839
G1 X110.453 Y100.286 E0.11028
G1 X110.594 Y100.501 E0.11231
G1 X110.626 Y100.544 E0.11274
G1 X110.725 Y100.699 E0.11420
G1 X110.789 Y100.788 E0.11507
G1 X111.238 Y101.502 E0.12176
G1 X111.619 Y102.220 E0.12821
G1 X111.823 Y102.695 E0.13231
G1 X111.994 Y103.183 E0.13642
G1 X112.128 Y103.683 E0.14052
G1 X112.224 Y104.193 E0.14464
G1 X112.282 Y104.710 E0.14876
G1 X112.301 Y105.229 E0.15289
G1 X112.282 Y105.749 E0.15701
G1 X112.224 Y106.265 E0.16113
G1 X112.128 Y106.775 E0.16525
G1 X111.994 Y107.275 E0.16935
G1 X111.824 Y107.761 E0.17344
G1 X111.618 Y108.232 E0.17752
G1 X111.379 Y108.684 E0.18157
G1 X111.107 Y109.114 E0.18561
G1 X110.805 Y109.518 E0.18961
G1 X110.472 Y109.894 E0.19360
G1 X110.108 Y110.243 E0.19759
G1 X109.712 Y110.563 E0.20164
G1 X109.278 Y110.856 E0.20579
G1 X108.848 Y111.108 E0.20975
G1 X108.685 Y111.184 E0.21117
G1 X108.644 Y111.209 E0.21155
G1 X108.574 Y111.241 E0.21216
G1 X108.401 Y111.333 E0.21372
G1 X108.368 Y111.347 E0.21400
G1 X107.929 Y111.576 E0.21793
G1 X107.771 Y111.676 E0.21941
G1 X107.734 Y111.704 E0.21978
G1 X107.530 Y111.776 E0.22149
G1 X107.316 Y111.906 E0.22348
G1 X107.232 Y111.991 E0.22443
G1 X107.151 Y112.054 E0.22524
G1 X107.043 Y112.178 E0.22654
G1 X107.029 Y112.189 E0.22669
G1 X106.833 Y112.421 E0.22910
G1 X106.811 Y112.455 E0.22942
G1 X106.713 Y112.582 E0.23069
G1 X106.580 Y112.789 E0.23264
G1 X106.537 Y112.848 E0.23322
G1 X106.457 Y112.940 E0.23419
G1 X106.227 Y113.165 E0.23674
G1 X106.102 Y113.262 E0.23800
G1 X105.971 Y113.350 E0.23925
G1 X105.710 Y113.493 E0.24161
G1 X105.662 Y113.524 E0.24206
G1 X105.516 Y113.601 E0.24337
G1 X105.483 Y113.628 E0.24372
G1 X105.458 Y113.641 E0.24393
G1 X105.400 Y113.677 E0.24448
G1 X105.342 Y113.703 E0.24498
G1 X105.091 Y113.782 E0.24707
G1 X104.190 Y113.969 E0.25437
G1 X103.837 Y114.012 E0.25719
G1 X103.464 Y114.030 E0.26015
G1 X102.843 Y114.011 E0.26508
G1 X102.432 Y113.967 E0.26836
G1 X102.027 Y113.897 E0.27162
G1 X101.635 Y113.793 E0.27484
G1 X101.465 Y113.735 E0.27626
G1 X101.306 Y113.670 E0.27763
G1 X100.968 Y113.502 E0.28062
G1 X99.804 Y112.788 E0.29145
G1 X99.274 Y112.404 E0.29665
G1 X98.794 Y111.989 E0.30168
G1 X98.315 Y111.488 E0.30718
G1 X97.979 Y111.066 E0.31146
G1 X97.792 Y110.785 E0.31413
G1 X97.628 Y110.487 E0.31683
G1 X97.249 Y109.578 E0.32465
G1 X97.163 Y109.252 E0.32732
G1 X97.260 Y109.538 E0.32972
G1 X97.478 Y110.033 E0.33401
G1 X97.878 Y110.731 E0.34039
G1 X98.147 Y111.128 E0.34419
G1 X98.350 Y111.386 E0.34680
G1 X98.477 Y111.526 E0.34830
G1 X98.617 Y111.660 E0.34984
G1 X98.762 Y111.778 E0.35132
G1 X98.910 Y111.884 E0.35276
G1 X99.064 Y111.978 E0.35419
G1 X99.215 Y112.058 E0.35555
G1 X100.288 Y112.491 E0.36473
G1 X100.438 Y112.539 E0.36598
G1 X100.595 Y112.580 E0.36726
G1 X100.758 Y112.609 E0.36858
G1 X100.905 Y112.627 E0.36975
G1 X101.037 Y112.632 E0.37080
G1 X101.089 Y112.631 E0.37122
G1 X101.175 Y112.634 E0.37190
G1 X101.233 Y112.634 E0.37236
G1 X101.259 Y112.634 E0.37256
G1 X101.267 Y112.634 E0.37263
G1 X101.302 Y112.635 E0.37290
G1 X101.387 Y112.633 E0.37358
G1 X101.417 Y112.634 E0.37381
G1 X101.597 Y112.627 E0.37525
G1 X101.724 Y112.609 E0.37626
G1 X101.884 Y112.571 E0.37756
G1 X102.120 Y112.437 E0.37972
G1 X102.362 Y112.171 E0.38257
G1 X102.454 Y111.734 E0.38611
G1 X102.382 Y111.486 E0.38816
G1 X102.342 Y111.381 E0.38906
G1 X102.345 Y111.363 E0.38920
G1 X102.184 Y111.080 E0.39179
G1 X102.169 Y111.032 E0.39218
G1 X102.070 Y110.862 E0.39374
G1 X102.027 Y110.767 E0.39457
G1 X101.982 Y110.702 E0.39520
G1 X101.890 Y110.536 E0.39670
G1 X101.625 Y110.129 E0.40055
G1 X101.540 Y109.970 E0.40198
G1 X101.470 Y109.821 E0.40329
G1 X101.407 Y109.720 E0.40424
G1 X101.371 Y109.639 E0.40494
G1 X101.281 Y109.489 E0.40633
G1 X101.259 Y109.443 E0.40673
G1 X100.640 Y108.284 E0.41716
G1 X100.334 Y107.549 E0.42347
G1 X100.173 Y107.051 E0.42762
G1 X100.049 Y106.531 E0.43186
G1 X99.966 Y106.007 E0.43607
G1 X99.925 Y105.488 E0.44020
G1 X99.925 Y104.970 E0.44431
G1 X99.965 Y104.450 E0.44845
G1 X100.046 Y103.929 E0.45263
G1 X100.245 Y103.128 E0.45918
G1 X100.412 Y102.635 E0.46330
G1 X100.613 Y102.167 E0.46735
G1 X100.851 Y101.731 E0.47129
G1 X101.119 Y101.336 E0.47508
G1 X101.944 Y100.410 E0.48491
G1 X101.603 Y99.966 F5400.000
G1 X102.194 Y99.396 F360.000 E0.49142
G1 X102.360 Y99.255 E0.49315
G1 X102.406 Y99.211 E0.49366
G1 X102.546 Y99.099 E0.49508
G1 X102.623 Y99.028 E0.49591
G1 X102.729 Y98.947 E0.49697
G1 X102.844 Y98.844 E0.49820
G1 X102.905 Y98.800 E0.49880
G1 X103.066 Y98.658 E0.50050
G1 X103.068 Y98.657 E0.50051
G1 X103.073 Y98.652 E0.50056
G1 X103.254 Y98.516 E0.50237
G1 X103.301 Y98.470 E0.50289
G1 X103.414 Y98.387 E0.50400
G1 X103.520 Y98.277 E0.50521
G1 X103.545 Y98.259 E0.50545
G1 X103.566 Y98.234 E0.50572
G1 X103.690 Y98.133 E0.50698
G1 X103.743 Y98.064 E0.50767
G1 X103.809 Y98.009 E0.50835
G1 X103.846 Y97.950 E0.50891
G1 X103.911 Y97.889 E0.50962
G1 X103.958 Y97.807 E0.51036
G1 X104.033 Y97.705 E0.51137
G1 X104.151 Y97.468 E0.51346
G1 X104.157 Y97.439 E0.51370
G1 X104.215 Y97.264 E0.51517
G1 X104.224 Y97.157 E0.51602
G1 X104.241 Y97.065 E0.51676
G1 X104.237 Y96.857 E0.51841
G1 X104.190 Y96.371 E0.52229
G1 X104.187 Y96.255 E0.52320
G1 X104.204 Y96.164 E0.52394
G1 X104.210 Y96.098 E0.52447
G1 X104.223 Y96.060 E0.52478
G1 X104.243 Y95.976 E0.52547
G1 X104.259 Y95.940 E0.52578
G1 X104.267 Y95.912 E0.52601
G1 X104.307 Y95.848 E0.52661
G1 X104.337 Y95.789 E0.52713
G1 X104.357 Y95.767 E0.52737
G1 X104.405 Y95.705 E0.52799
G1 X104.412 Y95.698 E0.52807
G1 X104.491 Y95.659 E0.52877
G1 X104.570 Y95.646 E0.52940
G1 X104.668 Y95.655 E0.53018
G1 X104.795 Y95.686 E0.53122
G1 X104.935 Y95.728 E0.53238
G1 X105.077 Y95.780 E0.53358
G1 X105.375 Y95.917 E0.53618
G1 X105.465 Y95.969 E0.53701
G1 X105.543 Y96.008 E0.53770
G1 X105.622 Y96.059 E0.53844
G1 X105.717 Y96.111 E0.53930
G1 X105.784 Y96.156 E0.53994
G1 X105.903 Y96.225 E0.54104
G1 X105.951 Y96.260 E0.54151
G1 X106.100 Y96.351 E0.54289
G1 X106.127 Y96.370 E0.54315
G1 X106.577 Y96.650 E0.54735
G1 X106.860 Y96.782 E0.54983
G1 X107.274 Y96.933 E0.55333
G1 X107.677 Y96.926 E0.55653
G1 X107.692 Y96.926 E0.55664
G1 X107.986 Y96.893 E0.55899
G1 X108.023 Y96.886 E0.55929
G1 X108.272 Y96.822 E0.56133
G1 X108.279 Y96.820 E0.56139
G1 X108.635 Y96.725 E0.56432
G1 X108.679 Y96.709 E0.56468
G1 X108.794 Y96.685 E0.56561
G1 X108.856 Y96.664 E0.56613
G1 X108.945 Y96.648 E0.56685
G1 X109.018 Y96.628 E0.56745
G1 X109.088 Y96.618 E0.56802
G1 X109.167 Y96.600 E0.56866
G1 X109.226 Y96.594 E0.56913
G1 X109.307 Y96.582 E0.56978
G1 X109.431 Y96.573 E0.57076
G1 X109.486 Y96.573 E0.57120
G1 X109.556 Y96.572 E0.57175
G1 X109.798 Y96.589 E0.57368
G1 X109.882 Y96.611 E0.57436
G1 X109.959 Y96.651 E0.57506
G1 X110.045 Y96.728 E0.57597
G1 X110.058 Y96.747 E0.57616
G1 X110.102 Y96.831 E0.57690
G1 X110.123 Y96.866 E0.57723
G1 X110.149 Y96.939 E0.57785
G1 X110.183 Y97.020 E0.57854
G1 X110.191 Y97.056 E0.57883
G1 X110.204 Y97.098 E0.57918
G1 X110.217 Y97.189 E0.57991
G1 X110.227 Y97.232 E0.58027
G1 X110.229 Y97.302 E0.58082
G1 X110.238 Y97.395 E0.58156
G1 X110.213 Y97.617 E0.58334
G1 X110.136 Y98.056 E0.58687
G1 X110.122 Y98.242 E0.58835
G1 X110.128 Y98.329 E0.58904
G1 X110.128 Y98.406 E0.58965
G1 X110.157 Y98.533 E0.59069
G1 X110.158 Y98.558 E0.59088
G1 X110.167 Y98.581 E0.59108
G1 X110.185 Y98.702 E0.59205
G1 X110.222 Y98.784 E0.59276
G1 X110.236 Y98.849 E0.59329
G1 X110.278 Y98.922 E0.59396
G1 X110.299 Y98.991 E0.59454
G1 X110.346 Y99.067 E0.59524
G1 X110.367 Y99.133 E0.59579
G1 X110.415 Y99.205 E0.59648
G1 X110.451 Y99.288 E0.59719
G1 X110.544 Y99.423 E0.59849
G1 X110.557 Y99.450 E0.59873
G1 X110.574 Y99.473 E0.59896
G1 X110.651 Y99.615 E0.60024
G1 X110.735 Y99.728 E0.60135
G1 X110.772 Y99.792 E0.60195
G1 X110.905 Y99.974 E0.60373
G1 X111.043 Y100.185 E0.60573
G1 X111.078 Y100.230 E0.60618
G1 X111.179 Y100.390 E0.60769
G1 X111.245 Y100.480 E0.60857
G1 X111.714 Y101.226 E0.61556
G1 X112.115 Y101.982 E0.62235
G1 X112.336 Y102.495 E0.62678
G1 X112.520 Y103.022 E0.63121
G1 X112.664 Y103.562 E0.63564
G1 X112.767 Y104.112 E0.64008
G1 X112.830 Y104.669 E0.64452
G1 X112.851 Y105.229 E0.64897
G1 X112.830 Y105.790 E0.65342
G1 X112.767 Y106.347 E0.65787
G1 X112.664 Y106.897 E0.66231
G1 X112.520 Y107.436 E0.66674
G1 X112.336 Y107.962 E0.67116
G1 X112.113 Y108.471 E0.67556
G1 X111.854 Y108.960 E0.67995
G1 X111.559 Y109.425 E0.68432
G1 X111.231 Y109.864 E0.68867
G1 X110.869 Y110.275 E0.69302
G1 X110.472 Y110.655 E0.69738
G1 X110.039 Y111.005 E0.70179
G1 X109.571 Y111.321 E0.70627
G1 X109.101 Y111.596 E0.71060
G1 X108.944 Y111.670 E0.71197
G1 X108.900 Y111.696 E0.71238
G1 X108.817 Y111.734 E0.71310
G1 X108.638 Y111.829 E0.71470
G1 X108.603 Y111.844 E0.71501
G1 X108.203 Y112.053 E0.71859
G1 X108.082 Y112.129 E0.71972
G1 X108.022 Y112.173 E0.72031
G1 X107.967 Y112.220 E0.72089
G1 X107.899 Y112.228 E0.72143
G1 X107.768 Y112.275 E0.72254
G1 X107.660 Y112.340 E0.72354
G1 X107.597 Y112.404 E0.72425
G1 X107.529 Y112.456 E0.72493
G1 X107.427 Y112.574 E0.72617
G1 X107.415 Y112.584 E0.72629
G1 X107.275 Y112.749 E0.72801
G1 X107.260 Y112.772 E0.72822
G1 X107.163 Y112.898 E0.72949
G1 X107.033 Y113.101 E0.73139
G1 X106.966 Y113.191 E0.73229
G1 X106.858 Y113.317 E0.73360
G1 X106.586 Y113.582 E0.73662
G1 X106.423 Y113.708 E0.73825
G1 X106.257 Y113.820 E0.73984
G1 X106.256 Y113.820 E0.73985
G1 X105.992 Y113.965 E0.74223
G1 X105.940 Y113.999 E0.74272
G1 X105.820 Y114.062 E0.74380
G1 X105.788 Y114.088 E0.74413
G1 X105.731 Y114.118 E0.74464
G1 X105.656 Y114.164 E0.74534
G1 X105.537 Y114.217 E0.74637
G1 X105.231 Y114.315 E0.74892
G1 X104.279 Y114.512 E0.75663
G1 X103.883 Y114.560 E0.75979
G1 X103.469 Y114.580 E0.76309
G1 X102.806 Y114.559 E0.76835
G1 X102.356 Y114.512 E0.77194
G1 X101.910 Y114.434 E0.77553
G1 X101.475 Y114.319 E0.77910
G1 X101.273 Y114.250 E0.78079
G1 X101.080 Y114.171 E0.78245
G1 X100.701 Y113.983 E0.78580
G1 X99.499 Y113.245 E0.79699
G1 X98.932 Y112.835 E0.80254
G1 X98.415 Y112.387 E0.80797
G1 X97.901 Y111.849 E0.81387
G1 X97.534 Y111.390 E0.81853
G1 X97.321 Y111.070 E0.82158
G1 X97.133 Y110.725 E0.82470
G1 X96.728 Y109.754 E0.83304
G1 X96.043 Y107.172 E0.85424
G1 X95.961 Y106.750 E0.85765
G1 X95.907 Y106.290 E0.86132
G1 X95.905 Y105.362 E0.86869
G1 X96.026 Y104.027 E0.87932
G1 X96.437 Y101.870 E0.89674
G1 X96.545 Y101.483 E0.89993
G1 X96.660 Y101.166 E0.90260
G1 X96.937 Y100.577 E0.90776
G1 X97.310 Y99.941 E0.91361
G1 X97.693 Y99.410 E0.91880
G1 X97.997 Y99.063 E0.92247
G1 X98.144 Y98.922 E0.92408
G1 X98.213 Y98.864 E0.92480
G1 X98.286 Y98.811 E0.92551
G1 X98.351 Y98.769 E0.92612
G1 X99.208 Y98.381 E0.93359
G1 X99.384 Y98.318 E0.93507
G1 X99.521 Y98.283 E0.93619
G1 X99.630 Y98.268 E0.93707
G1 X99.707 Y98.265 E0.93768
G1 X99.986 Y98.280 E0.93989
G1 X100.097 Y98.297 E0.94079
G1 X100.392 Y98.380 E0.94322
G1 X100.408 Y98.386 E0.94335
G1 X100.416 Y98.438 E0.94376
G1 X100.416 Y98.441 E0.94378
G1 X100.416 Y98.443 E0.94381
G1 X100.415 Y98.447 E0.94384
G1 X100.415 Y98.448 E0.94385
G1 X100.412 Y98.453 E0.94389
G1 X100.407 Y98.461 E0.94397
G1 X100.399 Y98.476 E0.94410
G1 X100.386 Y98.493 E0.94427
G1 X100.371 Y98.516 E0.94449
G1 X100.371 Y98.516 E0.94449
G1 X100.371 Y98.517 E0.94449
G1 X100.350 Y98.541 E0.94475
G1 X100.333 Y98.567 E0.94499
G1 X100.331 Y98.570 E0.94502
G1 X100.329 Y98.572 E0.94505
G1 X100.306 Y98.599 E0.94532
G1 X100.288 Y98.627 E0.94559
G1 X100.286 Y98.630 E0.94562
G1 X100.284 Y98.633 E0.94565
G1 X100.261 Y98.662 E0.94594
G1 X100.243 Y98.690 E0.94620
G1 X100.242 Y98.692 E0.94622
G1 X100.239 Y98.696 E0.94626
G1 X100.217 Y98.724 E0.94654
G1 X100.200 Y98.751 E0.94680
G1 X100.200 Y98.752 E0.94681
G1 X100.198 Y98.754 E0.94683
G1 X100.177 Y98.781 E0.94710
G1 X100.159 Y98.808 E0.94735
G1 X100.137 Y98.834 E0.94762
G1 X100.120 Y98.856 E0.94784
G1 X100.085 Y98.894 E0.94826
G1 X99.731 Y99.248 E0.95223
G1 X99.639 Y99.356 E0.95335
G1 X99.622 Y99.380 E0.95359
G1 X99.565 Y99.455 E0.95433
G1 X99.540 Y99.494 E0.95470
G1 X99.531 Y99.506 E0.95482
G1 X99.525 Y99.517 E0.95492
G1 X99.501 Y99.552 E0.95526
G1 X99.485 Y99.578 E0.95550
G1 X99.469 Y99.603 E0.95574
G1 X99.455 Y99.629 E0.95597
G1 X99.313 Y99.853 E0.95807
G1 X98.609 Y100.812 E0.96751
G1 X98.211 Y101.491 E0.97375
G1 X98.004 Y101.935 E0.97764
G1 X97.797 Y102.533 E0.98266
G1 X97.551 Y103.577 E0.99116
G1 X97.400 Y104.733 E1.00042
G1 X97.326 Y107.172 E1.01977
G1 X97.347 Y107.550 E1.02278
G1 X97.441 Y108.176 E1.02780
G1 X97.609 Y108.855 E1.03335
G1 X97.772 Y109.339 E1.03740
G1 X97.969 Y109.785 E1.04127
G1 X98.344 Y110.440 E1.04725
G1 X98.591 Y110.803 E1.05074
