; generated by Slic3r 0.7.2b on 2012-06-14 at 19:15:18

; layer_height = 0.1
; perimeters = 2
; solid_layers = 6
; fill_density = 0
; nozzle_diameter = 0.4
; filament_diameter = 2.94
; extrusion_multiplier = 1
; perimeter_speed = 15
; infill_speed = 30
; travel_speed = 90
; extrusion_width_ratio = 0
; scale = 1
; single wall width = 0.56mm

M104 S190 ; set temperature
M92 X78.7402 Y78.7402 E926 ;Set the right speed
G28 ;home all axes
M106 ;turn fan on
M109 S190 ; wait for temperature to be reached
G90 ; use absolute coordinates
G21 ; set units to millimeters
G92 E0 ; reset extrusion distance
M82 ; use absolute distances for extrusion
M106 S254
G1 Z0.100 F5400.000
G1 X92.782 Y93.897
G1
G1 X92.831 Y93.870 F270.000 E0.00045
G1 X93.358 Y93.658 E0.00495
G1 X93.985 Y93.350 E0.01049
G1 X94.040 Y93.328 E0.01096
G1 X94.056 Y93.319 E0.01111
G1 X94.592 Y93.105 E0.01569
G1 X94.744 Y93.066 E0.01693
G1 X95.032 Y93.008 E0.01926
G1 X95.132 Y93.007 E0.02006
G1 X95.678 Y93.044 E0.02440
G1 X95.845 Y93.071 E0.02574
G1 X95.752 Y93.138 E0.02664
G1 X95.718 Y93.417 E0.02888
G1 X95.594 Y93.529 E0.03020
G1 X95.485 Y93.691 E0.03175
G1 X95.452 Y93.715 E0.03207
G1 X95.145 Y94.027 E0.03555
G1 X95.057 Y94.097 E0.03643
G1 X95.029 Y94.144 E0.03687
G1 X94.662 Y94.497 E0.04091
G1 X94.607 Y94.607 E0.04189
G1 X94.232 Y95.030 E0.04637
G1 X94.225 Y95.292 E0.04845
G1 X94.004 Y95.572 E0.05129
G1 X93.870 Y95.779 E0.05324
G1 X93.003 Y96.920 E0.06461
G1 X92.130 Y98.360 E0.07797
G1 X91.725 Y99.214 E0.08547
G1 X91.406 Y100.129 E0.09315
G1 X90.921 Y102.052 E0.10888
G1 X90.605 Y104.223 E0.12628
G1 X90.530 Y105.373 E0.13543
G1 X90.503 Y107.691 E0.15382
G1 X90.324 Y107.905 E0.15603
G1 X90.375 Y108.953 E0.16436
G1 X90.363 Y109.140 E0.16584
G1 X90.513 Y110.230 E0.17457
G1 X90.512 Y110.278 E0.17495
G1 X90.787 Y111.671 E0.18621
G1 X91.161 Y112.954 E0.19682
G1 X91.657 Y114.097 E0.20670
G1 X92.858 Y116.060 E0.22496
G1 X92.888 Y116.093 E0.22531
G1 X93.577 Y116.985 E0.23425
G1 X93.814 Y117.118 E0.23641
G1 X94.608 Y117.672 E0.24409
G1 X95.233 Y117.771 E0.24910
G1 X95.472 Y117.877 E0.25118
G1 X95.690 Y117.955 E0.25302
G1 X96.299 Y118.226 E0.25831
G1 X97.254 Y118.533 E0.26626
G1 X98.045 Y118.458 E0.27256
G1 X98.154 Y118.472 E0.27344
G1 X98.235 Y118.468 E0.27408
G1 X98.631 Y118.468 E0.27722
G1 X99.014 Y118.441 E0.28027
G1 X100.205 Y117.907 E0.29063
G1 X99.935 Y117.604 E0.29385
G1 X100.007 Y117.244 E0.29676
G1 X99.271 Y116.615 E0.30444
G1 X99.244 Y116.353 E0.30653
G1 X98.789 Y115.944 E0.31138
G1 X98.458 Y115.065 E0.31883
G1 X98.473 Y114.559 E0.32285
G1 X97.287 Y113.094 E0.33781
G1 X97.157 Y112.821 E0.34020
G1 X96.298 Y111.340 E0.35379
G1 X95.550 Y109.481 E0.36969
G1 X95.084 Y107.476 E0.38601
G1 X94.934 Y105.468 E0.40198
G1 X95.084 Y103.460 E0.41796
G1 X95.546 Y101.446 E0.43435
G1 X96.267 Y99.575 E0.45026
G1 X97.275 Y97.875 E0.46594
G1 X98.269 Y96.649 E0.47846
G1 X99.869 Y95.194 E0.49562
G1 X100.006 Y95.026 E0.49734
G1 X101.391 Y94.131 E0.51041
G1 X101.664 Y93.801 E0.51381
G1 X103.220 Y93.080 E0.52742
G1 X103.347 Y92.194 E0.53452
G1 X103.397 Y92.161 E0.53500
G1 X103.441 Y91.911 E0.53701
G1 X104.278 Y90.533 E0.54980
G1 X104.008 Y89.471 E0.55849
G1 X103.997 Y89.292 E0.55991
G1 X104.134 Y88.994 E0.56252
G1 X104.095 Y88.060 E0.56993
G1 X104.510 Y88.119 E0.57325
G1 X105.432 Y88.505 E0.58119
G1 X105.561 Y88.618 E0.58254
G1 X106.807 Y89.283 E0.59375
G1 X106.927 Y89.397 E0.59506
G1 X109.124 Y90.535 E0.61469
G1 X111.434 Y90.156 E0.63326
G1 X111.556 Y90.085 E0.63437
G1 X112.737 Y89.885 E0.64388
G1 X112.845 Y89.830 E0.64484
G1 X113.596 Y89.785 E0.65081
G1 X114.123 Y89.884 E0.65506
G1 X114.020 Y90.963 E0.66366
G1 X114.120 Y91.285 E0.66634
G1 X114.096 Y91.454 E0.66769
G1 X113.909 Y92.002 E0.67228
G1 X113.308 Y93.000 E0.68152
G1 X114.337 Y94.069 E0.69329
G1 X114.338 Y94.084 E0.69342
G1 X114.349 Y94.097 E0.69355
G1 X114.258 Y94.960 E0.70044
G1 X115.527 Y96.154 E0.71426
G1 X115.755 Y96.602 E0.71825
G1 X116.799 Y97.891 E0.73141
G1 X117.786 Y99.636 E0.74731
G1 X118.519 Y101.499 E0.76320
G1 X118.964 Y103.459 E0.77914
G1 X119.114 Y105.468 E0.79512
G1 X118.964 Y107.478 E0.81111
G1 X118.519 Y109.437 E0.82705
G1 X117.788 Y111.297 E0.84290
G1 X116.793 Y113.012 E0.85863
G1 X115.561 Y114.533 E0.87416
G1 X114.070 Y115.842 E0.88990
G1 X112.261 Y116.940 E0.90668
G1 X111.872 Y117.132 E0.91013
G1 X111.379 Y117.030 E0.91412
G1 X111.156 Y117.224 E0.91646
G1 X109.467 Y117.801 E0.93063
G1 X108.807 Y118.970 E0.94127
G1 X108.533 Y119.138 E0.94382
G1 X108.263 Y119.826 E0.94968
G1 X107.850 Y120.479 E0.95581
G1 X107.532 Y120.897 E0.95998
G1 X106.819 Y121.233 E0.96623
G1 X106.416 Y121.467 E0.96993
G1 X105.634 Y121.772 E0.97659
G1 X104.286 Y122.080 E0.98755
G1 X102.876 Y122.321 E0.99890
G1 X101.345 Y122.345 E1.01105
G1 X99.714 Y122.188 E1.02405
G1 X98.171 Y121.804 E1.03667
G1 X97.863 Y121.654 E1.03938
G1 X97.663 Y121.402 E1.04193
G1 X96.880 Y121.040 E1.04878
G1 X96.650 Y120.864 E1.05107
G1 X95.562 Y120.270 E1.06091
G1 X94.482 Y119.568 E1.07113
G1 X93.530 Y118.822 E1.08072
G1 X92.626 Y117.961 E1.09063
G1 X91.690 Y116.895 E1.10188
G1 X90.933 Y115.761 E1.11270
G1 X90.328 Y114.384 E1.12463
G1 X89.807 Y112.966 E1.13661
G1 X88.572 Y107.793 E1.17880
G1 X88.542 Y106.145 E1.19188
G1 X88.646 Y104.495 E1.20499
G1 X89.083 Y101.426 E1.22958
G1 X89.093 Y101.387 E1.22990
G1 X89.099 Y101.346 E1.23023
G1 X89.396 Y100.166 E1.23989
G1 X89.420 Y99.972 E1.24144
G1 X89.654 Y99.127 E1.24839
G1 X89.629 Y98.853 E1.25057
G1 X89.678 Y98.668 E1.25209
G1 X90.140 Y97.555 E1.26166
G1 X90.664 Y96.566 E1.27053
G1 X91.208 Y95.697 E1.27867
G1 X91.758 Y94.951 E1.28602
G1 X92.292 Y94.336 E1.29248
G1 X92.719 Y93.953 E1.29703
G1 X92.461 Y93.447 F5400.000
G1 X92.594 Y93.373 F270.000 E1.29824
G1 X93.134 Y93.156 E1.30286
G1 X93.759 Y92.849 E1.30838
G1 X93.812 Y92.827 E1.30883
G1 X93.831 Y92.818 E1.30901
G1 X94.420 Y92.583 E1.31403
G1 X94.620 Y92.530 E1.31568
G1 X94.974 Y92.460 E1.31854
G1 X95.146 Y92.457 E1.31991
G1 X95.741 Y92.497 E1.32464
G1 X96.001 Y92.540 E1.32672
G1 X96.170 Y92.598 E1.32814
G1 X96.472 Y92.669 E1.33060
G1 X96.551 Y92.699 E1.33128
G1 X96.625 Y92.756 E1.33201
G1 X96.626 Y92.757 E1.33203
G1 X96.649 Y92.880 E1.33302
G1 X96.661 Y92.990 E1.33390
G1 X96.608 Y93.066 E1.33464
G1 X96.573 Y93.205 E1.33577
G1 X96.557 Y93.220 E1.33594
G1 X96.545 Y93.245 E1.33617
G1 X96.268 Y93.444 E1.33887
G1 X96.241 Y93.660 E1.34060
G1 X96.231 Y93.671 E1.34072
G1 X96.214 Y93.708 E1.34104
G1 X96.012 Y93.891 E1.34320
G1 X95.887 Y94.077 E1.34499
G1 X95.812 Y94.132 E1.34572
G1 X95.513 Y94.436 E1.34910
G1 X95.478 Y94.464 E1.34946
G1 X95.464 Y94.489 E1.34969
G1 X95.111 Y94.827 E1.35357
G1 X95.066 Y94.918 E1.35437
G1 X94.776 Y95.244 E1.35783
G1 X94.770 Y95.464 E1.35957
G1 X94.739 Y95.507 E1.36000
G1 X94.712 Y95.563 E1.36049
G1 X94.451 Y95.893 E1.36383
G1 X94.319 Y96.095 E1.36574
G1 X93.458 Y97.229 E1.37704
G1 X92.615 Y98.621 E1.38995
G1 X92.233 Y99.423 E1.39699
G1 X91.932 Y100.287 E1.40425
G1 X91.459 Y102.166 E1.41962
G1 X91.153 Y104.273 E1.43652
G1 X91.079 Y105.394 E1.44542
G1 X91.049 Y107.893 E1.46525
G1 X90.883 Y108.092 E1.46731
G1 X90.925 Y108.957 E1.47418
G1 X90.915 Y109.119 E1.47547
G1 X91.063 Y110.198 E1.48411
G1 X91.062 Y110.230 E1.48436
G1 X91.321 Y111.541 E1.49496
G1 X91.679 Y112.767 E1.50509
G1 X92.148 Y113.850 E1.51446
G1 X93.296 Y115.724 E1.53189
G1 X93.310 Y115.741 E1.53207
G1 X93.943 Y116.561 E1.54029
G1 X94.106 Y116.652 E1.54176
G1 X94.819 Y117.149 E1.54866
G1 X95.389 Y117.239 E1.55324
G1 X95.677 Y117.367 E1.55574
G1 X95.895 Y117.445 E1.55758
G1 X96.495 Y117.712 E1.56279
G1 X97.314 Y117.975 E1.56961
G1 X98.055 Y117.905 E1.57551
G1 X98.175 Y117.921 E1.57647
G1 X98.220 Y117.918 E1.57683
G1 X98.612 Y117.919 E1.57994
G1 X98.878 Y117.900 E1.58206
G1 X99.296 Y117.713 E1.58568
G1 X99.246 Y117.658 E1.58627
G1 X99.372 Y117.617 E1.58732
G1 X99.405 Y117.452 E1.58865
G1 X98.747 Y116.890 E1.59552
G1 X98.719 Y116.620 E1.59767
G1 X98.322 Y116.263 E1.60190
G1 X97.905 Y115.157 E1.61128
G1 X97.918 Y114.746 E1.61455
G1 X96.819 Y113.389 E1.62840
G1 X96.671 Y113.077 E1.63114
G1 X95.803 Y111.582 E1.64485
G1 X95.025 Y109.646 E1.66140
G1 X94.540 Y107.559 E1.67840
G1 X94.383 Y105.468 E1.69503
G1 X94.540 Y103.377 E1.71167
G1 X95.020 Y101.285 E1.72870
G1 X95.771 Y99.334 E1.74528
G1 X96.824 Y97.560 E1.76164
G1 X97.868 Y96.271 E1.77481
G1 X99.469 Y94.816 E1.79197
G1 X99.634 Y94.612 E1.79405
G1 X101.021 Y93.716 E1.80715
G1 X101.319 Y93.355 E1.81087
G1 X102.719 Y92.707 E1.82310
G1 X102.839 Y91.868 E1.82982
G1 X102.898 Y91.830 E1.83037
G1 X102.918 Y91.714 E1.83131
G1 X103.689 Y90.445 E1.84309
G1 X103.463 Y89.555 E1.85037
G1 X103.441 Y89.188 E1.85329
G1 X103.580 Y88.885 E1.85593
G1 X103.529 Y87.673 E1.86555
G1 X103.716 Y87.465 E1.86778
G1 X103.725 Y87.453 E1.86789
G1 X104.657 Y87.585 E1.87536
G1 X105.726 Y88.033 E1.88456
G1 X105.875 Y88.162 E1.88612
G1 X107.132 Y88.833 E1.89743
G1 X107.249 Y88.945 E1.89871
G1 X109.215 Y89.963 E1.91627
G1 X111.246 Y89.630 E1.93260
G1 X111.367 Y89.560 E1.93371
G1 X112.562 Y89.357 E1.94332
G1 X112.698 Y89.288 E1.94453
G1 X113.631 Y89.233 E1.95195
G1 X114.498 Y89.395 E1.95894
G1 X114.522 Y89.443 E1.95937
G1 X114.690 Y89.726 E1.96198
G1 X114.577 Y90.906 E1.97138
G1 X114.680 Y91.240 E1.97415
G1 X114.633 Y91.582 E1.97689
G1 X114.409 Y92.235 E1.98237
G1 X113.996 Y92.922 E1.98873
G1 X114.882 Y93.842 E1.99887
G1 X114.883 Y93.879 E1.99915
G1 X114.919 Y93.922 E1.99961
G1 X114.833 Y94.747 E2.00618
G1 X115.974 Y95.819 E2.01861
G1 X116.218 Y96.301 E2.02290
G1 X117.255 Y97.581 E2.03596
G1 X118.283 Y99.399 E2.05253
G1 X119.045 Y101.337 E2.06905
G1 X119.508 Y103.377 E2.08564
G1 X119.665 Y105.468 E2.10228
G1 X119.508 Y107.560 E2.11892
G1 X119.045 Y109.600 E2.13551
G1 X118.284 Y111.537 E2.15202
G1 X117.247 Y113.324 E2.16842
G1 X115.958 Y114.915 E2.18466
G1 X114.396 Y116.286 E2.20115
G1 X112.526 Y117.421 E2.21850
G1 X111.945 Y117.709 E2.22364
G1 X111.534 Y117.623 E2.22698
G1 X111.280 Y117.844 E2.22965
G1 X111.076 Y117.912 E2.23135
G1 X110.993 Y117.954 E2.23209
G1 X110.988 Y117.862 E2.23282
G1 X109.842 Y118.253 E2.24243
G1 X109.216 Y119.363 E2.25254
G1 X108.977 Y119.510 E2.25475
G1 X108.755 Y120.076 E2.25958
G1 X108.301 Y120.793 E2.26631
G1 X107.887 Y121.336 E2.27173
G1 X107.075 Y121.720 E2.27886
G1 X106.655 Y121.963 E2.28271
G1 X105.795 Y122.298 E2.29003
G1 X104.394 Y122.619 E2.30144
G1 X102.927 Y122.870 E2.31324
G1 X101.323 Y122.895 E2.32596
G1 X99.621 Y122.731 E2.33953
G1 X97.982 Y122.323 E2.35293
G1 X97.510 Y122.093 E2.35709
G1 X97.314 Y121.846 E2.35960
G1 X96.594 Y121.513 E2.36589
G1 X96.350 Y121.326 E2.36833
G1 X95.280 Y120.742 E2.37800
G1 X94.162 Y120.016 E2.38857
G1 X93.170 Y119.238 E2.39857
G1 X92.229 Y118.341 E2.40888
G1 X91.253 Y117.230 E2.42062
G1 X90.449 Y116.026 E2.43210
G1 X89.818 Y114.589 E2.44455
G1 X89.280 Y113.125 E2.45692
G1 X88.024 Y107.863 E2.49984
G1 X87.992 Y106.133 E2.51357
G1 X88.099 Y104.445 E2.52699
G1 X88.545 Y101.310 E2.55211
G1 X88.554 Y101.279 E2.55236
G1 X88.558 Y101.242 E2.55265
G1 X88.855 Y100.064 E2.56230
G1 X88.880 Y99.864 E2.56389
G1 X89.098 Y99.077 E2.57037
G1 X89.073 Y98.807 E2.57252
G1 X89.156 Y98.492 E2.57511
G1 X89.643 Y97.320 E2.58517
G1 X90.187 Y96.291 E2.59441
G1 X90.753 Y95.387 E2.60287
G1 X91.329 Y94.607 E2.61056
G1 X91.900 Y93.950 E2.61747
G1 X92.399 Y93.503 E2.62278
G1 X90.404 Y101.856 F5400.000
G1 X90.879 Y99.971 F540.000 E2.63902
G1 X91.216 Y99.006 E2.64757
G1 X91.646 Y98.099 E2.65596
G1 X92.548 Y96.611 E2.67050
G1 X93.420 Y95.463 E2.68255
G1 X93.557 Y95.252 E2.68465
G1 X93.681 Y95.095 E2.68632
G1 X93.688 Y94.815 E2.68867
G1 X94.165 Y94.278 E2.69467
G1 X93.972 Y94.004 E2.69747
G1 X93.092 Y94.357 E2.70539
G1 X92.684 Y94.722 E2.70997
G1 X92.187 Y95.294 E2.71631
G1 X91.662 Y96.006 E2.72370
G1 X91.140 Y96.840 E2.73193
G1 X90.637 Y97.789 E2.74089
G1 X90.183 Y98.883 E2.75080
G1 X90.210 Y99.176 E2.75326
G1 X89.960 Y100.081 E2.76110
G1 X89.937 Y100.268 E2.76268
G1 X89.639 Y101.450 E2.77287
G1 X89.633 Y101.495 E2.77325
G1 X89.620 Y101.543 E2.77366
G1 X89.193 Y104.545 E2.79900
G1 X89.092 Y106.158 E2.81251
G1 X89.120 Y107.724 E2.82560
G1 X89.362 Y108.738 E2.83432
G1 X89.812 Y108.674 E2.83811
G1 X89.765 Y107.717 E2.84612
G1 X89.956 Y107.489 E2.84861
G1 X89.981 Y105.351 E2.86648
G1 X90.058 Y104.172 E2.87635
G1 X90.383 Y101.937 E2.89523
G1 X95.484 Y105.468 F5400.000
G1 X95.629 Y103.542 F540.000 E2.91116
G1 X96.073 Y101.607 E2.92755
G1 X96.763 Y99.815 E2.94339
G1 X97.727 Y98.190 E2.95898
G1 X98.669 Y97.028 E2.97133
G1 X100.270 Y95.572 E2.98918
G1 X100.378 Y95.439 E2.99059
G1 X101.760 Y94.546 E3.00417
G1 X102.008 Y94.247 E3.00737
G1 X103.721 Y93.454 E3.02295
G1 X103.855 Y92.519 E3.03074
G1 X103.897 Y92.492 E3.03115
G1 X103.965 Y92.108 E3.03437
G1 X104.867 Y90.621 E3.04872
G1 X104.555 Y89.394 E3.05917
G1 X104.808 Y88.839 E3.06419
G1 X105.138 Y88.978 E3.06714
G1 X105.247 Y89.073 E3.06834
G1 X106.483 Y89.732 E3.07989
G1 X106.605 Y89.849 E3.08129
G1 X109.033 Y91.106 E3.10385
G1 X111.621 Y90.682 E3.12549
G1 X111.744 Y90.611 E3.12666
G1 X112.911 Y90.412 E3.13643
G1 X112.992 Y90.371 E3.13718
G1 X113.528 Y90.340 E3.14160
G1 X113.463 Y91.020 E3.14725
G1 X113.558 Y91.329 E3.14991
G1 X113.408 Y91.769 E3.15375
G1 X112.620 Y93.077 E3.16635
G1 X113.777 Y94.279 E3.18011
G1 X113.683 Y95.174 E3.18754
G1 X115.081 Y96.488 E3.20337
G1 X115.291 Y96.903 E3.20721
G1 X116.344 Y98.201 E3.22100
G1 X117.289 Y99.872 E3.23684
G1 X117.992 Y101.661 E3.25270
G1 X118.419 Y103.541 E3.26860
G1 X118.564 Y105.468 E3.28455
G1 X118.419 Y107.396 E3.30050
G1 X117.992 Y109.275 E3.31640
G1 X117.292 Y111.057 E3.33220
G1 X116.340 Y112.699 E3.34786
G1 X115.163 Y114.151 E3.36328
G1 X113.744 Y115.397 E3.37887
G1 X111.996 Y116.458 E3.39573
G1 X111.798 Y116.556 E3.39756
G1 X111.224 Y116.437 E3.40240
G1 X110.877 Y116.739 E3.40619
G1 X109.091 Y117.349 E3.42176
G1 X108.398 Y118.576 E3.43339
G1 X108.089 Y118.767 E3.43639
G1 X107.771 Y119.577 E3.44357
G1 X107.398 Y120.165 E3.44931
G1 X107.176 Y120.457 E3.45234
G1 X106.563 Y120.746 E3.45793
G1 X106.177 Y120.971 E3.46162
G1 X105.472 Y121.245 E3.46786
G1 X104.178 Y121.541 E3.47881
G1 X102.825 Y121.772 E3.49014
G1 X101.367 Y121.796 E3.50217
G1 X99.807 Y121.646 E3.51510
G1 X98.359 Y121.285 E3.52741
G1 X98.216 Y121.215 E3.52873
G1 X98.013 Y120.958 E3.53143
G1 X97.165 Y120.567 E3.53913
G1 X96.951 Y120.403 E3.54136
G1 X95.844 Y119.798 E3.55177
G1 X94.801 Y119.121 E3.56202
G1 X93.921 Y118.431 E3.57126
G1 X94.048 Y118.139 E3.57388
G1 X95.076 Y118.302 E3.58247
G1 X95.268 Y118.387 E3.58420
G1 X95.485 Y118.465 E3.58611
G1 X96.103 Y118.740 E3.59169
G1 X97.193 Y119.090 E3.60114
G1 X98.034 Y119.010 E3.60811
G1 X98.134 Y119.024 E3.60893
G1 X98.251 Y119.017 E3.60990
G1 X98.649 Y119.017 E3.61319
G1 X99.150 Y118.982 E3.61733
G1 X101.115 Y118.101 E3.63510
G1 X100.527 Y117.443 E3.64238
G1 X100.608 Y117.036 E3.64580
G1 X99.795 Y116.341 E3.65464
G1 X99.769 Y116.086 E3.65675
G1 X99.256 Y115.625 E3.66244
G1 X99.010 Y114.973 E3.66818
G1 X99.029 Y114.372 E3.67315
G1 X97.755 Y112.799 E3.68985
G1 X97.644 Y112.565 E3.69199
G1 X96.793 Y111.099 E3.70598
G1 X96.076 Y109.315 E3.72184
G1 X95.629 Y107.393 E3.73812
G1 X95.491 Y105.552 E3.75335
G1 X96.046 Y105.468 F5400.000
G1 X96.184 Y103.626 F540.000 E3.76859
G1 X96.610 Y101.771 E3.78430
G1 X97.269 Y100.060 E3.79942
G1 X98.188 Y98.511 E3.81429
G1 X99.077 Y97.413 E3.82595
G1 X100.678 Y95.958 E3.84380
G1 X100.757 Y95.861 E3.84482
G1 X102.137 Y94.970 E3.85838
G1 X102.359 Y94.701 E3.86125
G1 X104.232 Y93.834 E3.87829
G1 X104.374 Y92.851 E3.88648
G1 X104.406 Y92.830 E3.88680
G1 X104.498 Y92.309 E3.89117
G1 X105.467 Y90.711 E3.90659
G1 X105.207 Y89.686 E3.91531
G1 X106.152 Y90.190 E3.92415
G1 X106.277 Y90.309 E3.92557
G1 X108.941 Y91.689 E3.95033
G1 X111.812 Y91.218 E3.97434
G1 X111.937 Y91.146 E3.97552
G1 X112.904 Y90.982 E3.98362
G1 X112.895 Y91.079 E3.98442
G1 X112.969 Y91.320 E3.98651
G1 X112.897 Y91.531 E3.98834
G1 X111.918 Y93.156 E4.00400
G1 X113.193 Y94.479 E4.01916
G1 X113.097 Y95.392 E4.02673
G1 X114.626 Y96.829 E4.04404
G1 X114.819 Y97.209 E4.04756
G1 X115.879 Y98.517 E4.06145
G1 X116.782 Y100.114 E4.07659
G1 X117.456 Y101.827 E4.09177
G1 X117.864 Y103.624 E4.10698
G1 X118.002 Y105.468 E4.12224
