; generated by Slic3r 0.7.2b on 2012-06-04 at 11:20:53

; layer_height = 0.1
; perimeters = 1
; solid_layers = 0
; fill_density = 0
; nozzle_diameter = 0.4
; filament_diameter = 2.94
; extrusion_multiplier = 1
; perimeter_speed = 20
; infill_speed = 30
; travel_speed = 90
; extrusion_width_ratio = 0
; scale = 1
; single wall width = 0.56mm

M104 S180 ; set temperature
M92 X78.7402 Y78.7402 E926 ;Set the right speed
G28 ;home all axes
M106 ;turn fan on
M109 S180 ; wait for temperature to be reached
G90 ; use absolute coordinates
G21 ; set units to millimeters
G92 E0 ; reset extrusion distance
M82 ; use absolute distances for extrusion
M106 S254
G1 Z0.100 F5400.000
G1 X96.897 Y97.287
G1
G1 X97.133 Y97.163 F360.000 E0.00211
G1 X97.359 Y97.076 E0.00404
G1 X97.643 Y96.937 E0.00655
G1 X98.220 Y96.691 E0.01153
G1 X98.278 Y96.673 E0.01200
G1 X98.564 Y96.616 E0.01431
G1 X98.801 Y96.612 E0.01620
G1 X99.206 Y96.640 E0.01942
G1 X99.212 Y96.641 E0.01947
G1 X99.436 Y96.718 E0.02134
G1 X99.526 Y96.740 E0.02208
G1 X99.648 Y96.785 E0.02311
G1 X99.655 Y96.790 E0.02318
G1 X99.660 Y96.820 E0.02342
G1 X99.660 Y96.822 E0.02343
G1 X99.667 Y96.865 E0.02378
G1 X99.620 Y96.931 E0.02442
G1 X99.609 Y96.975 E0.02478
G1 X99.571 Y97.011 E0.02520
G1 X99.547 Y97.059 E0.02562
G1 X99.399 Y97.165 E0.02706
G1 X99.385 Y97.278 E0.02797
G1 X99.352 Y97.313 E0.02835
G1 X99.324 Y97.376 E0.02890
G1 X99.247 Y97.446 E0.02973
G1 X99.151 Y97.588 E0.03109
G1 X99.134 Y97.603 E0.03126
G1 X99.129 Y97.609 E0.03132
G1 X98.890 Y97.810 E0.03380
G1 X98.855 Y97.849 E0.03422
G1 X98.627 Y98.069 E0.03673
G1 X98.565 Y98.193 E0.03783
G1 X98.424 Y98.351 E0.03951
G1 X98.422 Y98.445 E0.04026
G1 X98.361 Y98.527 E0.04107
G1 X98.322 Y98.608 E0.04178
G1 X98.200 Y98.763 E0.04335
G1 X98.068 Y98.967 E0.04527
G1 X97.499 Y99.727 E0.05281
G1 X96.940 Y100.662 E0.06145
G1 X96.684 Y101.196 E0.06615
G1 X96.453 Y101.768 E0.07104
G1 X96.250 Y102.380 E0.07616
G1 X96.078 Y103.032 E0.08150
G1 X95.944 Y103.719 E0.08706
G1 X95.850 Y104.440 E0.09282
G1 X95.801 Y105.188 E0.09877
G1 X95.786 Y107.123 E0.11412
G1 X95.728 Y107.515 E0.11726
G1 X95.707 Y107.776 E0.11934
G1 X95.801 Y108.439 E0.12466
G1 X96.000 Y109.283 E0.13154
G1 X96.269 Y110.106 E0.13840
G1 X96.632 Y110.844 E0.14493
G1 X97.075 Y111.497 E0.15119
G1 X97.572 Y112.110 E0.15745
G1 X97.705 Y112.225 E0.15884
G1 X98.143 Y112.662 E0.16375
G1 X98.582 Y112.870 E0.16761
G1 X98.846 Y113.046 E0.17012
G1 X99.063 Y113.077 E0.17186
G1 X99.514 Y113.271 E0.17575
G1 X99.848 Y113.385 E0.17855
G1 X100.153 Y113.515 E0.18118
G1 X100.789 Y113.695 E0.18643
G1 X101.043 Y113.693 E0.18844
G1 X101.106 Y113.672 E0.18897
G1 X101.308 Y113.705 E0.19060
G1 X101.378 Y113.699 E0.19115
G1 X101.548 Y113.699 E0.19250
G1 X101.710 Y113.684 E0.19379
G1 X102.052 Y113.494 E0.19690
G1 X102.005 Y113.412 E0.19765
G1 X102.059 Y113.390 E0.19811
G1 X101.790 Y113.043 E0.20159
G1 X101.599 Y112.728 E0.20451
G1 X101.559 Y112.671 E0.20506
G1 X101.507 Y112.629 E0.20560
G1 X101.303 Y112.163 E0.20963
G1 X100.685 Y111.608 E0.21622
G1 X100.442 Y111.263 E0.21956
G1 X99.836 Y110.516 E0.22720
G1 X99.688 Y110.204 E0.22993
G1 X99.169 Y109.309 E0.23814
G1 X98.647 Y108.024 E0.24914
G1 X98.318 Y106.623 E0.26056
G1 X98.213 Y105.235 E0.27161
G1 X98.318 Y103.846 E0.28265
G1 X98.642 Y102.439 E0.29411
G1 X99.137 Y101.139 E0.30514
G1 X99.841 Y99.967 E0.31599
G1 X100.452 Y99.213 E0.32369
G1 X101.545 Y98.216 E0.33543
G1 X101.710 Y98.011 E0.33751
G1 X102.527 Y97.484 E0.34523
G1 X102.826 Y97.122 E0.34895
G1 X103.610 Y96.759 E0.35580
G1 X103.676 Y96.300 E0.35948
G1 X103.886 Y96.164 E0.36147
G1 X103.927 Y95.933 E0.36332
G1 X104.354 Y95.230 E0.36985
G1 X104.139 Y94.386 E0.37676
G1 X104.269 Y94.100 E0.37925
G1 X104.243 Y93.475 E0.38422
G1 X104.431 Y93.267 E0.38644
G1 X104.439 Y93.255 E0.38656
G1 X104.993 Y93.334 E0.39099
G1 X105.682 Y93.624 E0.39692
G1 X105.831 Y93.754 E0.39849
G1 X106.616 Y94.173 E0.40555
G1 X106.733 Y94.285 E0.40683
G1 X108.045 Y94.965 E0.41856
G1 X109.408 Y94.741 E0.42951
G1 X109.529 Y94.671 E0.43062
G1 X110.274 Y94.545 E0.43661
G1 X110.411 Y94.475 E0.43783
G1 X111.003 Y94.438 E0.44254
G1 X111.524 Y94.534 E0.44674
G1 X111.548 Y94.582 E0.44716
G1 X111.716 Y94.865 E0.44978
G1 X111.658 Y95.478 E0.45466
G1 X111.755 Y95.795 E0.45729
G1 X111.545 Y96.409 E0.46244
G1 X111.280 Y96.849 E0.46652
G1 X111.787 Y97.375 E0.47231
G1 X111.790 Y97.525 E0.47350
G1 X111.946 Y97.711 E0.47543
G1 X111.899 Y98.160 E0.47901
G1 X112.538 Y98.761 E0.48597
G1 X112.783 Y99.244 E0.49027
G1 X113.385 Y99.986 E0.49785
G1 X114.065 Y101.203 E0.50891
G1 X114.572 Y102.491 E0.51989
G1 X114.879 Y103.846 E0.53091
G1 X114.983 Y105.235 E0.54196
G1 X114.879 Y106.624 E0.55301
G1 X114.572 Y107.979 E0.56403
G1 X114.066 Y109.265 E0.57499
G1 X113.378 Y110.452 E0.58587
G1 X112.523 Y111.507 E0.59665
G1 X111.490 Y112.415 E0.60756
G1 X110.257 Y113.168 E0.61902
G1 X109.676 Y113.456 E0.62416
G1 X109.561 Y113.432 E0.62509
G1 X109.460 Y113.519 E0.62616
G1 X109.447 Y113.524 E0.62627
G1 X109.104 Y113.694 E0.62930
G1 X109.022 Y113.750 E0.63009
G1 X108.472 Y113.938 E0.63470
G1 X108.168 Y114.477 E0.63961
G1 X107.928 Y114.638 E0.64190
G1 X107.523 Y115.359 E0.64846
G1 X107.488 Y115.634 E0.65066
G1 X107.399 Y115.767 E0.65193
G1 X106.577 Y116.245 E0.65947
G1 X106.153 Y116.553 E0.66363
G1 X105.742 Y116.773 E0.66733
G1 X104.828 Y117.102 E0.67503
G1 X103.893 Y117.288 E0.68260
G1 X102.859 Y117.312 E0.69080
G1 X101.770 Y117.197 E0.69949
G1 X100.697 Y116.923 E0.70827
G1 X100.017 Y116.629 E0.71415
G1 X99.964 Y116.552 E0.71488
G1 X99.711 Y116.449 E0.71706
G1 X99.379 Y116.194 E0.72038
G1 X98.769 Y115.882 E0.72582
G1 X97.966 Y115.361 E0.73341
G1 X97.249 Y114.783 E0.74071
G1 X96.568 Y114.081 E0.74847
G1 X95.860 Y113.184 E0.75754
G1 X95.276 Y112.251 E0.76627
G1 X94.798 Y111.290 E0.77478
G1 X94.412 Y110.322 E0.78305
G1 X93.740 Y107.635 E0.80502
G1 X93.592 Y106.818 E0.81161
G1 X93.500 Y105.657 E0.82085
G1 X93.514 Y104.534 E0.82976
G1 X93.610 Y103.467 E0.83826
G1 X93.786 Y102.466 E0.84632
G1 X93.965 Y101.767 E0.85204
G1 X93.994 Y101.494 E0.85423
G1 X94.101 Y101.175 E0.85689
G1 X94.089 Y101.071 E0.85772
G1 X94.236 Y100.616 E0.86152
G1 X94.623 Y99.844 E0.86836
G1 X95.061 Y99.165 E0.87478
G1 X95.517 Y98.567 E0.88074
G1 X95.981 Y98.052 E0.88624
G1 X96.440 Y97.619 E0.89125
G1 X96.829 Y97.337 E0.89506
M106 S254
G1 Z0.200 F5400.000
G1 X96.874 Y97.214
G1 X97.077 Y97.090 F1200.000 E0.89695
G1 X97.915 Y96.712 E0.90424
G1 X98.183 Y96.611 E0.90651
G1 X98.557 Y96.504 E0.90960
G1 X98.884 Y96.464 E0.91221
G1 X99.212 Y96.490 E0.91483
G1 X99.236 Y96.493 E0.91502
G1 X99.492 Y96.551 E0.91709
G1 X99.733 Y96.636 E0.91912
G1 X99.797 Y96.682 E0.91975
G1 X99.806 Y96.699 E0.91990
G1 X99.817 Y96.769 E0.92046
G1 X99.822 Y96.857 E0.92116
G1 X99.814 Y96.895 E0.92147
G1 X99.810 Y96.917 E0.92165
G1 X99.777 Y96.972 E0.92216
G1 X99.727 Y97.018 E0.92270
G1 X99.693 Y97.086 E0.92330
G1 X99.585 Y97.230 E0.92473
G1 X99.519 Y97.300 E0.92550
G1 X99.494 Y97.358 E0.92599
G1 X99.386 Y97.488 E0.92734
G1 X99.295 Y97.570 E0.92831
G1 X99.158 Y97.716 E0.92989
G1 X99.110 Y97.756 E0.93039
G1 X98.993 Y97.889 E0.93180
G1 X98.911 Y97.970 E0.93271
G1 X98.710 Y98.209 E0.93519
G1 X98.622 Y98.357 E0.93656
G1 X98.563 Y98.436 E0.93733
G1 X98.526 Y98.513 E0.93801
G1 X97.673 Y99.629 E0.94915
G1 X97.270 Y100.260 E0.95509
G1 X97.002 Y100.750 E0.95952
G1 X96.755 Y101.278 E0.96415
G1 X96.532 Y101.845 E0.96898
G1 X96.336 Y102.451 E0.97404
G1 X96.172 Y103.095 E0.97930
G1 X96.044 Y103.772 E0.98477
G1 X95.957 Y104.482 E0.99044
G1 X95.912 Y105.221 E0.99632
G1 X95.956 Y106.964 E1.01015
G1 X95.934 Y107.502 E1.01443
G1 X95.941 Y107.776 E1.01659
G1 X96.001 Y108.358 E1.02124
G1 X96.190 Y109.177 E1.02791
G1 X96.454 Y109.962 E1.03447
G1 X96.794 Y110.687 E1.04083
G1 X97.226 Y111.311 E1.04685
G1 X97.704 Y111.889 E1.05280
G1 X98.270 Y112.405 E1.05887
G1 X98.923 Y112.783 E1.06486
G1 X99.378 Y112.948 E1.06870
G1 X99.611 Y113.069 E1.07078
G1 X99.636 Y113.079 E1.07100
G1 X100.160 Y113.344 E1.07565
G1 X100.637 Y113.499 E1.07963
G1 X100.825 Y113.575 E1.08124
G1 X100.954 Y113.587 E1.08227
G1 X101.183 Y113.624 E1.08411
G1 X101.281 Y113.616 E1.08489
G1 X101.353 Y113.622 E1.08547
G1 X101.468 Y113.612 E1.08638
G1 X101.906 Y113.502 E1.08996
G1 X101.730 Y113.194 E1.09277
G1 X101.709 Y113.122 E1.09337
G1 X101.602 Y112.946 E1.09500
G1 X101.369 Y112.610 E1.09825
G1 X100.538 Y111.935 E1.10674
G1 X99.988 Y111.354 E1.11309
G1 X99.719 Y110.973 E1.11678
G1 X99.609 Y110.837 E1.11817
G1 X99.145 Y109.862 E1.12674
G1 X98.973 Y109.565 E1.12946
G1 X98.399 Y108.236 E1.14095
G1 X98.015 Y106.690 E1.15359
G1 X97.907 Y105.252 E1.16502
G1 X98.015 Y103.813 E1.17647
G1 X98.384 Y102.249 E1.18922
G1 X98.866 Y100.912 E1.20050
G1 X98.880 Y100.880 E1.20077
G1 X98.907 Y100.833 E1.20120
G1 X99.637 Y99.688 E1.21197
G1 X99.789 Y99.501 E1.21388
G1 X101.037 Y98.341 E1.22740
G1 X101.562 Y97.692 E1.23402
G1 X101.737 Y97.580 E1.23567
G1 X102.078 Y97.166 E1.23992
G1 X102.688 Y96.642 E1.24631
G1 X102.747 Y96.529 E1.24731
G1 X103.608 Y95.971 E1.25546
G1 X103.745 Y95.198 E1.26169
G1 X103.667 Y93.860 E1.27232
G1 X103.710 Y93.765 E1.27315
G1 X103.734 Y93.678 E1.27386
G1 X104.221 Y93.139 E1.27962
G1 X104.422 Y92.851 E1.28241
G1 X104.979 Y92.932 E1.28687
G1 X105.673 Y93.238 E1.29289
G1 X106.143 Y93.647 E1.29783
G1 X106.619 Y93.901 E1.30211
G1 X106.969 Y94.235 E1.30595
G1 X108.055 Y94.797 E1.31565
G1 X109.186 Y94.612 E1.32475
G1 X109.548 Y94.404 E1.32805
G1 X109.999 Y94.327 E1.33169
G1 X110.440 Y94.102 E1.33562
G1 X111.037 Y94.052 E1.34036
G1 X111.561 Y94.140 E1.34458
G1 X111.746 Y94.513 E1.34789
G1 X112.155 Y95.202 E1.35424
G1 X112.173 Y95.308 E1.35509
G1 X112.206 Y95.421 E1.35603
G1 X112.045 Y96.699 E1.36625
G1 X112.061 Y97.431 E1.37206
G1 X112.740 Y98.238 E1.38042
G1 X112.794 Y98.390 E1.38170
G1 X113.439 Y99.377 E1.39105
G1 X113.589 Y99.673 E1.39369
G1 X113.648 Y99.746 E1.39443
G1 X114.337 Y101.067 E1.40625
G1 X114.863 Y102.407 E1.41767
G1 X115.181 Y103.812 E1.42910
G1 X115.289 Y105.252 E1.44056
G1 X115.181 Y106.693 E1.45201
G1 X114.863 Y108.097 E1.46344
G1 X114.339 Y109.431 E1.47481
G1 X113.625 Y110.662 E1.48609
G1 X112.739 Y111.757 E1.49728
G1 X111.687 Y112.696 E1.50846
G1 X110.470 Y113.463 E1.51987
G1 X110.336 Y113.529 E1.52106
G1 X109.592 Y113.771 E1.52726
G1 X109.354 Y113.915 E1.52947
G1 X109.090 Y114.055 E1.53184
G1 X108.929 Y114.156 E1.53335
G1 X108.867 Y114.250 E1.53424
G1 X108.816 Y114.289 E1.53475
G1 X108.590 Y114.690 E1.53840
G1 X108.581 Y114.732 E1.53875
G1 X108.361 Y115.085 E1.54204
G1 X108.334 Y115.107 E1.54232
G1 X107.796 Y115.607 E1.54814
G1 X107.527 Y115.832 E1.55093
G1 X106.647 Y116.344 E1.55901
G1 X105.954 Y116.848 E1.56580
G1 X105.823 Y116.917 E1.56698
G1 X104.895 Y117.249 E1.57480
G1 X103.946 Y117.436 E1.58247
G1 X102.895 Y117.461 E1.59081
G1 X101.777 Y117.343 E1.59973
G1 X100.671 Y117.089 E1.60873
G1 X100.308 Y116.951 E1.61181
G1 X99.643 Y116.650 E1.61760
G1 X98.679 Y116.105 E1.62638
G1 X97.860 Y115.566 E1.63416
G1 X97.121 Y114.969 E1.64170
G1 X96.444 Y114.280 E1.64936
G1 X95.709 Y113.360 E1.65870
G1 X95.106 Y112.399 E1.66770
G1 X94.617 Y111.410 E1.67645
G1 X94.225 Y110.416 E1.68493
G1 X93.541 Y107.534 E1.70843
G1 X93.446 Y106.835 E1.71402
G1 X93.389 Y105.651 E1.72343
G1 X93.410 Y104.510 E1.73248
G1 X93.503 Y103.424 E1.74113
G1 X93.659 Y102.396 E1.74937
G1 X93.875 Y101.435 E1.75719
G1 X94.038 Y100.909 E1.76156
G1 X94.164 Y100.573 E1.76441
G1 X94.575 Y99.805 E1.77131
G1 X95.020 Y99.121 E1.77779
G1 X95.480 Y98.522 E1.78378
G1 X95.948 Y98.006 E1.78931
G1 X96.415 Y97.569 E1.79438
G1 X96.807 Y97.265 E1.79831
M106 S254
G1 Z0.300 F5400.000
G1 X96.862 Y97.191
G1 X97.313 Y96.915 F1200.000 E1.80251
G1 X97.556 Y96.797 E1.80465
G1 X98.168 Y96.556 E1.80987
G1 X98.547 Y96.440 E1.81301
G1 X98.711 Y96.411 E1.81434
G1 X98.881 Y96.391 E1.81569
G1 X99.203 Y96.392 E1.81824
G1 X99.488 Y96.434 E1.82053
G1 X99.525 Y96.444 E1.82084
G1 X99.727 Y96.516 E1.82254
G1 X99.909 Y96.607 E1.82415
G1 X99.921 Y96.621 E1.82430
G1 X99.936 Y96.658 E1.82461
G1 X99.945 Y96.722 E1.82513
G1 X99.945 Y96.757 E1.82541
G1 X99.950 Y96.812 E1.82585
G1 X99.942 Y96.867 E1.82629
G1 X99.942 Y96.868 E1.82629
G1 X99.880 Y96.971 E1.82725
G1 X99.602 Y97.343 E1.83093
G1 X99.431 Y97.547 E1.83304
G1 X99.056 Y97.918 E1.83723
G1 X98.863 Y98.148 E1.83961
G1 X98.826 Y98.212 E1.84020
G1 X97.850 Y99.486 E1.85293
G1 X97.312 Y100.323 E1.86082
G1 X97.050 Y100.813 E1.86523
G1 X96.808 Y101.338 E1.86981
G1 X96.589 Y101.900 E1.87460
G1 X96.396 Y102.499 E1.87959
G1 X96.234 Y103.135 E1.88479
G1 X96.107 Y103.804 E1.89020
G1 X96.019 Y104.505 E1.89580
G1 X95.973 Y105.236 E1.90161
G1 X96.046 Y107.503 E1.91961
G1 X96.084 Y107.822 E1.92216
G1 X96.091 Y108.098 E1.92435
G1 X96.113 Y108.316 E1.92608
G1 X96.295 Y109.119 E1.93262
G1 X96.556 Y109.882 E1.93901
G1 X96.883 Y110.599 E1.94527
G1 X97.310 Y111.208 E1.95116
G1 X97.781 Y111.769 E1.95698
G1 X98.351 Y112.262 E1.96296
G1 X98.507 Y112.347 E1.96436
G1 X99.053 Y112.705 E1.96954
G1 X99.692 Y113.040 E1.97527
G1 X99.820 Y113.091 E1.97636
G1 X100.132 Y113.248 E1.97913
G1 X100.886 Y113.532 E1.98552
G1 X101.070 Y113.550 E1.98699
G1 X101.116 Y113.551 E1.98735
G1 X101.245 Y113.563 E1.98838
G1 X101.529 Y113.539 E1.99064
G1 X101.531 Y113.398 E1.99176
G1 X101.692 Y113.252 E1.99348
G1 X101.362 Y112.826 E1.99775
G1 X101.182 Y112.551 E2.00036
G1 X100.597 Y112.076 E2.00634
G1 X99.480 Y110.910 E2.01915
G1 X99.455 Y110.877 E2.01948
G1 X98.838 Y109.722 E2.02987
G1 X98.238 Y108.424 E2.04121
G1 X98.223 Y108.382 E2.04157
G1 X97.884 Y106.731 E2.05493
G1 X97.773 Y105.264 E2.06661
G1 X97.879 Y103.796 E2.07828
G1 X98.215 Y102.159 E2.09154
G1 X98.261 Y102.042 E2.09253
G1 X98.851 Y100.730 E2.10394
G1 X99.446 Y99.666 E2.11362
G1 X99.500 Y99.581 E2.11442
G1 X99.546 Y99.534 E2.11494
G1 X99.599 Y99.467 E2.11562
G1 X101.480 Y97.557 E2.13688
G1 X101.531 Y97.477 E2.13764
G1 X102.466 Y96.674 E2.14741
G1 X102.728 Y96.169 E2.15193
G1 X103.331 Y95.778 E2.15762
G1 X103.433 Y95.201 E2.16228
G1 X103.380 Y94.296 E2.16946
G1 X103.612 Y93.784 E2.17393
G1 X103.743 Y93.308 E2.17784
G1 X104.010 Y93.012 E2.18101
G1 X104.394 Y92.463 E2.18632
G1 X104.593 Y92.475 E2.18790
G1 X104.965 Y92.530 E2.19088
G1 X105.326 Y92.695 E2.19403
G1 X105.658 Y92.876 E2.19704
G1 X105.660 Y92.879 E2.19706
G1 X105.787 Y92.958 E2.19825
G1 X106.455 Y93.540 E2.20527
G1 X106.622 Y93.629 E2.20678
G1 X107.205 Y94.185 E2.21317
G1 X108.065 Y94.630 E2.22085
G1 X108.965 Y94.483 E2.22808
G1 X109.567 Y94.136 E2.23359
G1 X109.725 Y94.109 E2.23486
G1 X110.371 Y93.780 E2.24062
G1 X110.453 Y93.756 E2.24129
G1 X110.728 Y93.702 E2.24352
G1 X111.070 Y93.666 E2.24625
G1 X111.469 Y93.726 E2.24945
G1 X111.605 Y93.759 E2.25056
G1 X111.945 Y94.445 E2.25663
G1 X112.173 Y94.829 E2.26017
G1 X112.261 Y95.361 E2.26445
G1 X112.429 Y95.935 E2.26920
G1 X112.320 Y96.799 E2.27610
G1 X112.332 Y97.338 E2.28038
G1 X112.807 Y97.902 E2.28623
G1 X113.041 Y98.560 E2.29177
G1 X113.731 Y99.615 E2.30177
G1 X113.853 Y99.885 E2.30412
G1 X114.465 Y101.011 E2.31429
G1 X114.999 Y102.371 E2.32588
G1 X115.323 Y103.799 E2.33750
G1 X115.433 Y105.264 E2.34915
G1 X115.323 Y106.729 E2.36080
G1 X114.999 Y108.157 E2.37242
G1 X114.467 Y109.514 E2.38398
G1 X113.741 Y110.765 E2.39545
G1 X112.840 Y111.879 E2.40683
G1 X111.777 Y112.833 E2.41815
G1 X110.565 Y113.604 E2.42955
G1 X109.696 Y113.989 E2.43709
G1 X109.675 Y113.996 E2.43727
G1 X109.657 Y114.007 E2.43743
G1 X109.110 Y114.259 E2.44221
G1 X108.958 Y114.394 E2.44382
G1 X108.783 Y114.528 E2.44557
G1 X108.678 Y114.714 E2.44727
G1 X108.653 Y114.837 E2.44826
G1 X108.565 Y114.977 E2.44957
G1 X108.484 Y115.056 E2.45047
G1 X108.320 Y115.192 E2.45216
G1 X107.860 Y115.620 E2.45714
G1 X107.230 Y116.144 E2.46364
G1 X106.716 Y116.444 E2.46836
G1 X106.311 Y116.739 E2.47234
G1 X105.857 Y116.979 E2.47642
G1 X104.922 Y117.312 E2.48429
G1 X103.967 Y117.499 E2.49201
G1 X102.910 Y117.524 E2.50040
G1 X101.781 Y117.404 E2.50940
G1 X100.664 Y117.149 E2.51849
G1 X99.601 Y116.750 E2.52750
G1 X98.625 Y116.233 E2.53626
G1 X97.802 Y115.681 E2.54412
G1 X97.050 Y115.072 E2.55179
G1 X96.357 Y114.371 E2.55962
G1 X95.624 Y113.458 E2.56890
G1 X95.009 Y112.482 E2.57806
G1 X94.514 Y111.478 E2.58693
