; generated by Slic3r 0.7.2b on 2012-06-02 at 13:16:38

; layer_height = 0.1
; perimeters = 1
; solid_layers = 6
; fill_density = 0
; nozzle_diameter = 0.4
; filament_diameter = 2.94
; extrusion_multiplier = 1
; perimeter_speed = 20
; infill_speed = 30
; travel_speed = 90
; extrusion_width_ratio = 0
; scale = 1
; single wall width = 0.56mm

M104 S180 ; set temperature
M92 X78.7402 Y78.7402 E926 ;Set the right speed
G28 ;home all axes
M106 ;turn fan on
M109 S180 ; wait for temperature to be reached
G90 ; use absolute coordinates
G21 ; set units to millimeters
G92 E0 ; reset extrusion distance
M82 ; use absolute distances for extrusion
M106 S254
G1 Z0.100 F5400.000
G1 X96.687 Y96.724
G1
G1 X97.144 Y96.392 F360.000 E0.00448
G1 X97.380 Y96.268 E0.00660
G1 X97.606 Y96.181 E0.00852
G1 X97.889 Y96.042 E0.01102
G1 X98.467 Y95.796 E0.01601
G1 X98.526 Y95.777 E0.01649
G1 X98.810 Y95.721 E0.01879
G1 X99.049 Y95.717 E0.02069
G1 X99.454 Y95.745 E0.02391
G1 X99.459 Y95.746 E0.02395
G1 X99.683 Y95.823 E0.02583
G1 X99.773 Y95.844 E0.02656
G1 X99.895 Y95.890 E0.02759
G1 X99.901 Y95.895 E0.02766
G1 X99.907 Y95.925 E0.02790
G1 X99.907 Y95.927 E0.02792
G1 X99.914 Y95.970 E0.02826
G1 X99.867 Y96.036 E0.02891
G1 X99.856 Y96.080 E0.02926
G1 X99.817 Y96.116 E0.02968
G1 X99.793 Y96.164 E0.03011
G1 X99.646 Y96.270 E0.03155
G1 X99.632 Y96.383 E0.03245
G1 X99.599 Y96.418 E0.03284
G1 X99.571 Y96.481 E0.03339
G1 X99.494 Y96.551 E0.03421
G1 X99.399 Y96.693 E0.03556
G1 X99.381 Y96.708 E0.03575
G1 X99.376 Y96.714 E0.03581
G1 X99.137 Y96.915 E0.03829
G1 X99.102 Y96.954 E0.03870
G1 X98.874 Y97.173 E0.04121
G1 X98.812 Y97.298 E0.04232
G1 X98.672 Y97.456 E0.04399
G1 X98.669 Y97.550 E0.04474
G1 X98.608 Y97.632 E0.04555
G1 X98.569 Y97.714 E0.04627
G1 X98.447 Y97.868 E0.04783
G1 X98.315 Y98.072 E0.04976
G1 X97.746 Y98.832 E0.05729
G1 X97.185 Y99.768 E0.06595
G1 X96.681 Y100.864 E0.07552
G1 X96.458 Y101.478 E0.08070
G1 X96.266 Y102.128 E0.08607
G1 X96.106 Y102.814 E0.09166
G1 X95.985 Y103.535 E0.09746
G1 X95.907 Y104.284 E0.10344
G1 X95.835 Y106.125 E0.11805
G1 X95.743 Y106.211 E0.11905
G1 X95.752 Y106.638 E0.12244
G1 X95.724 Y106.874 E0.12433
G1 X95.808 Y107.542 E0.12967
G1 X96.008 Y108.391 E0.13659
G1 X96.292 Y109.209 E0.14345
G1 X96.642 Y109.991 E0.15025
G1 X97.059 Y110.727 E0.15696
G1 X97.546 Y111.417 E0.16367
G1 X97.680 Y111.544 E0.16513
G1 X98.122 Y112.027 E0.17032
G1 X98.566 Y112.237 E0.17422
G1 X98.830 Y112.423 E0.17678
G1 X99.063 Y112.442 E0.17863
G1 X99.521 Y112.628 E0.18256
G1 X99.872 Y112.730 E0.18545
G1 X100.188 Y112.850 E0.18813
G1 X100.859 Y112.998 E0.19359
G1 X101.124 Y112.976 E0.19570
G1 X101.194 Y112.949 E0.19629
G1 X101.414 Y112.969 E0.19804
G1 X101.488 Y112.958 E0.19863
G1 X101.670 Y112.946 E0.20008
G1 X101.832 Y112.921 E0.20139
G1 X102.161 Y112.725 E0.20442
G1 X102.112 Y112.638 E0.20521
G1 X102.165 Y112.614 E0.20567
G1 X101.910 Y112.285 E0.20898
G1 X101.719 Y111.961 E0.21196
G1 X101.710 Y111.949 E0.21208
G1 X101.698 Y111.928 E0.21227
G1 X101.672 Y111.899 E0.21258
G1 X101.578 Y111.294 E0.21744
G1 X100.931 Y110.713 E0.22433
G1 X100.688 Y110.368 E0.22768
G1 X100.083 Y109.621 E0.23531
G1 X99.935 Y109.309 E0.23805
G1 X99.416 Y108.415 E0.24625
G1 X98.893 Y107.130 E0.25726
G1 X98.564 Y105.728 E0.26868
G1 X98.460 Y104.340 E0.27972
G1 X98.564 Y102.951 E0.29077
G1 X98.888 Y101.544 E0.30223
G1 X99.384 Y100.244 E0.31326
G1 X100.087 Y99.072 E0.32410
G1 X100.698 Y98.318 E0.33180
G1 X101.791 Y97.321 E0.34354
G1 X101.957 Y97.116 E0.34563
G1 X102.774 Y96.589 E0.35334
G1 X103.073 Y96.227 E0.35707
G1 X103.855 Y95.864 E0.36391
G1 X103.922 Y95.406 E0.36758
G1 X104.133 Y95.269 E0.36958
G1 X104.173 Y95.038 E0.37144
G1 X104.600 Y94.335 E0.37796
G1 X104.385 Y93.490 E0.38488
G1 X104.516 Y93.204 E0.38737
G1 X104.489 Y92.580 E0.39232
G1 X104.678 Y92.371 E0.39456
G1 X104.686 Y92.360 E0.39467
G1 X105.239 Y92.438 E0.39911
G1 X105.928 Y92.729 E0.40504
G1 X106.078 Y92.859 E0.40661
G1 X106.862 Y93.278 E0.41366
G1 X106.980 Y93.390 E0.41495
G1 X108.292 Y94.069 E0.42667
G1 X109.655 Y93.846 E0.43763
G1 X109.775 Y93.776 E0.43873
G1 X110.521 Y93.650 E0.44473
G1 X110.658 Y93.580 E0.44595
G1 X111.250 Y93.543 E0.45065
G1 X111.771 Y93.639 E0.45486
G1 X111.795 Y93.687 E0.45529
G1 X111.963 Y93.971 E0.45791
G1 X111.905 Y94.583 E0.46278
G1 X112.003 Y94.899 E0.46541
G1 X111.792 Y95.514 E0.47056
G1 X111.527 Y95.954 E0.47464
G1 X112.034 Y96.480 E0.48043
G1 X112.037 Y96.630 E0.48162
G1 X112.194 Y96.816 E0.48355
G1 X112.147 Y97.265 E0.48713
G1 X112.785 Y97.865 E0.49409
G1 X113.031 Y98.349 E0.49839
G1 X113.632 Y99.091 E0.50596
G1 X114.312 Y100.308 E0.51703
G1 X114.819 Y101.596 E0.52801
G1 X115.126 Y102.951 E0.53903
G1 X115.230 Y104.340 E0.55008
G1 X115.126 Y105.729 E0.56112
G1 X114.819 Y107.084 E0.57214
G1 X114.313 Y108.370 E0.58311
G1 X113.625 Y109.557 E0.59399
G1 X112.770 Y110.612 E0.60477
G1 X111.737 Y111.521 E0.61568
G1 X110.479 Y112.288 E0.62737
G1 X109.920 Y112.728 E0.63302
G1 X109.645 Y112.890 E0.63554
G1 X109.360 Y113.084 E0.63828
G1 X109.171 Y113.190 E0.64000
G1 X109.134 Y113.224 E0.64040
G1 X108.781 Y113.043 E0.64354
G1 X108.809 Y113.791 E0.64947
G1 X108.804 Y113.915 E0.65046
G1 X108.826 Y113.974 E0.65096
G1 X108.828 Y113.980 E0.65101
G1 X108.701 Y114.158 E0.65274
G1 X108.569 Y114.253 E0.65404
G1 X108.430 Y114.460 E0.65601
G1 X107.018 Y116.108 E0.67323
G1 X106.136 Y116.844 E0.68234
G1 X105.170 Y117.393 E0.69116
G1 X104.139 Y117.750 E0.69981
G1 X103.063 Y117.914 E0.70844
G1 X101.971 Y117.885 E0.71711
G1 X100.885 Y117.616 E0.72598
G1 X100.689 Y117.507 E0.72777
G1 X100.154 Y117.259 E0.73244
G1 X100.094 Y117.151 E0.73342
G1 X99.824 Y117.031 E0.73577
G1 X99.446 Y116.687 E0.73982
G1 X98.766 Y116.300 E0.74603
G1 X97.768 Y115.586 E0.75576
G1 X96.843 Y114.773 E0.76553
G1 X96.029 Y113.854 E0.77527
G1 X95.341 Y112.847 E0.78494
G1 X94.794 Y111.769 E0.79453
G1 X94.367 Y110.636 E0.80413
G1 X93.981 Y109.197 E0.81595
G1 X93.471 Y106.755 E0.83574
G1 X93.368 Y105.939 E0.84227
G1 X93.354 Y104.783 E0.85144
G1 X93.461 Y103.662 E0.86037
G1 X93.649 Y102.594 E0.86898
G1 X93.907 Y101.591 E0.87719
G1 X94.137 Y100.892 E0.88303
G1 X94.187 Y100.615 E0.88526
G1 X94.314 Y100.294 E0.88800
G1 X94.306 Y100.190 E0.88883
G1 X94.479 Y99.727 E0.89275
G1 X94.870 Y98.949 E0.89965
G1 X95.308 Y98.270 E0.90607
G1 X95.764 Y97.672 E0.91203
G1 X96.228 Y97.157 E0.91753
G1 X96.626 Y96.782 E0.92187
G1 X94.638 Y106.500 F5400.000
G1 X94.622 Y105.739 F540.000 E0.92818
G1 X94.743 Y105.625 E0.92956
G1 X94.799 Y104.205 E0.94135
G1 X94.884 Y103.385 E0.94818
G1 X95.016 Y102.596 E0.95482
G1 X95.191 Y101.844 E0.96123
G1 X95.403 Y101.131 E0.96739
G1 X95.652 Y100.442 E0.97347
G1 X96.201 Y99.249 E0.98436
G1 X96.822 Y98.213 E0.99438
G1 X97.050 Y97.908 E0.99753
G1 X97.023 Y97.934 E0.99784
G1 X96.620 Y98.382 E1.00284
G1 X96.217 Y98.909 E1.00834
G1 X95.836 Y99.501 E1.01418
G1 X95.499 Y100.172 E1.02041
G1 X95.432 Y100.349 E1.02198
G1 X95.441 Y100.464 E1.02294
G1 X95.261 Y100.921 E1.02701
G1 X95.216 Y101.166 E1.02908
G1 X94.973 Y101.904 E1.03552
G1 X94.736 Y102.829 E1.04344
G1 X94.563 Y103.812 E1.05171
G1 X94.465 Y104.829 E1.06019
G1 X94.478 Y105.863 E1.06877
G1 X94.568 Y106.572 E1.07469
G1 X94.614 Y106.795 E1.07659
G1 X94.640 Y106.584 E1.07836
G1 X95.195 Y109.436 F5400.000
G1 X95.259 Y109.619 F540.000 E1.07996
G1 X95.650 Y110.492 E1.08790
G1 X96.119 Y111.323 E1.09581
G1 X96.703 Y112.148 E1.10419
G1 X96.887 Y112.323 E1.10630
G1 X97.450 Y112.938 E1.11321
G1 X98.005 Y113.200 E1.11831
G1 X98.438 Y113.505 E1.12270
G1 X98.803 Y113.535 E1.12573
G1 X99.156 Y113.678 E1.12890
G1 X99.518 Y113.784 E1.13203
G1 X99.869 Y113.917 E1.13514
G1 X100.783 Y114.118 E1.14290
G1 X101.314 Y114.075 E1.14732
G1 X101.444 Y114.087 E1.14840
G1 X101.604 Y114.064 E1.14974
G1 X101.793 Y114.051 E1.15131
G1 X102.217 Y113.985 E1.15487
G1 X103.435 Y113.258 E1.16663
G1 X103.905 Y113.045 E1.17092
G1 X102.831 Y111.660 E1.18546
G1 X102.733 Y111.494 E1.18705
G1 X102.615 Y110.733 E1.19344
G1 X101.767 Y109.971 E1.20289
G1 X101.575 Y109.698 E1.20567
G1 X101.029 Y109.025 E1.21285
G1 X100.918 Y108.791 E1.21500
G1 X100.415 Y107.924 E1.22331
G1 X99.955 Y106.791 E1.23345
G1 X99.665 Y105.558 E1.24395
G1 X99.574 Y104.340 E1.25409
G1 X99.665 Y103.119 E1.26424
G1 X99.954 Y101.868 E1.27489
G1 X100.387 Y100.732 E1.28497
G1 X101.000 Y99.710 E1.29485
G1 X101.509 Y99.082 E1.30156
G1 X102.602 Y98.085 E1.31383
G1 X102.709 Y97.953 E1.31524
G1 X103.521 Y97.429 E1.32326
G1 X103.768 Y97.128 E1.32648
G1 X104.869 Y96.619 E1.33654
G1 X104.949 Y96.064 E1.34119
G1 X105.143 Y95.938 E1.34311
G1 X105.231 Y95.436 E1.34734
G1 X105.791 Y94.513 E1.35629
G1 X105.630 Y93.879 E1.36171
G1 X106.206 Y94.187 E1.36713
G1 X106.329 Y94.304 E1.36854
G1 X108.108 Y95.225 E1.38516
G1 X110.034 Y94.909 E1.40134
G1 X110.157 Y94.838 E1.40252
G1 X110.788 Y94.731 E1.40783
G1 X110.835 Y94.882 E1.40914
G1 X110.780 Y95.042 E1.41055
G1 X110.136 Y96.111 E1.42089
G1 X110.933 Y96.937 E1.43041
G1 X110.935 Y97.045 E1.43130
G1 X111.040 Y97.170 E1.43266
G1 X110.984 Y97.697 E1.43705
G1 X111.883 Y98.541 E1.44728
G1 X112.094 Y98.957 E1.45114
G1 X112.709 Y99.716 E1.45925
G1 X113.306 Y100.784 E1.46940
G1 X113.754 Y101.924 E1.47955
G1 X114.025 Y103.116 E1.48969
G1 X114.116 Y104.340 E1.49987
G1 X114.025 Y105.564 E1.51005
G1 X113.754 Y106.756 E1.52018
G1 X113.310 Y107.885 E1.53025
G1 X112.707 Y108.925 E1.54021
G1 X111.966 Y109.840 E1.54999
G1 X111.076 Y110.623 E1.55981
G1 X109.844 Y111.375 E1.57178
G1 X109.291 Y111.810 E1.57762
G1 X109.067 Y111.942 E1.57978
G1 X107.599 Y111.191 E1.59345
G1 X107.689 Y113.570 E1.61320
G1 X107.544 Y113.786 E1.61535
G1 X106.235 Y115.314 E1.63205
G1 X105.500 Y115.928 E1.63998
G1 X104.710 Y116.377 E1.64752
G1 X103.872 Y116.667 E1.65488
G1 X102.994 Y116.801 E1.66224
G1 X102.121 Y116.778 E1.66949
G1 X101.295 Y116.574 E1.67654
G1 X101.193 Y116.517 E1.67751
G1 X100.948 Y116.403 E1.67975
G1 X100.883 Y116.287 E1.68085
G1 X100.439 Y116.088 E1.68489
G1 X100.102 Y115.782 E1.68866
G1 X99.366 Y115.363 E1.69569
G1 X98.460 Y114.715 E1.70493
G1 X97.629 Y113.984 E1.71411
G1 X96.907 Y113.169 E1.72313
G1 X96.298 Y112.280 E1.73207
G1 X95.812 Y111.321 E1.74099
G1 X95.426 Y110.296 E1.75007
G1 X95.217 Y109.517 E1.75676
G1 X99.450 Y107.040 F5400.000
G1 X99.910 Y108.172 F540.000 E1.76690
G1 X100.421 Y109.053 E1.77534
G1 X100.551 Y109.326 E1.77785
G1 X101.126 Y110.037 E1.78543
G1 X101.345 Y110.346 E1.78858
G1 X102.091 Y111.017 E1.79689
G1 X102.195 Y111.687 E1.80252
G1 X102.365 Y111.976 E1.80530
G1 X103.026 Y112.827 E1.81424
G1 X102.886 Y112.891 E1.81552
G1 X102.903 Y112.921 E1.81581
G1 X102.022 Y113.447 E1.82431
G1 X101.731 Y113.493 E1.82676
G1 X101.545 Y113.505 E1.82830
G1 X101.429 Y113.522 E1.82928
G1 X101.273 Y113.508 E1.83058
G1 X101.248 Y113.517 E1.83080
G1 X100.821 Y113.552 E1.83435
G1 X100.030 Y113.378 E1.84107
G1 X99.697 Y113.251 E1.84402
G1 X99.341 Y113.147 E1.84710
G1 X98.934 Y112.982 E1.85074
G1 X98.636 Y112.958 E1.85322
G1 X98.288 Y112.713 E1.85675
G1 X97.790 Y112.477 E1.86132
G1 X97.288 Y111.929 E1.86748
G1 X97.129 Y111.778 E1.86930
G1 X96.594 Y111.022 E1.87699
G1 X96.152 Y110.238 E1.88445
G1 X95.781 Y109.411 E1.89197
G1 X95.480 Y108.544 E1.89958
G1 X95.267 Y107.640 E1.90729
G1 X95.170 Y106.876 E1.91367
G1 X95.202 Y106.611 E1.91588
G1 X95.189 Y105.977 E1.92114
G1 X95.295 Y105.878 E1.92235
G1 X95.359 Y104.245 E1.93590
G1 X95.440 Y103.461 E1.94244
G1 X95.567 Y102.706 E1.94879
G1 X95.734 Y101.987 E1.95491
G1 X95.936 Y101.306 E1.96080
G1 X96.172 Y100.655 E1.96654
G1 X96.698 Y99.512 E1.97698
G1 X97.289 Y98.526 E1.98651
G1 X97.864 Y97.758 E1.99447
G1 X98.000 Y97.547 E1.99655
G1 X98.124 Y97.391 E1.99820
G1 X98.127 Y97.241 E1.99945
G1 X98.609 Y96.699 E2.00546
G1 X98.388 Y96.409 E2.00849
G1 X97.826 Y96.685 E2.01368
G1 X97.607 Y96.769 E2.01562
G1 X97.435 Y96.860 E2.01724
G1 X97.038 Y97.148 E2.02131
G1 X96.621 Y97.541 E2.02606
G1 X96.187 Y98.023 E2.03144
G1 X95.758 Y98.586 E2.03731
G1 X95.347 Y99.222 E2.04359
G1 X94.983 Y99.947 E2.05031
G1 X94.863 Y100.268 E2.05316
G1 X94.871 Y100.378 E2.05407
G1 X94.718 Y100.767 E2.05754
G1 X94.671 Y101.028 E2.05974
G1 X94.434 Y101.746 E2.06601
G1 X94.186 Y102.710 E2.07427
G1 X94.006 Y103.736 E2.08291
G1 X93.903 Y104.806 E2.09182
G1 X93.917 Y105.901 E2.10091
G1 X94.013 Y106.664 E2.10728
G1 X94.516 Y109.070 E2.12767
G1 X94.891 Y110.468 E2.13967
G1 X95.297 Y111.547 E2.14924
G1 X95.814 Y112.567 E2.15872
G1 X96.463 Y113.515 E2.16825
G1 X97.232 Y114.383 E2.17786
G1 X98.111 Y115.155 E2.18756
G1 X99.062 Y115.837 E2.19727
G1 X99.770 Y116.240 E2.20403
G1 X100.128 Y116.565 E2.20804
G1 X100.484 Y116.723 E2.21127
G1 X100.547 Y116.836 E2.21234
G1 X100.938 Y117.017 E2.21591
G1 X101.088 Y117.101 E2.21734
G1 X102.045 Y117.337 E2.22551
G1 X103.029 Y117.363 E2.23368
G1 X104.007 Y117.214 E2.24188
G1 X104.943 Y116.891 E2.25009
G1 X105.822 Y116.391 E2.25848
G1 X106.630 Y115.715 E2.26722
G1 X107.992 Y114.126 E2.28457
G1 X108.169 Y113.864 E2.28719
G1 X108.260 Y113.799 E2.28812
G1 X108.197 Y112.127 E2.30200
G1 X109.106 Y112.592 E2.31047
G1 X109.352 Y112.426 E2.31293
G1 X109.609 Y112.274 E2.31541
G1 X110.165 Y111.837 E2.32128
G1 X111.410 Y111.077 E2.33338
G1 X112.372 Y110.230 E2.34400
G1 X113.171 Y109.244 E2.35453
G1 X113.817 Y108.130 E2.36521
G1 X114.292 Y106.921 E2.37598
G1 X114.581 Y105.647 E2.38682
G1 X114.679 Y104.340 E2.39769
G1 X114.581 Y103.033 E2.40856
G1 X114.292 Y101.758 E2.41940
G1 X113.815 Y100.544 E2.43022
G1 X113.176 Y99.400 E2.44109
G1 X112.567 Y98.649 E2.44910
G1 X112.339 Y98.200 E2.45328
G1 X111.572 Y97.479 E2.46202
G1 X111.623 Y96.991 E2.46608
G1 X111.492 Y96.835 E2.46777
G1 X111.489 Y96.706 E2.46884
G1 X110.839 Y96.031 E2.47661
G1 X111.292 Y95.281 E2.48388
G1 X111.425 Y94.891 E2.48730
G1 X111.348 Y94.640 E2.48947
G1 X111.401 Y94.084 E2.49411
G1 X110.806 Y94.121 E2.49905
G1 X110.695 Y94.177 E2.50008
G1 X109.964 Y94.301 E2.50623
G1 X109.842 Y94.372 E2.50740
G1 X108.201 Y94.641 E2.52119
G1 X106.658 Y93.842 E2.53560
G1 X106.538 Y93.727 E2.53698
G1 X105.764 Y93.314 E2.54426
G1 X105.634 Y93.201 E2.54569
G1 X105.204 Y93.019 E2.54956
G1 X104.965 Y93.543 E2.55433
G1 X105.189 Y94.423 E2.56186
G1 X104.696 Y95.234 E2.56973
G1 X104.632 Y95.600 E2.57281
G1 X104.430 Y95.731 E2.57481
G1 X104.357 Y96.237 E2.57905
G1 X103.417 Y96.673 E2.58764
G1 X103.143 Y97.004 E2.59121
G1 X102.329 Y97.530 E2.59925
G1 X102.192 Y97.699 E2.60105
G1 X101.099 Y98.696 E2.61332
G1 X100.538 Y99.388 E2.62071
G1 X99.880 Y100.485 E2.63132
G1 X99.415 Y101.704 E2.64214
G1 X99.109 Y103.034 E2.65346
G1 X99.011 Y104.340 E2.66432
G1 X99.109 Y105.644 E2.67517
G1 X99.418 Y106.962 E2.68640
G1 X104.083 Y107.363 F5400.000
G1 X104.016 Y105.572 F540.000 E2.70126
G1 X108.840 Y108.041 E2.74620
G1 X109.071 Y107.900 E2.74845
G1 X109.527 Y107.499 E2.75348
G1 X109.924 Y107.008 E2.75872
G1 X110.268 Y106.416 E2.76440
G1 X110.525 Y105.761 E2.77023
G1 X110.684 Y105.062 E2.77618
G1 X110.738 Y104.340 E2.78218
G1 X110.684 Y103.618 E2.78819
G1 X110.525 Y102.919 E2.79413
G1 X110.254 Y102.229 E2.80028
G1 X109.909 Y101.612 E2.80614
G1 X109.251 Y100.800 E2.81481
G1 X109.146 Y100.592 E2.81674
G1 X107.548 Y99.091 E2.83492
G1 X105.879 Y99.864 E2.85018
G1 X105.787 Y99.976 E2.85138
G1 X104.902 Y100.547 E2.86012
G1 X103.967 Y101.400 E2.87062
G1 X103.766 Y101.647 E2.87325
G1 X103.429 Y102.210 E2.87870
G1 X103.184 Y102.851 E2.88438
G1 X103.006 Y103.626 E2.89098
G1 X102.952 Y104.340 E2.89692
G1 X103.005 Y105.044 E2.90277
G1 X103.175 Y105.766 E2.90892
G1 X103.448 Y106.437 E2.91494
G1 X103.899 Y107.214 E2.92239
G1 X104.087 Y107.446 E2.92486
G1 X104.698 Y108.749 F5400.000
G1 X104.613 Y106.508 F540.000 E2.94346
G1 X108.864 Y108.684 E2.98306
G1 X109.405 Y108.354 E2.98832
G1 X109.933 Y107.889 E2.99415
G1 X110.388 Y107.327 E3.00015
G1 X110.775 Y106.661 E3.00654
G1 X111.063 Y105.927 E3.01308
G1 X111.240 Y105.145 E3.01972
G1 X111.301 Y104.340 E3.02642
G1 X111.240 Y103.534 E3.03312
G1 X111.063 Y102.753 E3.03976
G1 X110.762 Y101.988 E3.04658
G1 X110.376 Y101.296 E3.05316
G1 X109.725 Y100.493 E3.06173
G1 X109.602 Y100.251 E3.06398
G1 X108.046 Y98.789 E3.08169
G1 X108.122 Y98.068 E3.08770
G1 X107.644 Y98.147 E3.09172
G1 X107.496 Y98.070 E3.09310
G1 X107.431 Y98.527 E3.09692
