; generated by Slic3r 0.7.2b on 2012-06-02 at 21:40:18

; layer_height = 0.1
; perimeters = 1
; solid_layers = 0
; fill_density = 0
; nozzle_diameter = 0.4
; filament_diameter = 2.94
; extrusion_multiplier = 1
; perimeter_speed = 20
; infill_speed = 30
; travel_speed = 90
; extrusion_width_ratio = 0
; scale = 1
; single wall width = 0.56mm

M104 S180 ; set temperature
M92 X78.7402 Y78.7402 E926 ;Set the right speed
G28 ;home all axes
M106 ;turn fan on
M109 S180 ; wait for temperature to be reached
G90 ; use absolute coordinates
G21 ; set units to millimeters
G92 E0 ; reset extrusion distance
M82 ; use absolute distances for extrusion
M106 S254
G1 Z0.100 F5400.000
G1 X100.924 Y100.950
G1
G1 X101.134 Y100.791 F180.000 E0.00209
G1 X101.348 Y100.682 E0.00399
G1 X101.771 Y100.510 E0.00762
G1 X101.937 Y100.460 E0.00900
G1 X101.961 Y100.457 E0.00918
G1 X102.062 Y100.458 E0.00998
G1 X102.210 Y100.471 E0.01117
G1 X102.273 Y100.485 E0.01168
G1 X102.322 Y100.499 E0.01208
G1 X102.296 Y100.550 E0.01253
G1 X102.223 Y100.627 E0.01337
G1 X102.195 Y100.689 E0.01391
G1 X102.133 Y100.746 E0.01458
G1 X102.099 Y100.782 E0.01497
G1 X102.025 Y100.843 E0.01574
G1 X101.961 Y100.916 E0.01651
G1 X101.893 Y100.982 E0.01726
G1 X101.857 Y101.054 E0.01790
G1 X101.826 Y101.091 E0.01828
G1 X101.807 Y101.123 E0.01857
G1 X101.734 Y101.221 E0.01954
G1 X101.687 Y101.319 E0.02041
G1 X101.301 Y101.822 E0.02544
G1 X101.128 Y102.095 E0.02800
G1 X100.988 Y102.346 E0.03028
G1 X100.856 Y102.616 E0.03267
G1 X100.734 Y102.908 E0.03517
G1 X100.624 Y103.220 E0.03780
G1 X100.529 Y103.551 E0.04053
G1 X100.451 Y103.900 E0.04337
G1 X100.393 Y104.265 E0.04630
G1 X100.357 Y104.643 E0.04931
G1 X100.312 Y105.857 E0.05895
G1 X100.321 Y105.964 E0.05980
G1 X100.305 Y106.100 E0.06088
G1 X100.327 Y106.274 E0.06228
G1 X100.424 Y106.708 E0.06580
G1 X100.573 Y107.122 E0.06929
G1 X100.753 Y107.514 E0.07271
G1 X100.967 Y107.883 E0.07610
G1 X101.219 Y108.231 E0.07951
G1 X101.463 Y108.462 E0.08218
G1 X101.530 Y108.536 E0.08296
G1 X101.636 Y108.586 E0.08390
G1 X101.882 Y108.743 E0.08621
G1 X102.110 Y108.819 E0.08812
G1 X102.253 Y108.877 E0.08934
G1 X102.437 Y108.930 E0.09086
G1 X102.553 Y108.985 E0.09188
G1 X102.589 Y108.997 E0.09218
G1 X102.847 Y109.063 E0.09430
G1 X102.886 Y109.078 E0.09462
G1 X103.178 Y109.107 E0.09695
G1 X103.279 Y109.092 E0.09776
G1 X103.284 Y109.092 E0.09780
G1 X103.351 Y109.081 E0.09834
G1 X103.374 Y109.068 E0.09855
G1 X103.748 Y108.952 E0.10166
G1 X103.585 Y108.660 E0.10431
G1 X103.580 Y108.639 E0.10448
G1 X103.475 Y108.461 E0.10612
G1 X103.442 Y108.415 E0.10657
G1 X103.413 Y108.367 E0.10702
G1 X103.167 Y108.090 E0.10995
G1 X103.152 Y107.992 E0.11074
G1 X103.018 Y107.872 E0.11216
G1 X102.775 Y107.527 E0.11551
G1 X102.604 Y107.316 E0.11767
G1 X102.456 Y107.004 E0.12041
G1 X102.285 Y106.709 E0.12312
G1 X102.018 Y106.074 E0.12858
G1 X101.845 Y105.359 E0.13441
G1 X101.794 Y104.674 E0.13986
G1 X101.845 Y103.989 E0.14531
G1 X102.014 Y103.265 E0.15121
G1 X102.254 Y102.618 E0.15668
G1 X102.607 Y102.048 E0.16201
G1 X102.786 Y101.827 E0.16426
G1 X103.371 Y101.288 E0.17057
G1 X103.536 Y101.084 E0.17265
G1 X103.784 Y100.924 E0.17499
G1 X104.082 Y100.562 E0.17871
G1 X104.251 Y100.484 E0.18018
G1 X104.262 Y100.405 E0.18082
G1 X104.624 Y100.171 E0.18424
G1 X104.685 Y99.825 E0.18702
G1 X104.768 Y99.688 E0.18829
G1 X104.719 Y99.492 E0.18990
G1 X104.691 Y99.026 E0.19360
G1 X104.709 Y98.987 E0.19394
G1 X104.708 Y98.950 E0.19424
G1 X104.896 Y98.741 E0.19647
G1 X104.904 Y98.730 E0.19658
G1 X105.078 Y98.755 E0.19797
G1 X105.387 Y98.888 E0.20064
G1 X105.537 Y99.019 E0.20222
G1 X105.849 Y99.186 E0.20503
G1 X105.967 Y99.298 E0.20632
G1 X106.625 Y99.639 E0.21220
G1 X107.320 Y99.525 E0.21778
G1 X107.441 Y99.455 E0.21889
G1 X107.736 Y99.405 E0.22127
G1 X107.875 Y99.334 E0.22250
G1 X108.126 Y99.316 E0.22450
G1 X108.301 Y99.347 E0.22590
G1 X108.324 Y99.393 E0.22632
G1 X108.492 Y99.677 E0.22894
G1 X108.488 Y99.723 E0.22931
G1 X108.501 Y99.765 E0.22965
G1 X108.444 Y100.215 E0.23325
G1 X108.431 Y100.255 E0.23358
G1 X108.314 Y100.449 E0.23538
G1 X108.442 Y100.581 E0.23684
G1 X108.447 Y100.844 E0.23892
G1 X108.723 Y101.172 E0.24232
G1 X108.715 Y101.246 E0.24291
G1 X108.853 Y101.375 E0.24441
G1 X109.098 Y101.858 E0.24871
G1 X109.265 Y102.063 E0.25080
G1 X109.597 Y102.679 E0.25635
G1 X109.848 Y103.318 E0.26180
G1 X110.000 Y103.988 E0.26725
G1 X110.051 Y104.674 E0.27271
G1 X110.000 Y105.361 E0.27817
G1 X109.848 Y106.030 E0.28361
G1 X109.598 Y106.665 E0.28903
G1 X109.259 Y107.251 E0.29440
G1 X108.837 Y107.772 E0.29971
G1 X108.334 Y108.218 E0.30505
G1 X107.737 Y108.588 E0.31062
G1 X107.520 Y108.695 E0.31254
G1 X107.340 Y108.754 E0.31404
G1 X107.157 Y108.864 E0.31574
G1 X107.098 Y108.895 E0.31626
G1 X106.953 Y108.986 E0.31763
G1 X106.887 Y109.087 E0.31858
G1 X106.804 Y109.270 E0.32017
G1 X106.764 Y109.341 E0.32082
G1 X106.761 Y109.354 E0.32093
G1 X106.759 Y109.358 E0.32096
G1 X106.606 Y109.483 E0.32253
G1 X106.508 Y109.720 E0.32456
G1 X106.512 Y109.816 E0.32533
G1 X106.427 Y109.952 E0.32659
G1 X106.398 Y109.991 E0.32698
G1 X105.901 Y110.451 E0.33235
G1 X105.510 Y110.899 E0.33707
G1 X105.060 Y111.155 E0.34118
G1 X104.560 Y111.327 E0.34537
G1 X104.039 Y111.406 E0.34955
G1 X103.514 Y111.391 E0.35372
G1 X102.996 Y111.257 E0.35797
G1 X102.748 Y111.119 E0.36021
G1 X102.466 Y110.988 E0.36268
G1 X102.377 Y110.927 E0.36354
G1 X102.063 Y110.733 E0.36646
G1 X102.006 Y110.682 E0.36707
G1 X101.941 Y110.645 E0.36766
G1 X101.449 Y110.274 E0.37255
G1 X100.987 Y109.866 E0.37744
G1 X100.580 Y109.410 E0.38229
G1 X100.237 Y108.912 E0.38709
G1 X99.966 Y108.379 E0.39183
G1 X99.756 Y107.819 E0.39658
G1 X99.425 Y106.476 E0.40755
G1 X99.264 Y105.463 E0.41569
G1 X99.277 Y104.901 E0.42015
G1 X99.338 Y104.346 E0.42458
G1 X99.434 Y103.815 E0.42886
G1 X99.554 Y103.316 E0.43293
G1 X99.604 Y103.165 E0.43419
G1 X99.629 Y103.026 E0.43531
G1 X99.687 Y102.834 E0.43690
G1 X99.845 Y102.402 E0.44055
G1 X100.038 Y102.029 E0.44388
G1 X100.252 Y101.699 E0.44700
G1 X100.475 Y101.409 E0.44991
G1 X100.701 Y101.159 E0.45258
G1 X100.863 Y101.008 E0.45433
M106 S254
G1 Z0.200 F5400.000
G1 X100.911 Y100.927
G1 X101.131 Y100.758 F600.000 E0.45654
G1 X101.344 Y100.627 E0.45852
G1 X101.550 Y100.527 E0.46034
G1 X101.747 Y100.452 E0.46201
G1 X101.926 Y100.399 E0.46349
G1 X102.085 Y100.370 E0.46477
G1 X102.088 Y100.370 E0.46480
G1 X102.217 Y100.370 E0.46582
G1 X102.297 Y100.377 E0.46646
G1 X102.334 Y100.382 E0.46675
G1 X102.416 Y100.404 E0.46742
G1 X102.428 Y100.408 E0.46752
G1 X102.485 Y100.436 E0.46803
G1 X102.481 Y100.445 E0.46811
G1 X102.321 Y100.657 E0.47021
G1 X102.265 Y100.722 E0.47089
G1 X102.085 Y100.904 E0.47292
G1 X101.976 Y101.029 E0.47424
G1 X101.444 Y101.717 E0.48114
G1 X101.163 Y102.155 E0.48527
G1 X100.904 Y102.668 E0.48983
G1 X100.785 Y102.959 E0.49232
G1 X100.680 Y103.265 E0.49489
G1 X100.588 Y103.590 E0.49757
G1 X100.514 Y103.932 E0.50034
G1 X100.458 Y104.288 E0.50320
G1 X100.421 Y104.664 E0.50620
G1 X100.431 Y105.806 E0.51526
G1 X100.471 Y106.183 E0.51826
G1 X100.471 Y106.186 E0.51829
G1 X100.474 Y106.221 E0.51856
G1 X100.570 Y106.640 E0.52197
G1 X100.716 Y107.032 E0.52529
G1 X100.891 Y107.399 E0.52852
G1 X101.097 Y107.745 E0.53171
G1 X101.334 Y108.067 E0.53488
G1 X101.611 Y108.353 E0.53804
G1 X101.914 Y108.571 E0.54101
G1 X102.030 Y108.644 E0.54209
G1 X102.331 Y108.800 E0.54478
G1 X102.427 Y108.835 E0.54559
G1 X102.533 Y108.885 E0.54652
G1 X102.681 Y108.934 E0.54776
G1 X102.702 Y108.939 E0.54793
G1 X102.863 Y109.000 E0.54930
G1 X102.909 Y109.006 E0.54966
G1 X103.036 Y109.039 E0.55070
G1 X103.127 Y109.036 E0.55142
G1 X103.259 Y109.039 E0.55248
G1 X103.553 Y108.769 E0.55564
G1 X103.345 Y108.508 E0.55829
G1 X103.321 Y108.471 E0.55864
G1 X103.299 Y108.449 E0.55889
G1 X103.295 Y108.443 E0.55894
G1 X103.216 Y108.312 E0.56016
G1 X102.559 Y107.578 E0.56797
G1 X102.466 Y107.462 E0.56915
G1 X102.149 Y106.864 E0.57452
G1 X101.845 Y106.198 E0.58032
G1 X101.677 Y105.404 E0.58676
G1 X101.624 Y104.687 E0.59247
G1 X101.677 Y103.970 E0.59817
G1 X101.844 Y103.181 E0.60457
G1 X102.167 Y102.442 E0.61097
G1 X102.415 Y101.999 E0.61499
G1 X102.463 Y101.923 E0.61571
G1 X102.502 Y101.882 E0.61616
G1 X102.548 Y101.826 E0.61673
G1 X103.447 Y100.915 E0.62688
G1 X103.490 Y100.849 E0.62751
G1 X103.912 Y100.486 E0.63193
G1 X104.090 Y100.144 E0.63498
G1 X104.347 Y99.978 E0.63741
G1 X104.402 Y99.662 E0.63995
G1 X104.383 Y99.336 E0.64254
G1 X104.537 Y98.997 E0.64550
G1 X104.623 Y98.683 E0.64808
G1 X104.685 Y98.614 E0.64882
G1 X104.807 Y98.440 E0.65050
G1 X104.841 Y98.416 E0.65083
G1 X105.070 Y98.430 E0.65265
G1 X105.372 Y98.595 E0.65537
G1 X105.395 Y98.615 E0.65562
G1 X105.805 Y98.874 E0.65947
G1 X105.849 Y98.912 E0.65992
G1 X105.852 Y98.914 E0.65996
G1 X106.203 Y99.248 E0.66380
G1 X106.635 Y99.472 E0.66766
G1 X107.098 Y99.396 E0.67138
G1 X107.460 Y99.188 E0.67469
G1 X107.462 Y99.187 E0.67471
G1 X107.511 Y99.162 E0.67515
G1 X107.884 Y99.055 E0.67823
G1 X108.156 Y99.001 E0.68043
G1 X108.365 Y99.051 E0.68213
G1 X108.414 Y99.105 E0.68271
G1 X108.522 Y99.325 E0.68465
G1 X108.581 Y99.423 E0.68556
G1 X108.639 Y99.778 E0.68841
G1 X108.751 Y100.160 E0.69157
G1 X108.712 Y100.470 E0.69405
G1 X108.718 Y100.750 E0.69627
G1 X108.920 Y100.990 E0.69876
G1 X109.080 Y101.438 E0.70253
G1 X109.384 Y101.904 E0.70694
G1 X109.478 Y102.112 E0.70876
G1 X109.749 Y102.609 E0.71325
G1 X110.010 Y103.274 E0.71892
G1 X110.168 Y103.972 E0.72459
G1 X110.221 Y104.687 E0.73028
G1 X110.168 Y105.402 E0.73597
G1 X110.010 Y106.100 E0.74165
G1 X109.750 Y106.762 E0.74729
G1 X109.396 Y107.372 E0.75288
G1 X108.957 Y107.915 E0.75842
G1 X108.440 Y108.379 E0.76393
G1 X107.851 Y108.755 E0.76948
G1 X107.134 Y109.076 E0.77571
G1 X106.973 Y109.220 E0.77742
G1 X106.646 Y109.339 E0.78018
G1 X106.793 Y109.516 E0.78200
G1 X106.670 Y109.687 E0.78367
G1 X106.495 Y109.968 E0.78630
G1 X106.141 Y110.453 E0.79107
G1 X105.990 Y110.593 E0.79270
G1 X105.865 Y110.737 E0.79421
G1 X105.573 Y110.978 E0.79721
G1 X105.095 Y111.248 E0.80157
G1 X104.586 Y111.423 E0.80584
G1 X104.056 Y111.502 E0.81009
G1 X103.515 Y111.486 E0.81438
G1 X102.973 Y111.372 E0.81878
G1 X102.435 Y111.150 E0.82339
G1 X101.905 Y110.839 E0.82827
G1 X101.390 Y110.469 E0.83330
G1 X100.910 Y110.045 E0.83838
G1 X100.477 Y109.569 E0.84349
G1 X100.112 Y109.050 E0.84852
G1 X99.829 Y108.496 E0.85345
G1 X99.612 Y107.911 E0.85841
G1 X99.446 Y107.303 E0.86340
G1 X99.231 Y106.078 E0.87327
G1 X99.188 Y105.478 E0.87804
G1 X99.202 Y104.893 E0.88268
G1 X99.262 Y104.327 E0.88720
G1 X99.358 Y103.787 E0.89155
G1 X99.479 Y103.279 E0.89569
G1 X99.634 Y102.813 E0.89959
G1 X99.814 Y102.390 E0.90324
G1 X100.017 Y102.013 E0.90663
G1 X100.234 Y101.679 E0.90979
G1 X100.458 Y101.387 E0.91271
G1 X100.686 Y101.137 E0.91539
G1 X100.850 Y100.984 E0.91717
M106 S254
G1 Z0.300 F5400.000
G1 X100.907 Y100.919
G1 X101.130 Y100.746 F600.000 E0.91941
G1 X101.344 Y100.606 E0.92144
G1 X101.549 Y100.498 E0.92327
G1 X101.741 Y100.419 E0.92493
G1 X101.921 Y100.363 E0.92642
G1 X102.085 Y100.329 E0.92775
G1 X102.230 Y100.313 E0.92890
G1 X102.356 Y100.315 E0.92991
G1 X102.464 Y100.328 E0.93077
G1 X102.554 Y100.354 E0.93151
G1 X102.560 Y100.356 E0.93156
G1 X102.606 Y100.380 E0.93197
G1 X102.612 Y100.385 E0.93203
G1 X102.609 Y100.394 E0.93210
G1 X102.603 Y100.407 E0.93222
G1 X102.586 Y100.436 E0.93248
G1 X102.490 Y100.561 E0.93373
G1 X102.001 Y101.080 E0.93939
G1 X101.596 Y101.570 E0.94444
G1 X101.322 Y101.964 E0.94824
G1 X101.056 Y102.436 E0.95254
G1 X100.930 Y102.709 E0.95493
G1 X100.715 Y103.289 E0.95983
G1 X100.624 Y103.613 E0.96250
G1 X100.551 Y103.950 E0.96524
G1 X100.496 Y104.303 E0.96807
G1 X100.462 Y104.669 E0.97099
G1 X100.452 Y105.048 E0.97399
G1 X100.496 Y105.806 E0.98002
G1 X100.551 Y106.206 E0.98323
G1 X100.651 Y106.604 E0.98648
G1 X100.792 Y106.981 E0.98967
G1 X100.961 Y107.339 E0.99281
G1 X101.161 Y107.675 E0.99591
G1 X101.392 Y107.987 E0.99899
G1 X101.657 Y108.263 E1.00203
G1 X101.948 Y108.489 E1.00495
G1 X102.221 Y108.662 E1.00752
G1 X102.298 Y108.698 E1.00819
G1 X102.418 Y108.763 E1.00927
G1 X102.524 Y108.801 E1.01017
G1 X102.578 Y108.809 E1.01060
G1 X102.593 Y108.817 E1.01073
G1 X102.677 Y108.847 E1.01144
G1 X102.760 Y108.860 E1.01211
G1 X102.827 Y108.890 E1.01269
G1 X103.248 Y108.860 E1.01604
G1 X103.319 Y108.709 E1.01737
G1 X103.094 Y108.393 E1.02045
G1 X103.101 Y108.350 E1.02079
G1 X102.386 Y107.505 E1.02957
G1 X102.150 Y107.076 E1.03345
G1 X101.917 Y106.581 E1.03780
G1 X101.760 Y106.193 E1.04111
G1 X101.590 Y105.428 E1.04733
G1 X101.535 Y104.697 E1.05314
G1 X101.590 Y103.967 E1.05896
G1 X101.765 Y103.192 E1.06526
G1 X102.139 Y102.291 E1.07300
G1 X102.209 Y102.166 E1.07413
G1 X102.375 Y101.903 E1.07660
G1 X102.505 Y101.766 E1.07809
G1 X102.636 Y101.607 E1.07973
G1 X103.345 Y100.899 E1.08768
G1 X103.468 Y100.708 E1.08948
G1 X103.689 Y100.518 E1.09179
G1 X104.012 Y99.897 E1.09735
G1 X104.080 Y99.808 E1.09824
G1 X104.110 Y99.753 E1.09873
G1 X104.129 Y99.700 E1.09918
G1 X104.438 Y99.015 E1.10514
G1 X104.546 Y98.623 E1.10836
G1 X104.585 Y98.560 E1.10895
G1 X104.839 Y98.379 E1.11143
G1 X105.006 Y98.389 E1.11276
G1 X105.075 Y98.387 E1.11330
G1 X105.370 Y98.548 E1.11597
G1 X105.494 Y98.656 E1.11727
G1 X105.886 Y98.904 E1.12096
G1 X106.343 Y99.107 E1.12492
G1 X106.439 Y99.198 E1.12597
G1 X106.645 Y99.304 E1.12781
G1 X106.877 Y99.266 E1.12967
G1 X106.974 Y99.211 E1.13056
G1 X107.442 Y99.166 E1.13429
G1 X107.601 Y99.092 E1.13568
G1 X107.891 Y99.009 E1.13808
G1 X108.157 Y98.954 E1.14023
G1 X108.215 Y98.972 E1.14071
G1 X108.371 Y99.009 E1.14198
G1 X108.615 Y99.288 E1.14492
G1 X108.655 Y99.392 E1.14581
G1 X108.728 Y99.831 E1.14934
G1 X108.948 Y100.585 E1.15557
G1 X108.961 Y100.641 E1.15602
G1 X108.978 Y100.688 E1.15643
G1 X109.063 Y100.869 E1.15801
G1 X109.327 Y101.608 E1.16423
G1 X109.457 Y101.807 E1.16612
G1 X109.694 Y102.329 E1.17067
G1 X109.827 Y102.575 E1.17289
G1 X110.094 Y103.254 E1.17868
G1 X110.255 Y103.967 E1.18447
G1 X110.310 Y104.697 E1.19028
G1 X110.255 Y105.428 E1.19609
G1 X110.094 Y106.140 E1.20189
G1 X109.829 Y106.816 E1.20765
G1 X109.468 Y107.439 E1.21336
G1 X109.019 Y107.994 E1.21902
G1 X108.494 Y108.468 E1.22463
G1 X107.900 Y108.849 E1.23023
G1 X107.264 Y109.130 E1.23575
G1 X107.181 Y109.204 E1.23663
G1 X106.651 Y109.397 E1.24110
G1 X106.820 Y109.601 E1.24321
G1 X106.672 Y109.809 E1.24523
G1 X106.564 Y109.984 E1.24686
G1 X106.043 Y110.687 E1.25380
G1 X105.607 Y111.048 E1.25829
G1 X105.122 Y111.321 E1.26271
G1 X104.606 Y111.497 E1.26704
G1 X104.069 Y111.578 E1.27135
G1 X103.520 Y111.561 E1.27570
G1 X102.968 Y111.449 E1.28017
G1 X102.421 Y111.239 E1.28482
G1 X101.883 Y110.937 E1.28971
G1 X101.362 Y110.565 E1.29480
G1 X100.871 Y110.133 E1.29998
G1 X100.426 Y109.647 E1.30521
G1 X100.049 Y109.119 E1.31036
G1 X99.760 Y108.555 E1.31538
G1 X99.538 Y107.959 E1.32043
G1 X99.369 Y107.341 E1.32551
G1 X99.248 Y106.717 E1.33056
G1 X99.170 Y106.096 E1.33552
G1 X99.141 Y105.484 E1.34038
G1 X99.157 Y104.889 E1.34510
G1 X99.217 Y104.318 E1.34965
G1 X99.318 Y103.777 E1.35402
G1 X99.450 Y103.270 E1.35817
G1 X99.613 Y102.806 E1.36208
G1 X99.802 Y102.385 E1.36574
G1 X100.008 Y102.007 E1.36916
G1 X100.227 Y101.672 E1.37233
G1 X100.452 Y101.381 E1.37525
G1 X100.681 Y101.130 E1.37794
G1 X100.846 Y100.977 E1.37973
M106 S254
G1 Z0.400 F5400.000
G1 X100.908 Y100.920
G1 X101.131 Y100.744 F600.000 E1.38198
G1 X101.346 Y100.602 E1.38402
G1 X101.551 Y100.490 E1.38588
G1 X101.743 Y100.406 E1.38754
G1 X101.921 Y100.347 E1.38903
G1 X102.086 Y100.309 E1.39037
G1 X102.235 Y100.289 E1.39157
G1 X102.367 Y100.283 E1.39261
G1 X102.479 Y100.290 E1.39350
G1 X102.573 Y100.307 E1.39426
G1 X102.646 Y100.328 E1.39486
G1 X102.701 Y100.355 E1.39534
G1 X102.709 Y100.360 E1.39542
G1 X102.718 Y100.367 E1.39552
G1 X102.712 Y100.383 E1.39565
G1 X102.673 Y100.441 E1.39621
G1 X102.622 Y100.504 E1.39685
G1 X101.888 Y101.253 E1.40516
G1 X101.613 Y101.588 E1.40861
G1 X101.336 Y101.989 E1.41247
G1 X101.071 Y102.462 E1.41677
G1 X100.838 Y103.007 E1.42147
G1 X100.736 Y103.312 E1.42402
G1 X100.649 Y103.631 E1.42665
G1 X100.579 Y103.966 E1.42936
G1 X100.527 Y104.316 E1.43217
G1 X100.495 Y104.678 E1.43505
