; generated by Slic3r 0.7.2b on 2012-06-23 at 17:17:49

; layer_height = 0.2
; perimeters = 2
; solid_layers = 6
; fill_density = 0
; nozzle_diameter = 0.4
; filament_diameter = 2.94
; extrusion_multiplier = 1
; perimeter_speed = 20
; infill_speed = 30
; travel_speed = 90
; extrusion_width_ratio = 0
; scale = 1
; single wall width = 0.56mm

M104 S230 ; set temperature
M92 X78.7402 Y78.7402 E926 ;Set the right speed
G28 ;home all axes
M106 ;turn fan on
M109 S230 ; wait for temperature to be reached
G90 ; use absolute coordinates
G21 ; set units to millimeters
G92 E0 ; reset extrusion distance
M82 ; use absolute distances for extrusion
M106 S254
G1 Z0.200 F5400.000
G1 X94.471 Y76.705
G1
G1 X94.733 Y76.448 F360.000 E0.00568
G1 X95.218 Y76.318 E0.01345
G1 X95.435 Y76.278 E0.01688
G1 X96.196 Y76.460 E0.02900
G1 X96.373 Y76.621 E0.03270
G1 X96.567 Y78.197 E0.05729
G1 X96.600 Y78.738 E0.06568
G1 X97.070 Y81.436 E0.10810
G1 X97.163 Y81.718 E0.11269
G1 X98.283 Y84.595 E0.16051
G1 X101.197 Y87.179 E0.22083
G1 X105.000 Y88.339 E0.28239
G1 X108.803 Y87.179 E0.34396
G1 X111.717 Y84.595 E0.40428
G1 X112.838 Y81.718 E0.45210
G1 X112.930 Y81.436 E0.45669
G1 X113.399 Y78.741 E0.49905
G1 X113.465 Y77.809 E0.51353
G1 X113.624 Y76.624 E0.53205
G1 X113.804 Y76.460 E0.53581
G1 X114.565 Y76.278 E0.54793
G1 X114.782 Y76.318 E0.55135
G1 X115.267 Y76.448 E0.55913
G1 X115.534 Y76.709 E0.56490
G1 X117.642 Y83.600 E0.67651
G1 X118.133 Y86.309 E0.71915
G1 X117.971 Y90.502 E0.78412
G1 X116.842 Y97.880 E0.89971
G1 X116.543 Y99.050 E0.91841
G1 X114.377 Y105.642 E1.02588
G1 X114.331 Y105.754 E1.02775
G1 X114.304 Y105.773 E1.02827
G1 X113.478 Y105.521 E1.04164
G1 X113.252 Y105.646 E1.04564
G1 X112.043 Y103.788 E1.07997
G1 X110.188 Y104.465 E1.11055
G1 X108.920 Y106.397 E1.14633
G1 X107.735 Y107.191 E1.16843
G1 X107.456 Y110.558 E1.22076
G1 X106.533 Y112.249 E1.25059
G1 X105.267 Y121.806 E1.39988
G1 X105.039 Y127.565 E1.48915
G1 X104.947 Y124.217 E1.54102
G1 X104.048 Y116.319 E1.66412
G1 X103.804 Y115.047 E1.68418
G1 X103.467 Y112.249 E1.72782
G1 X102.544 Y110.558 E1.75765
G1 X102.265 Y107.191 E1.80998
G1 X101.080 Y106.397 E1.83208
G1 X99.812 Y104.465 E1.86786
G1 X97.957 Y103.788 E1.89844
G1 X96.748 Y105.646 E1.93277
G1 X96.522 Y105.521 E1.93677
G1 X95.696 Y105.773 E1.95014
G1 X95.669 Y105.754 E1.95066
G1 X95.623 Y105.642 E1.95253
G1 X93.457 Y99.050 E2.06000
G1 X93.158 Y97.880 E2.07870
G1 X92.029 Y90.502 E2.19429
G1 X91.867 Y86.309 E2.25926
G1 X92.359 Y83.597 E2.30196
G1 X94.448 Y76.785 E2.41229
G1 X93.983 Y76.605 F5400.000
G1 X94.022 Y76.449 F360.000 E2.41479
G1 X94.478 Y76.001 E2.42469
G1 X95.108 Y75.832 E2.43478
G1 X95.449 Y75.770 E2.44014
G1 X96.436 Y76.006 E2.45587
G1 X96.790 Y76.328 E2.46328
G1 X96.848 Y76.409 E2.46483
G1 X97.062 Y78.152 E2.49201
G1 X97.095 Y78.680 E2.50020
G1 X97.554 Y81.315 E2.54164
G1 X97.631 Y81.550 E2.54545
G1 X98.703 Y84.303 E2.59121
G1 X101.446 Y86.735 E2.64799
G1 X105.000 Y87.819 E2.70553
G1 X108.554 Y86.735 E2.76307
G1 X111.297 Y84.303 E2.81985
G1 X112.369 Y81.550 E2.86560
G1 X112.446 Y81.315 E2.86942
G1 X112.905 Y78.681 E2.91083
G1 X112.970 Y77.758 E2.92516
G1 X113.151 Y76.411 E2.94621
G1 X113.210 Y76.328 E2.94779
G1 X113.564 Y76.006 E2.95519
G1 X114.551 Y75.770 E2.97092
G1 X114.892 Y75.832 E2.97628
G1 X115.522 Y76.001 E2.98638
G1 X115.980 Y76.450 E2.99631
G1 X118.125 Y83.480 E3.11014
G1 X118.632 Y86.274 E3.15411
G1 X118.467 Y90.549 E3.22037
G1 X117.329 Y97.979 E3.33677
G1 X117.021 Y99.189 E3.35611
G1 X114.844 Y105.816 E3.46413
G1 X114.745 Y106.053 E3.46812
G1 X114.732 Y106.079 E3.46856
G1 X114.392 Y106.320 E3.47502
G1 X113.534 Y106.058 E3.48890
G1 X113.152 Y106.270 E3.49567
G1 X113.079 Y106.292 E3.49685
G1 X111.842 Y104.391 E3.53197
G1 X110.513 Y104.876 E3.55388
G1 X109.281 Y106.754 E3.58867
G1 X108.210 Y107.471 E3.60862
G1 X107.942 Y110.704 E3.65887
G1 X107.015 Y112.403 E3.68885
G1 X105.762 Y121.850 E3.83642
G1 X105.281 Y134.037 E4.02531
G1 X105.158 Y134.563 E4.03367
G1 X105.078 Y135.172 E4.04318
G1 X105.000 Y135.212 E4.04453
G1 X104.922 Y135.172 E4.04589
G1 X104.842 Y134.563 E4.05539
G1 X104.720 Y134.039 E4.06373
G1 X104.450 Y124.252 E4.21535
G1 X103.556 Y116.394 E4.33783
G1 X103.312 Y115.124 E4.35786
G1 X102.985 Y112.403 E4.40029
G1 X102.058 Y110.704 E4.43028
G1 X101.790 Y107.471 E4.48052
G1 X100.719 Y106.754 E4.50047
G1 X99.487 Y104.876 E4.53527
G1 X98.158 Y104.391 E4.55717
G1 X96.921 Y106.292 E4.59229
G1 X96.848 Y106.270 E4.59347
G1 X96.466 Y106.058 E4.60024
G1 X95.608 Y106.320 E4.61413
G1 X95.268 Y106.079 E4.62058
G1 X95.255 Y106.053 E4.62102
G1 X95.156 Y105.816 E4.62501
G1 X92.979 Y99.189 E4.73303
G1 X92.671 Y97.979 E4.75237
G1 X91.533 Y90.549 E4.86878
G1 X91.368 Y86.274 E4.93503
G1 X91.875 Y83.479 E4.97902
G1 X93.959 Y76.685 E5.08907
G1 X105.000 Y97.759 F5400.000
G1 X101.101 Y96.336 F540.000 E5.15492
G1 X101.084 Y96.268 E5.15605
G1 X100.975 Y95.557 E5.16746
G1 X105.000 Y96.785 E5.23424
G1 X109.025 Y95.557 E5.30101
G1 X108.916 Y96.268 E5.31242
G1 X108.899 Y96.337 E5.31355
G1 X105.079 Y97.731 E5.37807
G1 X105.234 Y98.212 F5400.000
G1 X105.000 Y98.568 F540.000 E5.38483
G1 X104.766 Y98.212 E5.39160
G1 X100.677 Y96.720 E5.46066
G1 X100.588 Y96.368 E5.46641
G1 X100.354 Y94.839 E5.49097
G1 X105.000 Y96.256 E5.56804
G1 X109.646 Y94.839 E5.64512
G1 X109.412 Y96.368 E5.66968
G1 X109.323 Y96.720 E5.67543
G1 X105.313 Y98.183 E5.74316
G1 X105.564 Y98.629 F5400.000
G1 X105.000 Y99.490 F540.000 E5.75949
G1 X104.436 Y98.629 E5.77581
G1 X100.256 Y97.104 E5.84641
G1 X100.245 Y97.072 E5.84694
G1 X100.092 Y96.469 E5.85681
G1 X99.732 Y94.121 E5.89451
G1 X105.000 Y95.728 E5.98189
G1 X110.268 Y94.121 E6.06927
G1 X109.908 Y96.469 E6.10697
G1 X109.755 Y97.072 E6.11683
G1 X109.744 Y97.104 E6.11737
G1 X105.643 Y98.601 E6.18663
G1 X105.895 Y99.047 F5400.000
G1 X105.000 Y100.411 F540.000 E6.21252
G1 X104.105 Y99.047 E6.23841
G1 X99.852 Y97.495 E6.31023
G1 X99.760 Y97.213 E6.31493
G1 X99.596 Y96.570 E6.32547
G1 X99.111 Y93.403 E6.37630
G1 X105.000 Y95.199 E6.47399
G1 X110.889 Y93.403 E6.57168
G1 X110.404 Y96.570 E6.62251
G1 X110.240 Y97.213 E6.63305
G1 X110.148 Y97.495 E6.63775
G1 X105.974 Y99.018 E6.70824
G1 X106.226 Y99.464 F5400.000
G1 X105.000 Y101.332 F540.000 E6.74369
G1 X103.774 Y99.464 E6.77914
G1 X99.449 Y97.885 E6.85220
G1 X99.274 Y97.355 E6.86106
G1 X99.100 Y96.671 E6.87226
G1 X98.490 Y92.685 E6.93624
G1 X105.000 Y94.671 E7.04423
G1 X111.510 Y92.685 E7.15222
G1 X110.900 Y96.671 E7.21620
G1 X110.726 Y97.355 E7.22740
G1 X110.551 Y97.885 E7.23626
G1 X106.305 Y99.435 E7.30799
G1 X106.556 Y99.881 F5400.000
G1 X105.000 Y102.253 F540.000 E7.35300
G1 X103.444 Y99.881 E7.39802
G1 X99.045 Y98.276 E7.47231
G1 X98.789 Y97.496 E7.48533
G1 X98.604 Y96.772 E7.49719
G1 X97.812 Y91.596 E7.58027
G1 X98.420 Y92.135 E7.59316
G1 X105.000 Y94.143 E7.70231
G1 X111.580 Y92.135 E7.81146
G1 X112.188 Y91.596 E7.82435
G1 X111.396 Y96.772 E7.90743
G1 X111.211 Y97.496 E7.91929
G1 X110.955 Y98.276 E7.93232
G1 X106.635 Y99.852 E8.00527
G1 X106.887 Y100.299 F5400.000
G1 X105.263 Y102.774 F540.000 E8.05225
G1 X105.000 Y102.950 E8.05727
G1 X104.737 Y102.774 E8.06229
G1 X103.113 Y100.299 E8.10926
G1 X98.642 Y98.667 E8.18478
G1 X98.304 Y97.638 E8.20197
G1 X98.109 Y96.873 E8.21450
G1 X97.101 Y90.290 E8.32016
G1 X98.673 Y91.684 E8.35349
G1 X105.000 Y93.614 E8.45845
G1 X111.327 Y91.684 E8.56341
G1 X112.899 Y90.290 E8.59674
G1 X111.891 Y96.873 E8.70240
G1 X111.697 Y97.638 E8.71493
G1 X111.358 Y98.667 E8.73211
G1 X106.966 Y100.270 E8.80630
G1 X107.218 Y100.716 F5400.000
G1 X105.629 Y103.137 F540.000 E8.85224
G1 X105.000 Y103.558 E8.86426
G1 X104.371 Y103.137 E8.87628
G1 X102.782 Y100.716 E8.92222
G1 X98.238 Y99.058 E8.99897
G1 X97.818 Y97.779 E9.02032
G1 X97.613 Y96.974 E9.03351
G1 X96.556 Y90.069 E9.14435
G1 X96.518 Y89.098 E9.15976
G1 X98.926 Y91.233 E9.21082
G1 X105.000 Y93.086 E9.31158
G1 X111.074 Y91.233 E9.41234
G1 X113.482 Y89.098 E9.46340
G1 X113.444 Y90.069 E9.47882
G1 X112.387 Y96.974 E9.58965
G1 X112.182 Y97.779 E9.60284
G1 X111.762 Y99.058 E9.62419
G1 X107.297 Y100.687 E9.69961
G1 X107.548 Y101.133 F5400.000
G1 X105.996 Y103.500 F540.000 E9.74452
G1 X105.000 Y104.166 E9.76353
G1 X104.004 Y103.500 E9.78254
G1 X102.452 Y101.133 E9.82745
G1 X97.834 Y99.448 E9.90544
G1 X97.333 Y97.921 E9.93095
G1 X97.117 Y97.075 E9.94480
G1 X96.052 Y90.117 E10.05648
G1 X95.967 Y87.934 E10.09115
G1 X99.179 Y90.782 E10.15925
G1 X105.000 Y92.558 E10.25581
G1 X110.821 Y90.782 E10.35238
G1 X114.033 Y87.934 E10.42048
G1 X113.948 Y90.117 E10.45515
G1 X112.883 Y97.075 E10.56682
G1 X112.667 Y97.921 E10.58068
G1 X112.166 Y99.448 E10.60619
G1 X107.627 Y101.104 E10.68284
G1 X107.879 Y101.551 F5400.000
G1 X106.362 Y103.863 F540.000 E10.72672
G1 X105.000 Y104.775 E10.75273
G1 X103.638 Y103.863 E10.77874
G1 X102.121 Y101.551 E10.82261
G1 X97.431 Y99.839 E10.90183
G1 X96.847 Y98.062 E10.93151
G1 X96.621 Y97.175 E10.94603
G1 X95.548 Y90.165 E11.05855
G1 X95.416 Y86.770 E11.11246
G1 X99.432 Y90.330 E11.19761
G1 X105.000 Y92.029 E11.28998
G1 X110.568 Y90.330 E11.38235
G1 X114.584 Y86.770 E11.46750
G1 X114.452 Y90.165 E11.52141
G1 X113.379 Y97.175 E11.63393
G1 X113.153 Y98.062 E11.64845
G1 X112.569 Y99.839 E11.67813
G1 X107.958 Y101.522 E11.75601
G1 X108.210 Y101.968 F5400.000
G1 X106.728 Y104.226 F540.000 E11.79885
G1 X105.000 Y105.383 E11.83186
G1 X103.272 Y104.226 E11.86486
G1 X101.790 Y101.968 E11.90771
G1 X97.027 Y100.230 E11.98816
G1 X96.362 Y98.204 E12.02199
G1 X96.125 Y97.276 E12.03718
G1 X95.044 Y90.213 E12.15055
G1 X94.901 Y86.523 E12.20914
G1 X95.183 Y84.969 E12.23421
G1 X95.730 Y86.373 E12.25812
G1 X99.684 Y89.879 E12.34197
G1 X105.000 Y91.501 E12.43015
G1 X110.316 Y89.879 E12.51833
G1 X114.270 Y86.373 E12.60218
G1 X114.817 Y84.969 E12.62609
G1 X115.099 Y86.523 E12.65117
G1 X114.956 Y90.213 E12.70976
G1 X113.875 Y97.276 E12.82313
G1 X113.638 Y98.204 E12.83831
G1 X112.973 Y100.230 E12.87215
G1 X108.288 Y101.939 E12.95127
G1 X108.540 Y102.385 F5400.000
G1 X107.095 Y104.588 F540.000 E12.99308
G1 X105.325 Y105.774 E13.02688
G1 X105.000 Y109.694 E13.08929
G1 X104.675 Y105.774 E13.15169
G1 X102.905 Y104.588 E13.18549
G1 X101.460 Y102.385 E13.22730
G1 X96.938 Y100.735 E13.30367
G1 X96.754 Y101.018 E13.30902
G1 X95.876 Y98.345 E13.35367
G1 X95.629 Y97.377 E13.36951
G1 X94.540 Y90.262 E13.48373
G1 X94.394 Y86.488 E13.54365
G1 X94.811 Y84.193 E13.58066
G1 X95.081 Y83.312 E13.59527
G1 X96.157 Y86.076 E13.64233
G1 X99.937 Y89.428 E13.72249
G1 X105.000 Y90.972 E13.80648
G1 X110.063 Y89.428 E13.89046
G1 X113.843 Y86.076 E13.97063
G1 X114.913 Y83.328 E14.01742
G1 X115.192 Y84.208 E14.03207
G1 X115.606 Y86.488 E14.06883
G1 X115.460 Y90.262 E14.12875
G1 X114.371 Y97.377 E14.24297
G1 X114.124 Y98.345 E14.25882
G1 X113.246 Y101.018 E14.30346
G1 X113.062 Y100.735 E14.30881
G1 X108.619 Y102.356 E14.38385
G1 X108.871 Y102.803 F5400.000
G1 X107.461 Y104.951 F540.000 E14.42463
G1 X105.808 Y106.058 E14.45619
G1 X105.484 Y109.967 E14.51843
G1 X105.000 Y110.855 E14.53447
G1 X104.516 Y109.967 E14.55051
G1 X104.192 Y106.058 E14.61275
G1 X102.539 Y104.951 E14.64431
G1 X101.129 Y102.803 E14.68509
G1 X97.143 Y101.348 E14.75242
G1 X96.603 Y102.177 E14.76812
G1 X95.391 Y98.486 E14.82975
G1 X95.134 Y97.478 E14.84626
G1 X94.036 Y90.310 E14.96133
G1 X93.887 Y86.452 E15.02258
G1 X94.319 Y84.073 E15.06094
G1 X95.063 Y81.646 E15.10122
G1 X95.112 Y81.926 E15.10572
G1 X95.267 Y82.397 E15.11360
G1 X96.584 Y85.779 E15.17117
G1 X100.190 Y88.977 E15.24765
G1 X105.000 Y90.444 E15.32744
G1 X109.810 Y88.977 E15.40723
G1 X113.416 Y85.779 E15.48371
G1 X114.733 Y82.397 E15.54128
G1 X114.888 Y81.926 E15.54916
G1 X114.928 Y81.700 E15.55281
G1 X115.684 Y84.086 E15.59253
G1 X116.113 Y86.452 E15.63068
G1 X115.964 Y90.310 E15.69194
G1 X114.866 Y97.478 E15.80700
G1 X114.609 Y98.486 E15.82351
G1 X113.397 Y102.177 E15.88515
G1 X112.857 Y101.348 E15.90084
G1 X108.950 Y102.774 E15.96684
G1 X109.202 Y103.220 F5400.000
G1 X107.827 Y105.314 F540.000 E16.00659
G1 X106.292 Y106.343 E16.03591
G1 X105.979 Y110.116 E16.09598
G1 X105.070 Y111.781 E16.12609
G1 X105.000 Y112.364 E16.13541
G1 X104.930 Y111.781 E16.14472
G1 X104.021 Y110.116 E16.17483
G1 X103.708 Y106.343 E16.23490
G1 X102.173 Y105.314 E16.26423
G1 X100.798 Y103.220 E16.30397
G1 X97.347 Y101.960 E16.36226
G1 X96.452 Y103.336 E16.38831
G1 X94.905 Y98.628 E16.46694
G1 X94.638 Y97.579 E16.48411
G1 X93.533 Y90.358 E16.60002
G1 X93.380 Y86.416 E16.66261
G1 X93.827 Y83.954 E16.70232
G1 X95.199 Y79.480 E16.77656
G1 X95.603 Y81.803 E16.81397
G1 X95.743 Y82.227 E16.82105
G1 X97.010 Y85.481 E16.87647
G1 X100.443 Y88.525 E16.94926
G1 X105.000 Y89.916 E17.02486
G1 X109.557 Y88.525 E17.10045
G1 X112.990 Y85.481 E17.17325
G1 X114.257 Y82.227 E17.22867
G1 X114.397 Y81.803 E17.23575
G1 X114.785 Y79.575 E17.27163
G1 X116.175 Y83.964 E17.34468
G1 X116.620 Y86.416 E17.38422
G1 X116.467 Y90.358 E17.44681
G1 X115.362 Y97.579 E17.56272
G1 X115.095 Y98.628 E17.57990
G1 X113.548 Y103.336 E17.65853
G1 X112.653 Y101.960 E17.68457
G1 X109.280 Y103.191 E17.74153
G1 X109.532 Y103.637 F5400.000
G1 X108.194 Y105.677 F540.000 E17.78024
G1 X106.775 Y106.627 E17.80733
G1 X106.474 Y110.264 E17.86523
G1 X105.560 Y111.938 E17.89549
G1 X105.034 Y116.140 E17.96269
G1 X104.795 Y114.893 E17.98285
G1 X104.440 Y111.938 E18.03006
G1 X103.526 Y110.264 E18.06032
G1 X103.225 Y106.627 E18.11823
G1 X101.806 Y105.677 E18.14531
G1 X100.468 Y103.637 E18.18403
G1 X97.552 Y102.573 E18.23328
G1 X96.301 Y104.495 E18.26967
G1 X94.420 Y98.769 E18.36529
G1 X94.142 Y97.680 E18.38313
G1 X93.029 Y90.406 E18.49989
G1 X92.873 Y86.380 E18.56381
G1 X93.335 Y83.834 E18.60487
G1 X95.331 Y77.325 E18.71289
G1 X95.413 Y77.303 E18.71424
G1 X95.448 Y77.312 E18.71481
G1 X95.568 Y78.289 E18.73043
G1 X95.603 Y78.855 E18.73942
G1 X96.095 Y81.680 E18.78493
G1 X96.218 Y82.056 E18.79121
G1 X97.437 Y85.184 E18.84447
G1 X100.696 Y88.074 E18.91358
G1 X105.000 Y89.387 E18.98498
G1 X109.304 Y88.074 E19.05638
G1 X112.563 Y85.184 E19.12550
G1 X113.782 Y82.056 E19.17876
G1 X113.905 Y81.680 E19.18504
G1 X114.396 Y78.863 E19.23041
G1 X114.463 Y77.911 E19.24555
G1 X114.543 Y77.314 E19.25511
G1 X114.587 Y77.303 E19.25583
G1 X114.657 Y77.322 E19.25699
G1 X116.667 Y83.842 E19.36524
G1 X117.127 Y86.380 E19.40617
G1 X116.971 Y90.406 E19.47009
G1 X115.858 Y97.680 E19.58684
G1 X115.580 Y98.769 E19.60468
G1 X113.699 Y104.495 E19.70031
G1 X112.448 Y102.573 E19.73669
G1 X109.611 Y103.608 E19.78462
G1 X109.863 Y104.054 F5400.000
G1 X108.560 Y106.040 F540.000 E19.82230
G1 X107.259 Y106.911 E19.84714
G1 X106.969 Y110.412 E19.90288
G1 X106.050 Y112.095 E19.93330
G1 X105.198 Y118.659 E20.03832
G1 X104.814 Y118.654 E20.04441
G1 X104.539 Y116.244 E20.08291
G1 X104.295 Y114.971 E20.10348
G1 X103.950 Y112.095 E20.14944
G1 X103.031 Y110.412 E20.17985
G1 X102.741 Y106.911 E20.23559
G1 X101.440 Y106.040 E20.26044
G1 X100.137 Y104.054 E20.29812
G1 X97.756 Y103.186 E20.33834
G1 X96.588 Y104.981 E20.37233
G1 X95.989 Y105.164 E20.38226
G1 X93.934 Y98.911 E20.48670
G1 X93.646 Y97.781 E20.50520
G1 X92.525 Y90.454 E20.62280
G1 X92.365 Y86.345 E20.68806
G1 X92.843 Y83.714 E20.73047
G1 X94.930 Y76.910 E20.84340
G1 X95.327 Y76.803 E20.84993
G1 X95.422 Y76.786 E20.85145
G1 X95.907 Y76.902 E20.85937
G1 X96.072 Y78.243 E20.88080
G1 X96.106 Y78.796 E20.88960
G1 X96.587 Y81.557 E20.93407
G1 X96.694 Y81.885 E20.93955
G1 X97.864 Y84.887 E20.99066
G1 X100.949 Y87.623 E21.05609
G1 X105.000 Y88.859 E21.12329
G1 X109.051 Y87.623 E21.19050
G1 X112.136 Y84.887 E21.25593
G1 X113.306 Y81.885 E21.30704
G1 X113.413 Y81.557 E21.31252
G1 X113.893 Y78.802 E21.35690
G1 X113.960 Y77.860 E21.37189
G1 X114.088 Y76.903 E21.38720
G1 X114.578 Y76.786 E21.39519
G1 X114.673 Y76.803 E21.39672
G1 X115.072 Y76.910 E21.40328
G1 X117.158 Y83.720 E21.51629
G1 X117.635 Y86.345 E21.55860
G1 X117.475 Y90.454 E21.62386
G1 X116.354 Y97.781 E21.74146
G1 X116.066 Y98.911 E21.75997
G1 X114.011 Y105.164 E21.86440
G1 X113.412 Y104.981 E21.87434
G1 X112.244 Y103.186 E21.90833
G1 X109.942 Y104.026 E21.94722
M106 S254
G1 Z0.400 F5400.000
G1 X110.961 Y108.227
G1 X109.024 Y110.179 F1200.000 E21.98980
G1 X108.536 Y110.387 E21.99801
