; generated by Slic3r 0.7.2b on 2012-06-24 at 17:51:12

; layer_height = 0.3
; perimeters = 3
; solid_layers = 6
; fill_density = 0.1
; nozzle_diameter = 0.4
; filament_diameter = 2.94
; extrusion_multiplier = 1
; perimeter_speed = 20
; infill_speed = 30
; travel_speed = 90
; extrusion_width_ratio = 0
; scale = 1
; single wall width = 0.42mm

M104 S190 ; set temperature
M92 X78.7402 Y78.7402 E926 ;Set the right speed
G28 ;home all axes
M106 ;turn fan on
M109 S190 ; wait for temperature to be reached
G90 ; use absolute coordinates
G21 ; set units to millimeters
G92 E0 ; reset extrusion distance
M82 ; use absolute distances for extrusion
M106 S254
G1 Z0.090 F5400.000
G1 X90.051 Y62.345
G1
G1 X90.793 Y63.942 F360.000 E0.00978
G1 X91.313 Y65.748 E0.02022
G1 X91.197 Y68.754 E0.03692
G1 X92.427 Y70.531 E0.04892
G1 X92.994 Y72.049 E0.05792
G1 X94.579 Y74.594 E0.07457
G1 X99.101 Y78.906 E0.10927
G1 X100.971 Y79.493 E0.12016
G1 X105.000 Y81.199 E0.14445
G1 X109.029 Y79.493 E0.16875
G1 X110.899 Y78.906 E0.17964
G1 X115.421 Y74.594 E0.21433
G1 X117.006 Y72.049 E0.23098
G1 X117.573 Y70.531 E0.23998
G1 X118.803 Y68.754 E0.25198
G1 X118.687 Y65.748 E0.26869
G1 X119.207 Y63.942 E0.27913
G1 X119.949 Y62.345 E0.28891
G1 X120.183 Y63.523 E0.29558
G1 X123.045 Y72.304 E0.34686
G1 X123.837 Y76.600 E0.37112
G1 X123.579 Y83.291 E0.40831
G1 X121.846 Y95.061 E0.47437
G1 X120.847 Y98.024 E0.49174
G1 X120.804 Y98.011 E0.49198
G1 X118.272 Y99.413 E0.50806
G1 X116.896 Y99.823 E0.51603
G1 X116.315 Y98.930 E0.52194
G1 X112.461 Y100.337 E0.54473
G1 X111.842 Y101.280 E0.55100
G1 X108.459 Y103.546 E0.57361
G1 X107.619 Y113.692 E0.63014
G1 X107.210 Y114.441 E0.63488
G1 X105.313 Y129.137 E0.71717
G1 X105.068 Y135.994 E0.75527
G1 X104.986 Y132.788 E0.77308
G1 X102.786 Y114.433 E0.87573
G1 X102.381 Y113.692 E0.88043
G1 X101.541 Y103.546 E0.93696
G1 X98.158 Y101.280 E0.95957
G1 X97.539 Y100.337 E0.96584
G1 X93.685 Y98.930 E0.98862
G1 X93.104 Y99.823 E0.99454
G1 X91.728 Y99.413 E1.00251
G1 X89.196 Y98.011 E1.01858
G1 X89.153 Y98.024 E1.01883
G1 X88.154 Y95.061 E1.03620
G1 X86.421 Y83.291 E1.10226
G1 X86.163 Y76.600 E1.13945
G1 X86.955 Y72.304 E1.16370
G1 X89.817 Y63.523 E1.21499
G1 X90.038 Y62.407 E1.22131
G1 X90.482 Y62.290 F5400.000
G1 X91.182 Y63.796 F360.000 E1.23053
G1 X91.730 Y65.697 E1.24152
G1 X91.617 Y68.632 E1.25783
G1 X92.798 Y70.337 E1.26934
G1 X93.368 Y71.865 E1.27840
G1 X94.904 Y74.330 E1.29453
G1 X99.317 Y78.540 E1.32840
G1 X101.115 Y79.103 E1.33886
G1 X105.000 Y80.749 E1.36229
G1 X108.885 Y79.103 E1.38572
G1 X110.683 Y78.540 E1.39619
G1 X115.096 Y74.330 E1.43006
G1 X116.632 Y71.865 E1.44618
G1 X117.202 Y70.337 E1.45524
G1 X118.383 Y68.632 E1.46676
G1 X118.270 Y65.697 E1.48307
G1 X118.818 Y63.796 E1.49405
G1 X119.518 Y62.290 E1.50327
G1 X119.314 Y61.264 E1.50908
G1 X119.499 Y61.183 E1.51020
G1 X119.728 Y61.005 E1.51181
G1 X120.197 Y61.280 E1.51483
G1 X120.288 Y61.922 E1.51844
G1 X120.585 Y63.418 E1.52691
G1 X123.448 Y72.202 E1.57821
G1 X124.253 Y76.570 E1.60288
G1 X123.992 Y83.329 E1.64044
G1 X122.251 Y95.158 E1.70683
G1 X121.111 Y98.538 E1.72664
G1 X120.851 Y98.458 E1.72815
G1 X118.433 Y99.797 E1.74350
G1 X116.717 Y100.308 E1.75344
G1 X116.148 Y99.433 E1.75925
G1 X112.733 Y100.679 E1.77943
G1 X112.143 Y101.578 E1.78541
G1 X108.856 Y103.779 E1.80737
G1 X108.024 Y113.813 E1.86329
G1 X107.612 Y114.570 E1.86807
G1 X105.726 Y129.172 E1.94983
G1 X105.001 Y149.505 E2.06282
G1 X104.572 Y132.814 E2.15553
G1 X102.386 Y114.565 E2.25760
G1 X101.976 Y113.813 E2.26236
G1 X101.144 Y103.779 E2.31827
G1 X97.857 Y101.578 E2.34024
G1 X97.267 Y100.679 E2.34621
G1 X93.852 Y99.433 E2.36640
G1 X93.283 Y100.308 E2.37220
G1 X91.567 Y99.797 E2.38214
G1 X89.149 Y98.458 E2.39749
G1 X88.889 Y98.538 E2.39900
G1 X87.749 Y95.158 E2.41881
G1 X86.008 Y83.329 E2.48520
G1 X85.747 Y76.570 E2.52277
G1 X86.552 Y72.202 E2.54743
G1 X89.415 Y63.418 E2.59873
G1 X89.712 Y61.922 E2.60721
G1 X89.803 Y61.280 E2.61081
G1 X90.272 Y61.005 E2.61383
G1 X90.501 Y61.183 E2.61544
G1 X90.686 Y61.264 E2.61656
G1 X90.495 Y62.228 E2.62201
G1 X90.915 Y62.238 F5400.000
G1 X91.572 Y63.650 F360.000 E2.63066
G1 X92.147 Y65.646 E2.64220
G1 X92.037 Y68.510 E2.65811
G1 X93.168 Y70.144 E2.66915
G1 X93.742 Y71.681 E2.67826
G1 X95.228 Y74.066 E2.69386
G1 X99.533 Y78.173 E2.72691
G1 X101.258 Y78.714 E2.73694
G1 X105.000 Y80.299 E2.75951
G1 X108.742 Y78.714 E2.78208
G1 X110.467 Y78.173 E2.79212
G1 X114.772 Y74.066 E2.82516
G1 X116.258 Y71.681 E2.84076
G1 X116.832 Y70.144 E2.84988
G1 X117.963 Y68.510 E2.86091
G1 X117.853 Y65.646 E2.87683
G1 X118.428 Y63.650 E2.88836
G1 X119.085 Y62.238 E2.89701
G1 X118.843 Y61.018 E2.90392
G1 X119.285 Y60.824 E2.90660
G1 X119.695 Y60.506 E2.90948
G1 X120.579 Y61.023 E2.91517
G1 X120.697 Y61.852 E2.91983
G1 X120.987 Y63.314 E2.92810
G1 X123.850 Y72.100 E2.97942
G1 X124.669 Y76.540 E3.00449
G1 X124.406 Y83.368 E3.04243
G1 X122.656 Y95.255 E3.10916
G1 X121.375 Y99.052 E3.13141
G1 X120.898 Y98.906 E3.13418
G1 X118.595 Y100.182 E3.14880
G1 X116.539 Y100.794 E3.16072
G1 X115.980 Y99.935 E3.16641
G1 X113.004 Y101.021 E3.18400
G1 X112.443 Y101.876 E3.18967
G1 X109.252 Y104.013 E3.21100
G1 X108.430 Y113.935 E3.26629
G1 X108.014 Y114.698 E3.27112
G1 X106.140 Y129.207 E3.35236
G1 X105.407 Y149.752 E3.46652
G1 X105.353 Y149.984 E3.46785
G1 X105.325 Y150.199 E3.46905
G1 X105.032 Y150.284 E3.47074
G1 X105.000 Y150.300 E3.47094
G1 X104.968 Y150.284 E3.47114
G1 X104.675 Y150.199 E3.47284
G1 X104.647 Y149.984 E3.47404
G1 X104.593 Y149.753 E3.47536
G1 X104.158 Y132.840 E3.56931
G1 X101.985 Y114.697 E3.67078
G1 X101.570 Y113.935 E3.67560
G1 X100.748 Y104.013 E3.73089
G1 X97.557 Y101.876 E3.75222
G1 X96.996 Y101.021 E3.75789
G1 X94.020 Y99.935 E3.77549
G1 X93.461 Y100.794 E3.78118
G1 X91.405 Y100.182 E3.79309
G1 X89.102 Y98.906 E3.80771
G1 X88.625 Y99.052 E3.81048
G1 X87.344 Y95.255 E3.83274
G1 X85.594 Y83.368 E3.89946
G1 X85.331 Y76.540 E3.93740
G1 X86.150 Y72.100 E3.96248
G1 X89.013 Y63.314 E4.01379
G1 X89.303 Y61.852 E4.02207
G1 X89.421 Y61.023 E4.02672
G1 X90.305 Y60.506 E4.03241
G1 X90.715 Y60.824 E4.03529
G1 X91.157 Y61.018 E4.03797
G1 X90.928 Y62.176 E4.04453
G1 X105.035 Y92.584 F5400.000
G1 X105.069 Y92.533 F540.000 E4.04488
G1 X105.000 Y92.562 E4.04530
G1 X104.931 Y92.533 E4.04572
G1 X105.000 Y92.637 E4.04642
G1 X105.035 Y93.347 F5400.000
G1 X105.890 Y92.043 F540.000 E4.05522
G1 X112.494 Y89.633 E4.09484
G1 X112.602 Y88.898 E4.09903
G1 X112.498 Y88.931 E4.09965
G1 X105.000 Y92.107 E4.14555
G1 X97.502 Y88.931 E4.19146
G1 X97.398 Y88.898 E4.19207
G1 X97.506 Y89.633 E4.19627
G1 X104.110 Y92.043 E4.23589
G1 X105.000 Y93.400 E4.24504
G1 X105.035 Y94.110 F5400.000
G1 X106.164 Y92.389 F540.000 E4.25665
G1 X112.871 Y89.941 E4.29690
G1 X113.113 Y88.299 E4.30626
G1 X112.353 Y88.537 E4.31075
G1 X105.000 Y91.652 E4.35577
G1 X97.647 Y88.537 E4.40079
G1 X96.887 Y88.299 E4.40528
G1 X97.129 Y89.941 E4.41464
G1 X103.836 Y92.389 E4.45489
G1 X105.000 Y94.163 E4.46686
G1 X105.053 Y94.747 F5400.000
G1 X105.169 Y94.670 F540.000 E4.46764
G1 X106.438 Y92.735 E4.48069
G1 X113.249 Y90.249 E4.52156
G1 X113.624 Y87.700 E4.53609
G1 X112.209 Y88.144 E4.54445
G1 X105.000 Y91.198 E4.58859
G1 X97.791 Y88.144 E4.63272
G1 X96.376 Y87.700 E4.64109
G1 X96.751 Y90.249 E4.65562
G1 X103.562 Y92.735 E4.69649
G1 X104.831 Y94.670 E4.70954
G1 X105.000 Y94.783 E4.71068
G1 X105.053 Y95.251 F5400.000
G1 X105.472 Y94.970 F540.000 E4.71353
G1 X106.712 Y93.080 E4.72627
G1 X113.627 Y90.557 E4.76777
G1 X114.136 Y87.101 E4.78746
G1 X112.064 Y87.750 E4.79970
G1 X105.000 Y90.743 E4.84295
G1 X97.936 Y87.750 E4.88620
G1 X95.864 Y87.101 E4.89844
G1 X96.373 Y90.557 E4.91813
G1 X103.288 Y93.080 E4.95963
G1 X104.528 Y94.970 E4.97238
G1 X105.000 Y95.286 E4.97558
G1 X105.053 Y95.755 F5400.000
G1 X105.776 Y95.271 F540.000 E4.98048
G1 X106.986 Y93.426 E4.99292
G1 X114.005 Y90.864 E5.03505
G1 X114.647 Y86.502 E5.05991
G1 X111.919 Y87.357 E5.07602
G1 X105.000 Y90.288 E5.11839
G1 X98.081 Y87.357 E5.16075
G1 X95.353 Y86.502 E5.17687
G1 X95.995 Y90.864 E5.20173
G1 X103.014 Y93.426 E5.24385
G1 X104.224 Y95.271 E5.25629
G1 X105.000 Y95.790 E5.26155
G1 X105.053 Y96.259 F5400.000
G1 X106.079 Y95.572 F540.000 E5.26851
G1 X107.260 Y93.772 E5.28065
G1 X114.383 Y91.172 E5.32340
G1 X115.171 Y85.819 E5.35390
G1 X115.046 Y85.938 E5.35488
G1 X111.775 Y86.964 E5.37420
G1 X105.000 Y89.834 E5.41568
G1 X98.225 Y86.964 E5.45716
G1 X94.954 Y85.938 E5.47648
G1 X94.829 Y85.819 E5.47746
G1 X95.617 Y91.172 E5.50797
G1 X102.740 Y93.772 E5.55071
G1 X103.921 Y95.571 E5.56285
G1 X105.000 Y96.294 E5.57017
G1 X105.053 Y96.763 F5400.000
G1 X106.383 Y95.872 F540.000 E5.57919
G1 X107.534 Y94.117 E5.59102
G1 X114.761 Y91.480 E5.63440
G1 X115.762 Y84.676 E5.67317
G1 X114.827 Y85.568 E5.68045
G1 X111.630 Y86.570 E5.69934
G1 X105.000 Y89.379 E5.73993
G1 X98.370 Y86.570 E5.78053
G1 X95.173 Y85.568 E5.79941
G1 X94.238 Y84.676 E5.80670
G1 X95.239 Y91.480 E5.84547
G1 X102.466 Y94.117 E5.88884
G1 X103.617 Y95.872 E5.90067
G1 X105.000 Y96.798 E5.91005
G1 X105.053 Y97.266 F5400.000
G1 X106.686 Y96.173 F540.000 E5.92113
G1 X107.808 Y94.463 E5.93266
G1 X115.139 Y91.788 E5.97665
G1 X116.353 Y83.534 E6.02369
G1 X114.609 Y85.198 E6.03728
G1 X111.485 Y86.177 E6.05573
G1 X105.000 Y88.924 E6.09544
G1 X98.515 Y86.177 E6.13515
G1 X95.391 Y85.198 E6.15360
G1 X93.647 Y83.534 E6.16720
G1 X94.861 Y91.788 E6.21423
G1 X102.192 Y94.463 E6.25822
G1 X103.314 Y96.173 E6.26975
G1 X105.000 Y97.302 E6.28119
G1 X105.053 Y97.770 F5400.000
G1 X106.989 Y96.473 F540.000 E6.29433
G1 X108.082 Y94.809 E6.30556
G1 X115.516 Y92.096 E6.35017
G1 X116.903 Y82.673 E6.40387
G1 X116.913 Y82.421 E6.40529
G1 X114.390 Y84.827 E6.42494
G1 X111.341 Y85.783 E6.44296
G1 X105.000 Y88.470 E6.48178
G1 X98.659 Y85.783 E6.52060
G1 X95.610 Y84.827 E6.53862
G1 X93.087 Y82.421 E6.55827
G1 X93.097 Y82.673 E6.55969
G1 X94.484 Y92.096 E6.61338
G1 X101.918 Y94.809 E6.65800
G1 X103.011 Y96.473 E6.66923
G1 X105.000 Y97.806 E6.68272
G1 X105.053 Y98.274 F5400.000
G1 X107.293 Y96.774 F540.000 E6.69792
G1 X108.356 Y95.154 E6.70884
G1 X115.894 Y92.403 E6.75408
G1 X117.321 Y82.712 E6.80931
G1 X117.371 Y81.406 E6.81668
G1 X114.172 Y84.457 E6.84160
G1 X111.196 Y85.390 E6.85918
G1 X105.000 Y88.015 E6.89712
G1 X98.804 Y85.390 E6.93506
G1 X95.828 Y84.457 E6.95264
G1 X92.629 Y81.406 E6.97756
G1 X92.679 Y82.712 E6.98493
G1 X94.106 Y92.403 E7.04015
G1 X101.644 Y95.154 E7.08539
G1 X102.707 Y96.774 E7.09631
G1 X105.000 Y98.310 E7.11187
G1 X105.053 Y98.778 F5400.000
G1 X107.596 Y97.075 F540.000 E7.12913
G1 X108.629 Y95.500 E7.13975
G1 X116.272 Y92.711 E7.18561
G1 X117.738 Y82.751 E7.24237
G1 X117.829 Y80.391 E7.25568
G1 X113.954 Y84.087 E7.28588
G1 X111.052 Y84.997 E7.30302
G1 X105.000 Y87.560 E7.34007
G1 X98.948 Y84.997 E7.37713
G1 X96.046 Y84.087 E7.39427
G1 X92.171 Y80.391 E7.42446
G1 X92.262 Y82.751 E7.43778
G1 X93.728 Y92.711 E7.49454
G1 X101.371 Y95.500 E7.54040
G1 X102.404 Y97.075 E7.55102
G1 X105.000 Y98.813 E7.56864
G1 X105.053 Y99.282 F5400.000
G1 X107.900 Y97.375 F540.000 E7.58795
G1 X108.903 Y95.846 E7.59827
G1 X116.650 Y93.019 E7.64476
G1 X118.156 Y82.789 E7.70305
G1 X118.287 Y79.375 E7.72231
G1 X113.735 Y83.717 E7.75777
G1 X110.907 Y84.603 E7.77448
G1 X105.000 Y87.106 E7.81065
G1 X99.093 Y84.603 E7.84681
G1 X96.265 Y83.717 E7.86353
G1 X91.713 Y79.375 E7.89899
G1 X91.844 Y82.789 E7.91825
G1 X93.350 Y93.019 E7.97654
G1 X101.097 Y95.846 E8.02303
G1 X102.100 Y97.375 E8.03334
G1 X105.000 Y99.317 E8.05302
G1 X105.053 Y99.786 F5400.000
G1 X108.203 Y97.676 F540.000 E8.07439
G1 X109.177 Y96.192 E8.08440
G1 X117.028 Y93.327 E8.13152
G1 X118.573 Y82.828 E8.19134
G1 X118.745 Y78.360 E8.21655
G1 X113.517 Y83.346 E8.25728
G1 X110.762 Y84.210 E8.27356
G1 X105.000 Y86.651 E8.30884
G1 X99.238 Y84.210 E8.34412
G1 X96.483 Y83.346 E8.36039
G1 X91.255 Y78.360 E8.40113
G1 X91.427 Y82.828 E8.42633
G1 X92.972 Y93.327 E8.48616
G1 X100.823 Y96.192 E8.53327
G1 X101.797 Y97.676 E8.54328
G1 X105.000 Y99.821 E8.56502
G1 X105.053 Y100.290 F5400.000
G1 X108.507 Y97.976 F540.000 E8.58845
G1 X109.451 Y96.537 E8.59816
G1 X117.406 Y93.634 E8.64589
G1 X118.991 Y82.866 E8.70725
G1 X119.208 Y77.215 E8.73914
G1 X119.018 Y77.521 E8.74117
G1 X113.299 Y82.976 E8.78572
G1 X110.618 Y83.816 E8.80156
G1 X105.000 Y86.196 E8.83596
G1 X99.382 Y83.816 E8.87035
G1 X96.701 Y82.976 E8.88619
G1 X90.982 Y77.521 E8.93075
G1 X90.792 Y77.215 E8.93278
G1 X91.009 Y82.866 E8.96466
G1 X92.594 Y93.634 E9.02602
G1 X100.549 Y96.537 E9.07376
G1 X101.493 Y97.976 E9.08347
G1 X105.000 Y100.325 E9.10726
G1 X105.053 Y100.793 F5400.000
G1 X108.810 Y98.277 F540.000 E9.13275
G1 X109.725 Y96.883 E9.14215
G1 X117.784 Y93.942 E9.19052
G1 X119.408 Y82.905 E9.25341
G1 X119.639 Y76.902 E9.28728
G1 X119.473 Y75.999 E9.29245
G1 X118.690 Y77.255 E9.30080
G1 X113.080 Y82.606 E9.34450
G1 X110.473 Y83.423 E9.35991
G1 X105.000 Y85.742 E9.39342
G1 X99.527 Y83.423 E9.42693
G1 X96.920 Y82.606 E9.44233
G1 X91.310 Y77.255 E9.48604
G1 X90.527 Y75.999 E9.49438
G1 X90.361 Y76.902 E9.49956
G1 X90.592 Y82.905 E9.53342
G1 X92.216 Y93.942 E9.59632
G1 X100.275 Y96.883 E9.64468
G1 X101.190 Y98.277 E9.65408
G1 X105.000 Y100.829 E9.67993
G1 X105.053 Y101.297 F5400.000
G1 X109.114 Y98.578 F540.000 E9.70749
G1 X109.999 Y97.229 E9.71658
G1 X117.837 Y94.368 E9.76362
G1 X118.016 Y94.642 E9.76546
G1 X118.172 Y94.178 E9.76823
G1 X119.826 Y82.944 E9.83224
G1 X120.060 Y76.872 E9.86650
G1 X119.689 Y74.861 E9.87803
G1 X118.363 Y76.989 E9.89216
G1 X112.862 Y82.235 E9.93502
G1 X110.329 Y83.030 E9.94999
G1 X105.000 Y85.287 E9.98261
G1 X99.671 Y83.030 E10.01524
G1 X97.138 Y82.235 E10.03021
G1 X91.637 Y76.989 E10.07306
G1 X90.311 Y74.861 E10.08720
G1 X89.940 Y76.872 E10.09873
G1 X90.174 Y82.944 E10.13298
G1 X91.828 Y94.178 E10.19700
G1 X91.984 Y94.642 E10.19976
G1 X92.163 Y94.368 E10.20160
G1 X100.001 Y97.229 E10.24864
G1 X100.886 Y98.578 E10.25774
G1 X105.000 Y101.333 E10.28565
G1 X105.258 Y101.663 F5400.000
G1 X105.000 Y104.782 F540.000 E10.30330
G1 X104.742 Y101.663 E10.32094
G1 X100.583 Y98.878 E10.34916
G1 X99.727 Y97.574 E10.35795
G1 X92.332 Y94.876 E10.40233
G1 X91.864 Y95.595 E10.40717
G1 X91.419 Y94.276 E10.41501
G1 X89.757 Y82.982 E10.47937
G1 X89.520 Y76.841 E10.51402
G1 X90.095 Y73.722 E10.53190
G1 X91.964 Y76.722 E10.55182
G1 X97.356 Y81.865 E10.59383
G1 X99.816 Y82.636 E10.60836
G1 X105.000 Y84.832 E10.64010
G1 X110.184 Y82.636 E10.67184
G1 X112.644 Y81.865 E10.68637
G1 X118.036 Y76.722 E10.72838
G1 X119.905 Y73.722 E10.74831
G1 X120.480 Y76.841 E10.76619
G1 X120.243 Y82.982 E10.80083
G1 X118.581 Y94.276 E10.86519
G1 X118.136 Y95.595 E10.87304
G1 X117.668 Y94.876 E10.87787
G1 X110.273 Y97.574 E10.92225
G1 X109.417 Y98.878 E10.93105
G1 X105.311 Y101.628 E10.95891
G1 X105.659 Y101.899 F5400.000
G1 X105.000 Y109.853 F540.000 E11.00390
G1 X104.341 Y101.899 E11.04890
G1 X100.279 Y99.179 E11.07646
G1 X99.453 Y97.920 E11.08495
G1 X92.501 Y95.383 E11.12667
G1 X91.969 Y96.201 E11.13217
G1 X91.548 Y95.968 E11.13488
G1 X91.011 Y94.374 E11.14436
G1 X89.339 Y83.021 E11.20906
G1 X89.100 Y76.811 E11.24409
G1 X89.798 Y73.026 E11.26579
G1 X90.001 Y72.401 E11.26950
G1 X90.355 Y73.348 E11.27520
G1 X92.291 Y76.456 E11.29584
G1 X97.575 Y81.495 E11.33700
G1 X99.961 Y82.243 E11.35110
G1 X105.000 Y84.378 E11.38195
G1 X110.039 Y82.243 E11.41281
G1 X112.425 Y81.495 E11.42690
G1 X117.709 Y76.456 E11.46806
G1 X119.645 Y73.348 E11.48871
G1 X119.999 Y72.401 E11.49441
G1 X120.202 Y73.026 E11.49811
G1 X120.900 Y76.811 E11.51981
G1 X120.661 Y83.021 E11.55485
G1 X118.989 Y94.374 E11.61954
G1 X118.452 Y95.968 E11.62902
G1 X118.031 Y96.201 E11.63174
G1 X117.499 Y95.383 E11.63724
G1 X110.547 Y97.920 E11.67896
G1 X109.721 Y99.179 E11.68745
G1 X105.712 Y101.864 E11.71465
G1 X106.060 Y102.135 F5400.000
G1 X105.163 Y112.956 F540.000 E11.77586
G1 X105.000 Y113.255 E11.77778
G1 X104.837 Y112.956 E11.77970
G1 X103.940 Y102.135 E11.84091
G1 X99.976 Y99.480 E11.86781
G1 X99.179 Y98.266 E11.87600
G1 X92.671 Y95.890 E11.91506
G1 X92.107 Y96.756 E11.92088
G1 X91.203 Y96.255 E11.92671
G1 X90.602 Y94.473 E11.93731
G1 X88.922 Y83.060 E12.00235
G1 X88.680 Y76.781 E12.03777
