; generated by Slic3r 0.7.2b on 2012-06-05 at 16:56:59

; layer_height = 0.1
; perimeters = 1
; solid_layers = 6
; fill_density = .1
; nozzle_diameter = 0.4
; filament_diameter = 2.94
; extrusion_multiplier = 1
; perimeter_speed = 15
; infill_speed = 30
; travel_speed = 90
; extrusion_width_ratio = 0
; scale = 1
; single wall width = 0.56mm

M104 S185 ; set temperature
M92 X78.7402 Y78.7402 E926 ;Set the right speed
G28 ;home all axes
M106 ;turn fan on
M109 S185 ; wait for temperature to be reached
G90 ; use absolute coordinates
G21 ; set units to millimeters
G92 E0 ; reset extrusion distance
M82 ; use absolute distances for extrusion
M106 S255
G1 Z0.100 F5400.000
M106 S254
G1 Z0.200
G1 X104.785 Y105.441
G1
G1 X105.151 Y105.401 F600.000 E0.00293
G1 X105.526 Y105.442 E0.00592
G1 X105.745 Y105.742 E0.00887
G1 X105.895 Y106.083 E0.01182
G1 X105.745 Y106.424 E0.01478
G1 X105.525 Y106.725 E0.01773
G1 X105.155 Y106.765 E0.02069
G1 X104.784 Y106.725 E0.02365
G1 X104.564 Y106.424 E0.02660
G1 X104.413 Y106.084 E0.02955
G1 X104.564 Y105.742 E0.03251
G1 X104.735 Y105.509 E0.03481
M106 S254
G1 Z0.300 F5400.000
G1 X104.008 Y105.421
G1 X104.436 Y104.837 F600.000 E0.04055
G1 X105.149 Y104.758 E0.04625
G1 X105.875 Y104.838 E0.05204
G1 X106.302 Y105.421 E0.05777
G1 X106.593 Y106.083 E0.06351
G1 X106.302 Y106.745 E0.06925
G1 X105.874 Y107.329 E0.07499
G1 X105.155 Y107.408 E0.08073
G1 X104.435 Y107.329 E0.08647
G1 X104.007 Y106.745 E0.09221
G1 X103.715 Y106.085 E0.09794
G1 X103.974 Y105.498 E0.10303
G1 X104.802 Y105.125 F5400.000
G1 X104.802 Y107.041 F1800.000 E0.12701
G1 X105.507 Y107.041 F5400.000
G1 X105.507 Y105.126 F1800.000 E0.15097
M106 S254
G1 Z0.400 F5400.000
G1 X134.267 Y110.161
G1 X132.927 Y115.164 F900.000 E0.19207
G1 X130.737 Y119.859 E0.23316
G1 X127.766 Y124.103 E0.27426
G1 X124.103 Y127.766 E0.31535
G1 X119.859 Y130.737 E0.35645
G1 X115.164 Y132.927 E0.39755
G1 X110.161 Y134.267 E0.43864
G1 X105.000 Y134.719 E0.47974
G1 X99.839 Y134.267 E0.52083
G1 X94.836 Y132.927 E0.56193
G1 X90.141 Y130.737 E0.60302
G1 X85.897 Y127.766 E0.64412
G1 X82.234 Y124.103 E0.68521
G1 X79.263 Y119.859 E0.72631
G1 X77.073 Y115.164 E0.76740
G1 X75.733 Y110.161 E0.80850
G1 X75.281 Y105.000 E0.84959
G1 X75.733 Y99.839 E0.89069
G1 X77.073 Y94.836 E0.93178
G1 X79.263 Y90.141 E0.97288
G1 X82.234 Y85.897 E1.01397
G1 X85.897 Y82.234 E1.05507
G1 X90.141 Y79.263 E1.09617
G1 X94.836 Y77.073 E1.13726
G1 X99.839 Y75.733 E1.17836
G1 X105.000 Y75.281 E1.21945
G1 X110.161 Y75.733 E1.26055
G1 X115.164 Y77.073 E1.30164
G1 X119.859 Y79.263 E1.34274
G1 X124.103 Y82.234 E1.38383
G1 X127.766 Y85.897 E1.42493
G1 X130.737 Y90.141 E1.46602
G1 X132.927 Y94.836 E1.50712
G1 X134.267 Y99.839 E1.54821
G1 X134.719 Y105.000 E1.58931
G1 X134.275 Y110.077 E1.62974
G1 X133.959 Y109.913 F5400.000
M106 S255
G1 X77.855 Y116.043 F1800.000 E2.68197
G1 X78.034 Y116.427 F5400.000
M106 S254
M106 S255
G1 X133.871 Y110.326 F1800.000 E3.72920
G1 X133.760 Y110.741 F5400.000
M106 S254
M106 S255
G1 X78.213 Y116.811 F1800.000 E4.77098
G1 X78.392 Y117.196 F5400.000
M106 S254
M106 S255
G1 X133.648 Y111.158 F1800.000 E5.80731
G1 X133.537 Y111.573 F5400.000
M106 S254
M106 S255
G1 X78.572 Y117.579 F1800.000 E6.83818
G1 X78.751 Y117.964 F5400.000
M106 S254
M106 S255
G1 X133.425 Y111.990 F1800.000 E7.86361
G1 X133.314 Y112.405 F5400.000
M106 S254
M106 S255
G1 X78.930 Y118.348 F1800.000 E8.88358
G1 X79.109 Y118.733 F5400.000
M106 S254
M106 S255
G1 X133.202 Y112.822 F1800.000 E9.89811
G1 X133.091 Y113.238 F5400.000
M106 S254
M106 S255
G1 X79.288 Y119.117 F1800.000 E10.90718
G1 X79.467 Y119.501 F5400.000
M106 S254
M106 S255
G1 X132.979 Y113.653 F1800.000 E11.91080
G1 X132.868 Y114.070 F5400.000
M106 S254
M106 S255
G1 X79.707 Y119.879 F1800.000 E12.90784
G1 X79.970 Y120.253 F5400.000
M106 S254
M106 S255
G1 X132.756 Y114.485 F1800.000 E13.89786
G1 X132.645 Y114.902 F5400.000
M106 S254
M106 S255
G1 X80.232 Y120.629 F1800.000 E14.88087
G1 X80.495 Y121.004 F5400.000
M106 S254
M106 S255
G1 X132.457 Y115.326 F1800.000 E15.85542
G1 X132.258 Y115.752 F5400.000
M106 S254
M106 S255
G1 X80.758 Y121.380 F1800.000 E16.82132
G1 X81.020 Y121.754 F5400.000
M106 S254
M106 S255
G1 X132.060 Y116.177 F1800.000 E17.77858
G1 X131.861 Y116.603 F5400.000
M106 S254
M106 S255
G1 X81.283 Y122.130 F1800.000 E18.72718
G1 X81.546 Y122.505 F5400.000
M106 S254
M106 S255
G1 X131.663 Y117.028 F1800.000 E19.66714
G1 X131.464 Y117.453 F5400.000
M106 S254
M106 S255
G1 X81.808 Y122.879 F1800.000 E20.59844
G1 X82.071 Y123.255 F5400.000
M106 S254
M106 S255
G1 X131.266 Y117.879 F1800.000 E21.52110
G1 X131.067 Y118.304 F5400.000
M106 S254
M106 S255
G1 X82.334 Y123.630 F1800.000 E22.43511
G1 X82.659 Y123.998 F5400.000
M106 S254
M106 S255
G1 X130.869 Y118.730 F1800.000 E23.33930
G1 X130.671 Y119.155 F5400.000
M106 S254
M106 S255
G1 X83.023 Y124.362 F1800.000 E24.23295
G1 X83.387 Y124.727 F5400.000
M106 S254
M106 S255
G1 X130.467 Y119.582 F1800.000 E25.11594
G1 X130.161 Y120.019 F5400.000
M106 S254
M106 S255
G1 X83.751 Y125.090 F1800.000 E25.98637
G1 X84.115 Y125.455 F5400.000
M106 S254
M106 S255
G1 X129.855 Y120.457 F1800.000 E26.84422
G1 X129.548 Y120.894 F5400.000
M106 S254
M106 S255
G1 X84.479 Y125.819 F1800.000 E27.68950
G1 X84.843 Y126.182 F5400.000
M106 S254
M106 S255
G1 X129.242 Y121.331 F1800.000 E28.52221
G1 X128.936 Y121.768 F5400.000
M106 S254
M106 S255
G1 X85.207 Y126.547 F1800.000 E29.34234
G1 X85.571 Y126.910 F5400.000
M106 S254
M106 S255
G1 X128.629 Y122.205 F1800.000 E30.14991
G1 X128.323 Y122.643 F5400.000
M106 S254
M106 S255
G1 X85.935 Y127.275 F1800.000 E30.94489
G1 X86.400 Y127.628 F5400.000
M106 S254
M106 S255
G1 X128.017 Y123.080 F1800.000 E31.72543
G1 X127.712 Y123.518 F5400.000
M106 S254
M106 S255
G1 X86.899 Y127.977 F1800.000 E32.49088
G1 X87.397 Y128.326 F5400.000
M106 S254
M106 S255
G1 X127.328 Y123.963 F1800.000 E33.23978
G1 X126.874 Y124.416 F5400.000
M106 S254
M106 S255
G1 X87.896 Y128.675 F1800.000 E33.97082
G1 X88.395 Y129.025 F5400.000
M106 S254
M106 S255
G1 X126.421 Y124.870 F1800.000 E34.68400
G1 X125.967 Y125.323 F5400.000
M106 S254
M106 S255
G1 X88.894 Y129.374 F1800.000 E35.37931
G1 X89.393 Y129.724 F5400.000
M106 S254
M106 S255
G1 X125.514 Y125.777 F1800.000 E36.05677
G1 X125.061 Y126.230 F5400.000
M106 S254
M106 S255
G1 X89.892 Y130.073 F1800.000 E36.71636
G1 X90.471 Y130.414 F5400.000
M106 S254
M106 S255
G1 X124.607 Y126.684 F1800.000 E37.35659
G1 X124.154 Y127.137 F5400.000
M106 S254
M106 S255
G1 X91.172 Y130.741 F1800.000 E37.97516
G1 X91.874 Y131.068 F5400.000
M106 S254
M106 S255
G1 X123.563 Y127.606 F1800.000 E38.56949
G1 X122.880 Y128.084 F5400.000
M106 S254
M106 S255
G1 X92.576 Y131.395 F1800.000 E39.13786
G1 X93.277 Y131.722 F5400.000
M106 S254
M106 S255
G1 X122.196 Y128.562 F1800.000 E39.68023
G1 X121.513 Y129.041 F5400.000
M106 S254
M106 S255
G1 X93.979 Y132.049 F1800.000 E40.19664
G1 X94.680 Y132.376 F5400.000
M106 S254
M106 S255
G1 X120.830 Y129.519 F1800.000 E40.68707
G1 X120.147 Y129.998 F5400.000
M106 S254
M106 S255
G1 X95.687 Y132.671 F1800.000 E41.14581
G1 X96.758 Y132.957 F5400.000
M106 S254
M106 S255
G1 X119.238 Y130.500 F1800.000 E41.56743
G1 X118.107 Y131.029 F5400.000
M106 S254
M106 S255
G1 X97.828 Y133.244 F1800.000 E41.94775
G1 X98.899 Y133.531 F5400.000
M106 S254
M106 S255
G1 X116.976 Y131.555 F1800.000 E42.28679
G1 X115.845 Y132.082 F5400.000
M106 S254
M106 S255
G1 X100.205 Y133.791 F1800.000 E42.58011
G1 X102.258 Y133.972 F5400.000
M106 S254
M106 S255
G1 X114.108 Y132.677 F1800.000 E42.80236
G1 X111.562 Y133.358 F5400.000
M106 S254
M106 S255
G1 X104.310 Y134.151 F1800.000 E42.93839
G1 X77.676 Y115.658 F5400.000
M106 S254
M106 S255
G1 X133.994 Y109.504 F1800.000 E43.99464
G1 X134.030 Y109.097 F5400.000
M106 S254
M106 S255
G1 X77.497 Y115.275 F1800.000 E45.05492
G1 X77.339 Y114.887 F5400.000
M106 S254
M106 S255
G1 X134.065 Y108.689 F1800.000 E46.11884
G1 X134.101 Y108.281 F5400.000
M106 S254
M106 S255
G1 X77.233 Y114.496 F1800.000 E47.18540
G1 X77.128 Y114.103 F5400.000
M106 S254
M106 S255
G1 X134.136 Y107.873 F1800.000 E48.25460
G1 X134.172 Y107.466 F5400.000
M106 S254
M106 S255
G1 X77.023 Y113.711 F1800.000 E49.32643
G1 X76.918 Y113.318 F5400.000
M106 S254
M106 S255
G1 X134.208 Y107.058 F1800.000 E50.40091
G1 X134.244 Y106.650 F5400.000
M106 S254
M106 S255
G1 X76.813 Y112.926 F1800.000 E51.47804
G1 X76.708 Y112.534 F5400.000
M106 S254
M106 S255
G1 X134.279 Y106.243 F1800.000 E52.55779
G1 X134.315 Y105.835 F5400.000
M106 S254
M106 S255
G1 X76.603 Y112.141 F1800.000 E53.64019
G1 X76.498 Y111.749 F5400.000
M106 S254
M106 S255
G1 X134.351 Y105.427 F1800.000 E54.72524
G1 X134.387 Y105.019 F5400.000
M106 S254
M106 S255
G1 X76.392 Y111.356 F1800.000 E55.81293
G1 X76.287 Y110.964 F5400.000
M106 S254
M106 S255
G1 X134.359 Y104.619 F1800.000 E56.90207
G1 X134.324 Y104.218 F5400.000
M106 S254
M106 S255
G1 X76.182 Y110.572 F1800.000 E57.99253
G1 X76.077 Y110.180 F5400.000
M106 S254
M106 S255
G1 X134.289 Y103.819 F1800.000 E59.08430
G1 X134.254 Y103.419 F5400.000
M106 S254
M106 S255
G1 X76.026 Y109.782 F1800.000 E60.17638
G1 X75.991 Y109.381 F5400.000
M106 S254
M106 S255
G1 X134.219 Y103.018 F1800.000 E61.26846
G1 X134.184 Y102.619 F5400.000
M106 S254
M106 S255
G1 X75.956 Y108.982 F1800.000 E62.36053
G1 X75.921 Y108.581 F5400.000
M106 S254
M106 S255
G1 X134.149 Y102.218 F1800.000 E63.45261
G1 X134.114 Y101.819 F5400.000
M106 S254
M106 S255
G1 X75.886 Y108.182 F1800.000 E64.54469
G1 X75.851 Y107.781 F5400.000
M106 S254
M106 S255
G1 X134.079 Y101.418 F1800.000 E65.63676
G1 X134.044 Y101.019 F5400.000
M106 S254
M106 S255
G1 X75.816 Y107.381 F1800.000 E66.72884
G1 X75.781 Y106.981 F5400.000
M106 S254
M106 S255
G1 X134.009 Y100.618 F1800.000 E67.82092
G1 X133.974 Y100.219 F5400.000
M106 S254
M106 S255
G1 X75.746 Y106.581 F1800.000 E68.91299
G1 X75.711 Y106.182 F5400.000
M106 S254
M106 S255
G1 X133.923 Y99.821 F1800.000 E70.00477
G1 X133.818 Y99.428 F5400.000
M106 S254
M106 S255
G1 X75.676 Y105.781 F1800.000 E71.09523
G1 X75.641 Y105.382 F5400.000
M106 S254
M106 S255
G1 X133.713 Y99.036 F1800.000 E72.18437
G1 X133.607 Y98.643 F5400.000
M106 S254
M106 S255
G1 X75.614 Y104.980 F1800.000 E73.27206
G1 X75.649 Y104.573 F5400.000
M106 S254
M106 S255
G1 X133.502 Y98.251 F1800.000 E74.35710
G1 X133.397 Y97.858 F5400.000
M106 S254
M106 S255
G1 X75.685 Y104.165 F1800.000 E75.43950
G1 X75.721 Y103.757 F5400.000
M106 S254
M106 S255
G1 X133.292 Y97.466 F1800.000 E76.51925
G1 X133.187 Y97.075 F5400.000
M106 S254
M106 S255
G1 X75.756 Y103.350 F1800.000 E77.59636
G1 X75.792 Y102.942 F5400.000
M106 S254
M106 S255
G1 X133.082 Y96.682 F1800.000 E78.67085
G1 X132.977 Y96.290 F5400.000
M106 S254
M106 S255
G1 X75.828 Y102.535 F1800.000 E79.74270
G1 X75.863 Y102.126 F5400.000
M106 S254
M106 S255
G1 X132.872 Y95.897 F1800.000 E80.81190
G1 X132.767 Y95.505 F5400.000
M106 S254
M106 S255
G1 X75.899 Y101.719 F1800.000 E81.87846
G1 X75.935 Y101.311 F5400.000
M106 S254
M106 S255
G1 X132.661 Y95.112 F1800.000 E82.94238
G1 X132.503 Y94.726 F5400.000
M106 S254
M106 S255
G1 X75.970 Y100.903 F1800.000 E84.00266
G1 X76.006 Y100.495 F5400.000
M106 S254
M106 S255
G1 X132.325 Y94.341 F1800.000 E85.05893
G1 X132.145 Y93.957 F5400.000
M106 S254
M106 S255
G1 X76.042 Y100.088 F1800.000 E86.11115
G1 X76.129 Y99.675 F5400.000
M106 S254
M106 S255
G1 X131.966 Y93.573 F1800.000 E87.15838
G1 X131.787 Y93.189 F5400.000
M106 S254
M106 S255
G1 X76.241 Y99.258 F1800.000 E88.20016
G1 X76.352 Y98.843 F5400.000
M106 S254
M106 S255
G1 X131.607 Y92.805 F1800.000 E89.23648
G1 X131.429 Y92.420 F5400.000
M106 S254
M106 S255
G1 X76.464 Y98.426 F1800.000 E90.26735
G1 X76.575 Y98.011 F5400.000
M106 S254
M106 S255
G1 X131.249 Y92.036 F1800.000 E91.29276
G1 X131.070 Y91.651 F5400.000
M106 S254
M106 S255
G1 X76.687 Y97.594 F1800.000 E92.31273
G1 X76.798 Y97.178 F5400.000
M106 S254
M106 S255
G1 X130.891 Y91.267 F1800.000 E93.32725
G1 X130.711 Y90.884 F5400.000
M106 S254
M106 S255
G1 X76.910 Y96.763 F1800.000 E94.33632
G1 X77.021 Y96.346 F5400.000
M106 S254
M106 S255
G1 X130.533 Y90.499 F1800.000 E95.33993
G1 X130.293 Y90.122 F5400.000
M106 S254
M106 S255
G1 X77.132 Y95.931 F1800.000 E96.33697
G1 X77.244 Y95.514 F5400.000
M106 S254
M106 S255
G1 X130.031 Y89.746 F1800.000 E97.32700
G1 X129.768 Y89.371 F5400.000
M106 S254
M106 S255
G1 X77.355 Y95.099 F1800.000 E98.31000
G1 X77.543 Y94.674 F5400.000
M106 S254
M106 S255
G1 X129.505 Y88.996 F1800.000 E99.28455
G1 X129.242 Y88.621 F5400.000
M106 S254
M106 S255
G1 X77.742 Y94.249 F1800.000 E100.25044
G1 X77.940 Y93.822 F5400.000
M106 S254
M106 S255
G1 X128.980 Y88.245 F1800.000 E101.20769
G1 X128.717 Y87.871 F5400.000
M106 S254
M106 S255
G1 X78.139 Y93.397 F1800.000 E102.15630
G1 X78.337 Y92.972 F5400.000
M106 S254
M106 S255
G1 X128.454 Y87.496 F1800.000 E103.09625
G1 X128.192 Y87.120 F5400.000
M106 S254
M106 S255
G1 X78.536 Y92.546 F1800.000 E104.02756
G1 X78.734 Y92.121 F5400.000
M106 S254
M106 S255
G1 X127.929 Y86.745 F1800.000 E104.95023
G1 X127.666 Y86.370 F5400.000
M106 S254
M106 S255
G1 X78.932 Y91.695 F1800.000 E105.86424
G1 X79.131 Y91.270 F5400.000
M106 S254
M106 S255
G1 X127.341 Y86.002 F1800.000 E106.76844
G1 X126.976 Y85.637 F5400.000
M106 S254
M106 S255
G1 X79.329 Y90.844 F1800.000 E107.66207
G1 X79.533 Y90.418 F5400.000
M106 S254
M106 S255
G1 X126.613 Y85.274 F1800.000 E108.54506
G1 X126.249 Y84.910 F5400.000
M106 S254
M106 S255
G1 X79.839 Y89.981 F1800.000 E109.41548
G1 X80.145 Y89.544 F5400.000
M106 S254
M106 S255
G1 X125.884 Y84.546 F1800.000 E110.27332
G1 X125.521 Y84.182 F5400.000
M106 S254
M106 S255
G1 X80.452 Y89.107 F1800.000 E111.11860
G1 X80.758 Y88.669 F5400.000
M106 S254
M106 S255
G1 X125.157 Y83.817 F1800.000 E111.95131
G1 X124.792 Y83.454 F5400.000
M106 S254
M106 S255
G1 X81.064 Y88.232 F1800.000 E112.77144
G1 X81.370 Y87.794 F5400.000
M106 S254
M106 S255
G1 X124.429 Y83.089 F1800.000 E113.57901
G1 X124.065 Y82.725 F5400.000
M106 S254
M106 S255
G1 X81.676 Y87.357 F1800.000 E114.37401
G1 X81.983 Y86.920 F5400.000
M106 S254
M106 S255
G1 X123.600 Y82.372 F1800.000 E115.15455
G1 X123.101 Y82.023 F5400.000
M106 S254
M106 S255
G1 X82.289 Y86.483 F1800.000 E115.91998
G1 X82.673 Y86.037 F5400.000
M106 S254
M106 S255
G1 X122.603 Y81.674 F1800.000 E116.66889
G1 X122.104 Y81.324 F5400.000
M106 S254
M106 S255
G1 X83.126 Y85.583 F1800.000 E117.39993
G1 X83.579 Y85.130 F5400.000
M106 S254
M106 S255
G1 X121.605 Y80.975 F1800.000 E118.11311
G1 X121.106 Y80.625 F5400.000
M106 S254
M106 S255
G1 X84.033 Y84.677 F1800.000 E118.80843
G1 X84.486 Y84.224 F5400.000
M106 S254
M106 S255
G1 X120.607 Y80.277 F1800.000 E119.48589
G1 X120.109 Y79.927 F5400.000
M106 S254
M106 S255
G1 X84.939 Y83.770 F1800.000 E120.14550
G1 X85.393 Y83.317 F5400.000
M106 S254
M106 S255
G1 X119.529 Y79.587 F1800.000 E120.78573
G1 X118.827 Y79.259 F5400.000
M106 S254
M106 S255
G1 X85.846 Y82.863 F1800.000 E121.40430
G1 X86.437 Y82.395 F5400.000
M106 S254
M106 S255
G1 X118.126 Y78.932 F1800.000 E121.99863
G1 X117.424 Y78.605 F5400.000
M106 S254
M106 S255
G1 X87.120 Y81.917 F1800.000 E122.56698
G1 X87.803 Y81.438 F5400.000
M106 S254
M106 S255
G1 X116.722 Y78.278 F1800.000 E123.10936
G1 X116.022 Y77.951 F5400.000
M106 S254
M106 S255
G1 X88.487 Y80.960 F1800.000 E123.62578
G1 X89.170 Y80.481 F5400.000
M106 S254
M106 S255
G1 X115.320 Y77.623 F1800.000 E124.11622
G1 X114.313 Y77.330 F5400.000
M106 S254
M106 S255
G1 X89.854 Y80.003 F1800.000 E124.57496
G1 X90.762 Y79.499 F5400.000
M106 S254
M106 S255
G1 X113.243 Y77.042 F1800.000 E124.99658
G1 X112.171 Y76.756 F5400.000
M106 S254
M106 S255
G1 X91.893 Y78.972 F1800.000 E125.37690
G1 X93.024 Y78.445 F5400.000
M106 S254
M106 S255
G1 X111.101 Y76.470 F1800.000 E125.71592
G1 X109.795 Y76.208 F5400.000
M106 S254
M106 S255
G1 X94.155 Y77.917 F1800.000 E126.00924
G1 X95.893 Y77.324 F5400.000
M106 S254
M106 S255
G1 X107.743 Y76.029 F1800.000 E126.23149
G1 X105.690 Y75.849 F5400.000
M106 S254
M106 S255
G1 X98.437 Y76.641 F1800.000 E126.36751
M106 S254
G1 Z0.500 F5400.000
M106 S254
G1 X99.839 Y75.733
G1 X105.000 Y75.281 F900.000 E126.40861
G1 X110.161 Y75.733 E126.44970
