; generated by Slic3r 0.7.2b on 2012-06-04 at 17:15:38

; layer_height = 0.1
; perimeters = 3
; solid_layers = 0
; fill_density = 0.10
; nozzle_diameter = 0.4
; filament_diameter = 2.94
; extrusion_multiplier = 1
; perimeter_speed = 30
; infill_speed = 60
; travel_speed = 90
; extrusion_width_ratio = 0
; scale = 1
; single wall width = 0.56mm

M104 S195 ; set temperature
M92 X78.7402 Y78.7402 E926 ;Set the right speed
G28 ;home all axes
M106 ;turn fan on
M109 S195 ; wait for temperature to be reached
G90 ; use absolute coordinates
G21 ; set units to millimeters
G92 E0 ; reset extrusion distance
M82 ; use absolute distances for extrusion
M106 S254
G1 Z0.100 F5400.000
G1 X86.170 Y83.581
G1
G1 X92.690 Y80.366 F540.000 E0.05767
G1 X92.905 Y80.240 E0.05965
G1 X99.402 Y77.036 E0.11711
G1 X106.656 Y77.511 E0.17478
G1 X106.906 Y77.510 E0.17676
G1 X114.134 Y77.983 E0.23423
G1 X120.179 Y82.022 E0.29190
G1 X120.396 Y82.146 E0.29388
G1 X126.419 Y86.170 E0.35134
G1 X129.634 Y92.690 E0.40901
G1 X129.760 Y92.905 E0.41099
G1 X132.964 Y99.402 E0.46846
G1 X132.489 Y106.656 E0.52613
G1 X132.490 Y106.906 E0.52811
G1 X132.017 Y114.134 E0.58557
G1 X127.978 Y120.179 E0.64324
G1 X127.854 Y120.396 E0.64522
G1 X123.830 Y126.419 E0.70269
G1 X117.310 Y129.634 E0.76036
G1 X117.095 Y129.760 E0.76234
G1 X110.598 Y132.964 E0.81980
G1 X103.344 Y132.489 E0.87747
G1 X103.094 Y132.490 E0.87945
G1 X95.866 Y132.017 E0.93692
G1 X89.821 Y127.978 E0.99458
G1 X89.604 Y127.854 E0.99657
G1 X83.581 Y123.830 E1.05403
G1 X80.366 Y117.310 E1.11170
G1 X80.240 Y117.095 E1.11368
G1 X77.036 Y110.598 E1.17115
G1 X77.511 Y103.344 E1.22881
G1 X77.510 Y103.094 E1.23080
G1 X77.983 Y95.866 E1.28826
G1 X82.022 Y89.821 E1.34593
G1 X82.146 Y89.604 E1.34791
G1 X86.124 Y83.651 E1.40471
G1 X85.784 Y83.171 F5400.000
G1 X85.806 Y83.149 F540.000 E1.40496
G1 X92.429 Y79.882 E1.46354
G1 X92.645 Y79.756 E1.46553
G1 X99.273 Y76.487 E1.52415
G1 X99.303 Y76.479 E1.52440
G1 X106.672 Y76.962 E1.58299
G1 X106.922 Y76.960 E1.58497
G1 X114.297 Y77.444 E1.64359
G1 X114.327 Y77.451 E1.64384
G1 X120.467 Y81.554 E1.70243
G1 X120.685 Y81.678 E1.70441
G1 X126.829 Y85.784 E1.76303
G1 X126.851 Y85.806 E1.76328
G1 X130.118 Y92.429 E1.82187
G1 X130.244 Y92.645 E1.82385
G1 X133.513 Y99.273 E1.88248
G1 X133.521 Y99.303 E1.88272
G1 X133.038 Y106.672 E1.94131
G1 X133.040 Y106.922 E1.94329
G1 X132.556 Y114.297 E2.00192
G1 X132.549 Y114.327 E2.00217
G1 X128.446 Y120.467 E2.06075
G1 X128.322 Y120.685 E2.06273
G1 X124.216 Y126.829 E2.12136
G1 X124.194 Y126.851 E2.12161
G1 X117.571 Y130.118 E2.18019
G1 X117.355 Y130.244 E2.18218
G1 X110.727 Y133.513 E2.24080
G1 X110.697 Y133.521 E2.24105
G1 X103.328 Y133.038 E2.29964
G1 X103.078 Y133.040 E2.30162
G1 X95.703 Y132.556 E2.36024
G1 X95.673 Y132.549 E2.36049
G1 X89.533 Y128.446 E2.41908
G1 X89.315 Y128.322 E2.42106
G1 X83.171 Y124.216 E2.47969
G1 X83.149 Y124.194 E2.47993
G1 X79.882 Y117.571 E2.53852
G1 X79.756 Y117.355 E2.54050
G1 X76.487 Y110.727 E2.59913
G1 X76.479 Y110.697 E2.59937
G1 X76.962 Y103.328 E2.65796
G1 X76.960 Y103.078 E2.65994
G1 X77.444 Y95.703 E2.71857
G1 X77.451 Y95.673 E2.71882
G1 X81.554 Y89.533 E2.77740
G1 X81.678 Y89.315 E2.77938
G1 X85.737 Y83.241 E2.83734
G1 X85.356 Y82.823 F5400.000
G1 X85.479 Y82.697 F540.000 E2.83874
G1 X92.169 Y79.398 E2.89792
G1 X92.384 Y79.272 E2.89990
G1 X99.076 Y75.972 E2.95908
G1 X99.245 Y75.925 E2.96048
G1 X106.689 Y76.412 E3.01965
G1 X106.939 Y76.411 E3.02164
G1 X114.384 Y76.899 E3.08082
G1 X114.554 Y76.943 E3.08222
G1 X120.756 Y81.087 E3.14139
G1 X120.973 Y81.210 E3.14338
G1 X127.177 Y85.356 E3.20256
G1 X127.303 Y85.479 E3.20396
G1 X130.602 Y92.169 E3.26313
G1 X130.728 Y92.384 E3.26512
G1 X134.028 Y99.076 E3.32430
G1 X134.075 Y99.245 E3.32570
G1 X133.588 Y106.689 E3.38487
G1 X133.589 Y106.939 E3.38686
G1 X133.101 Y114.384 E3.44604
G1 X133.057 Y114.554 E3.44744
G1 X128.913 Y120.756 E3.50661
G1 X128.790 Y120.973 E3.50860
G1 X124.644 Y127.177 E3.56778
G1 X124.521 Y127.303 E3.56918
G1 X117.831 Y130.602 E3.62835
G1 X117.616 Y130.728 E3.63034
G1 X110.924 Y134.028 E3.68952
G1 X110.755 Y134.075 E3.69092
G1 X103.311 Y133.588 E3.75009
G1 X103.061 Y133.589 E3.75208
G1 X95.616 Y133.101 E3.81126
G1 X95.446 Y133.057 E3.81266
G1 X89.244 Y128.913 E3.87183
G1 X89.027 Y128.790 E3.87381
G1 X82.823 Y124.644 E3.93300
G1 X82.697 Y124.521 E3.93440
G1 X79.398 Y117.831 E3.99357
G1 X79.272 Y117.616 E3.99555
G1 X75.972 Y110.924 E4.05474
G1 X75.925 Y110.755 E4.05614
G1 X76.412 Y103.311 E4.11531
G1 X76.411 Y103.061 E4.11729
G1 X76.899 Y95.616 E4.17648
G1 X76.943 Y95.446 E4.17788
G1 X81.087 Y89.244 E4.23705
G1 X81.210 Y89.027 E4.23903
G1 X85.309 Y82.893 E4.29756
M106 S254
G1 Z0.200 F5400.000
G1 X86.317 Y83.645
G1 X92.395 Y80.648 F1800.000 E4.35131
G1 X93.041 Y80.269 E4.35726
G1 X99.126 Y77.268 E4.41108
G1 X99.498 Y77.164 E4.41414
G1 X106.260 Y77.608 E4.46790
G1 X107.009 Y77.603 E4.47384
G1 X113.779 Y78.047 E4.52766
G1 X114.153 Y78.143 E4.53072
G1 X119.787 Y81.907 E4.58448
G1 X120.438 Y82.278 E4.59042
G1 X126.080 Y86.047 E4.64424
G1 X126.355 Y86.317 E4.64731
G1 X129.352 Y92.395 E4.70106
G1 X129.731 Y93.041 E4.70701
G1 X132.732 Y99.126 E4.76083
G1 X132.836 Y99.498 E4.76389
G1 X132.392 Y106.260 E4.81765
G1 X132.397 Y107.009 E4.82359
G1 X131.953 Y113.779 E4.87741
G1 X131.857 Y114.153 E4.88047
G1 X128.093 Y119.787 E4.93423
G1 X127.722 Y120.438 E4.94017
G1 X123.953 Y126.080 E4.99399
G1 X123.683 Y126.355 E4.99706
G1 X117.605 Y129.352 E5.05081
G1 X116.959 Y129.731 E5.05676
G1 X110.874 Y132.732 E5.11058
G1 X110.502 Y132.836 E5.11364
G1 X103.740 Y132.392 E5.16739
G1 X102.991 Y132.397 E5.17334
G1 X96.221 Y131.953 E5.22716
G1 X95.847 Y131.857 E5.23022
G1 X90.213 Y128.093 E5.28398
G1 X89.562 Y127.722 E5.28992
G1 X83.920 Y123.953 E5.34374
G1 X83.645 Y123.683 E5.34680
G1 X80.648 Y117.605 E5.40056
G1 X80.269 Y116.959 E5.40651
G1 X77.268 Y110.874 E5.46033
G1 X77.164 Y110.502 E5.46339
G1 X77.608 Y103.740 E5.51714
G1 X77.603 Y102.991 E5.52309
G1 X78.047 Y96.221 E5.57691
G1 X78.143 Y95.847 E5.57997
G1 X81.907 Y90.213 E5.63373
G1 X82.278 Y89.562 E5.63967
G1 X86.047 Y83.920 E5.69349
G1 X86.258 Y83.705 E5.69589
G1 X85.990 Y83.194 F5400.000
G1 X92.134 Y80.164 F1800.000 E5.75023
G1 X92.781 Y79.785 E5.75618
G1 X98.929 Y76.753 E5.81056
G1 X99.440 Y76.610 E5.81477
G1 X106.276 Y77.058 E5.86911
G1 X107.025 Y77.054 E5.87506
G1 X113.866 Y77.502 E5.92944
G1 X114.380 Y77.634 E5.93365
G1 X120.076 Y81.440 E5.98799
G1 X120.727 Y81.810 E5.99394
G1 X126.427 Y85.619 E6.04832
G1 X126.806 Y85.990 E6.05253
G1 X129.836 Y92.134 E6.10688
G1 X130.215 Y92.781 E6.11282
G1 X133.247 Y98.929 E6.16720
G1 X133.390 Y99.440 E6.17141
G1 X132.942 Y106.276 E6.22576
G1 X132.946 Y107.025 E6.23170
G1 X132.498 Y113.866 E6.28608
G1 X132.366 Y114.380 E6.29029
G1 X128.560 Y120.076 E6.34464
G1 X128.190 Y120.727 E6.35058
G1 X124.381 Y126.427 E6.40497
G1 X124.010 Y126.806 E6.40918
G1 X117.866 Y129.836 E6.46352
G1 X117.219 Y130.215 E6.46946
G1 X111.071 Y133.247 E6.52385
G1 X110.560 Y133.390 E6.52806
G1 X103.724 Y132.942 E6.58240
G1 X102.975 Y132.946 E6.58835
G1 X96.134 Y132.498 E6.64273
G1 X95.620 Y132.366 E6.64694
G1 X89.924 Y128.560 E6.70128
G1 X89.273 Y128.190 E6.70723
G1 X83.573 Y124.381 E6.76161
G1 X83.194 Y124.010 E6.76582
G1 X80.164 Y117.866 E6.82016
G1 X79.785 Y117.219 E6.82611
G1 X76.753 Y111.071 E6.88049
G1 X76.610 Y110.560 E6.88470
G1 X77.058 Y103.724 E6.93904
G1 X77.054 Y102.975 E6.94499
G1 X77.502 Y96.134 E6.99937
G1 X77.634 Y95.620 E7.00358
G1 X81.440 Y89.924 E7.05793
G1 X81.810 Y89.273 E7.06387
G1 X85.619 Y83.573 E7.11825
G1 X85.931 Y83.254 E7.12180
G1 X85.663 Y82.742 F5400.000
G1 X91.874 Y79.680 F1800.000 E7.17673
G1 X92.520 Y79.301 E7.18267
G1 X98.732 Y76.238 E7.23762
G1 X99.383 Y76.056 E7.24298
G1 X106.292 Y76.509 E7.29791
G1 X107.042 Y76.504 E7.30385
G1 X113.953 Y76.957 E7.35880
G1 X114.607 Y77.125 E7.36415
G1 X120.365 Y80.972 E7.41909
G1 X121.016 Y81.343 E7.42503
G1 X126.775 Y85.191 E7.47998
G1 X127.258 Y85.663 E7.48533
G1 X130.320 Y91.874 E7.54027
G1 X130.699 Y92.520 E7.54621
G1 X133.762 Y98.732 E7.60115
G1 X133.944 Y99.383 E7.60651
G1 X133.491 Y106.292 E7.66144
G1 X133.496 Y107.042 E7.66739
G1 X133.043 Y113.953 E7.72233
G1 X132.875 Y114.607 E7.72769
G1 X129.028 Y120.365 E7.78262
G1 X128.657 Y121.016 E7.78857
G1 X124.809 Y126.775 E7.84351
G1 X124.337 Y127.258 E7.84887
G1 X118.126 Y130.320 E7.90380
G1 X117.480 Y130.699 E7.90975
G1 X111.268 Y133.762 E7.96469
G1 X110.617 Y133.944 E7.97005
G1 X103.708 Y133.491 E8.02498
G1 X102.958 Y133.496 E8.03093
G1 X96.047 Y133.043 E8.08587
G1 X95.393 Y132.875 E8.09123
G1 X89.635 Y129.028 E8.14616
G1 X88.984 Y128.657 E8.15211
G1 X83.225 Y124.809 E8.20705
G1 X82.742 Y124.337 E8.21241
G1 X79.680 Y118.126 E8.26734
G1 X79.301 Y117.480 E8.27329
G1 X76.238 Y111.268 E8.32823
G1 X76.056 Y110.617 E8.33359
G1 X76.509 Y103.708 E8.38852
G1 X76.504 Y102.958 E8.39446
G1 X76.957 Y96.047 E8.44941
G1 X77.125 Y95.393 E8.45477
G1 X80.972 Y89.635 E8.50970
G1 X81.343 Y88.984 E8.51564
G1 X85.191 Y83.225 E8.57059
G1 X85.604 Y82.802 E8.57528
G1 X108.807 Y78.589 F5400.000
G1 X107.748 Y77.977 F3600.000 E8.58499
G1 X109.651 Y78.102 E8.60012
G1 X108.807 Y78.589 E8.60785
G1 X125.285 Y88.103 F5400.000
G1 X119.518 Y84.773 F3600.000 E8.66068
G1 X119.518 Y82.119 E8.68173
G1 X119.616 Y82.184 E8.68267
G1 X120.267 Y82.555 E8.68861
G1 X125.874 Y86.301 E8.74210
G1 X126.088 Y86.511 E8.74448
G1 X126.521 Y87.389 E8.75225
G1 X125.285 Y88.103 E8.76357
G1 X132.165 Y104.759 F5400.000
G1 X130.503 Y103.800 F3600.000 E8.77879
G1 X130.503 Y98.092 E8.82407
G1 X124.736 Y94.762 E8.87690
G1 X119.793 Y97.616 E8.92219
G1 X114.025 Y94.287 E8.97502
G1 X114.025 Y88.578 E9.02030
G1 X108.258 Y85.249 E9.07313
G1 X103.315 Y88.103 E9.11841
G1 X97.547 Y84.773 E9.17124
G1 X97.547 Y79.065 E9.21652
G1 X96.935 Y78.711 E9.22213
G1 X97.528 Y78.419 E9.22737
G1 X97.822 Y78.589 E9.23007
G1 X99.702 Y77.504 E9.24729
G1 X106.250 Y77.933 E9.29934
G1 X106.569 Y77.931 E9.30187
G1 X108.533 Y79.065 E9.31986
G1 X108.533 Y84.773 E9.36515
G1 X114.300 Y88.103 E9.41797
G1 X119.243 Y85.249 E9.46326
G1 X125.011 Y88.578 E9.51609
G1 X125.011 Y94.287 E9.56137
G1 X130.778 Y97.616 E9.61420
G1 X131.437 Y97.236 E9.62023
G1 X132.427 Y99.243 E9.63799
G1 X132.507 Y99.532 E9.64037
G1 X132.165 Y104.759 E9.68193
G1 X130.074 Y116.237 F5400.000
G1 X125.011 Y113.314 F3600.000 E9.72830
G1 X125.011 Y107.606 E9.77359
G1 X119.243 Y104.276 E9.82642
G1 X114.300 Y107.130 E9.87170
G1 X108.533 Y103.800 E9.92453
G1 X108.533 Y98.092 E9.96981
G1 X102.765 Y94.762 E10.02264
G1 X97.822 Y97.616 E10.06792
G1 X92.055 Y94.287 E10.12075
G1 X92.055 Y88.578 E10.16603
G1 X86.287 Y85.249 E10.21886
G1 X85.089 Y85.941 E10.22984
G1 X86.301 Y84.126 E10.24715
G1 X86.511 Y83.912 E10.24953
G1 X86.562 Y83.887 E10.24999
G1 X86.562 Y84.773 E10.25702
G1 X92.329 Y88.103 E10.30985
G1 X97.273 Y85.249 E10.35513
G1 X103.040 Y88.578 E10.40796
G1 X103.040 Y94.287 E10.45324
G1 X108.807 Y97.616 E10.50607
G1 X113.751 Y94.762 E10.55135
G1 X119.518 Y98.092 E10.60418
G1 X119.518 Y103.800 E10.64947
G1 X125.285 Y107.130 E10.70230
G1 X130.229 Y104.276 E10.74758
G1 X132.125 Y105.371 E10.76495
G1 X132.067 Y106.250 E10.77194
G1 X132.072 Y106.999 E10.77788
G1 X131.631 Y113.728 E10.83137
G1 X131.556 Y114.018 E10.83375
G1 X130.074 Y116.237 E10.85492
G1 X124.004 Y125.417 F5400.000
G1 X119.518 Y122.827 F3600.000 E10.89601
G1 X119.518 Y117.119 E10.94129
G1 X113.751 Y113.790 E10.99412
G1 X108.807 Y116.644 E11.03941
G1 X103.040 Y113.314 E11.09224
G1 X103.040 Y107.606 E11.13752
G1 X97.273 Y104.276 E11.19035
G1 X92.329 Y107.130 E11.23563
G1 X86.562 Y103.800 E11.28846
G1 X86.562 Y98.092 E11.33374
G1 X80.795 Y94.762 E11.38657
G1 X78.402 Y96.143 E11.40849
G1 X78.444 Y95.982 E11.40981
G1 X81.069 Y92.053 E11.44730
G1 X81.069 Y94.287 E11.46502
G1 X86.836 Y97.616 E11.51785
G1 X91.780 Y94.762 E11.56313
G1 X97.547 Y98.092 E11.61596
G1 X97.547 Y103.800 E11.66124
G1 X103.315 Y107.130 E11.71407
G1 X108.258 Y104.276 E11.75935
G1 X114.025 Y107.606 E11.81218
G1 X114.025 Y113.314 E11.85747
G1 X119.793 Y116.644 E11.91030
G1 X124.736 Y113.790 E11.95558
G1 X129.768 Y116.695 E12.00167
G1 X127.816 Y119.616 E12.02954
G1 X127.445 Y120.267 E12.03549
G1 X124.004 Y125.417 E12.08462
G1 X114.025 Y130.815 F5400.000
G1 X114.025 Y126.633 F3600.000 E12.11780
G1 X108.258 Y123.303 E12.17063
G1 X103.315 Y126.157 E12.21591
G1 X97.547 Y122.827 E12.26874
G1 X97.547 Y117.119 E12.31402
G1 X91.780 Y113.790 E12.36685
G1 X86.836 Y116.644 E12.41214
G1 X81.069 Y113.314 E12.46497
G1 X81.069 Y107.606 E12.51025
G1 X77.804 Y105.720 E12.54016
G1 X77.844 Y105.109 E12.54502
G1 X81.344 Y107.130 E12.57708
G1 X86.287 Y104.276 E12.62236
G1 X92.055 Y107.606 E12.67519
G1 X92.055 Y113.314 E12.72047
G1 X97.822 Y116.644 E12.77330
G1 X102.765 Y113.790 E12.81859
G1 X108.533 Y117.119 E12.87142
G1 X108.533 Y122.827 E12.91670
G1 X114.300 Y126.157 E12.96953
G1 X119.243 Y123.303 E13.01481
G1 X123.698 Y125.875 E13.05561
G1 X123.489 Y126.088 E13.05798
G1 X117.451 Y129.066 E13.11139
G1 X116.804 Y129.445 E13.11733
G1 X114.025 Y130.815 E13.14192
G1 X103.001 Y132.072 F5400.000
G1 X96.272 Y131.631 F3600.000 E13.19540
G1 X95.982 Y131.556 E13.19778
G1 X92.055 Y128.932 E13.23525
G1 X92.055 Y126.633 E13.25349
G1 X86.287 Y123.303 E13.30632
G1 X84.810 Y124.156 E13.31985
G1 X84.126 Y123.699 E13.32638
G1 X83.912 Y123.489 E13.32876
G1 X80.934 Y117.451 E13.38217
G1 X80.555 Y116.804 E13.38811
G1 X79.451 Y114.565 E13.40792
G1 X80.795 Y113.790 E13.42022
G1 X86.562 Y117.119 E13.47305
G1 X86.562 Y122.827 E13.51833
G1 X92.329 Y126.157 E13.57116
G1 X97.273 Y123.303 E13.61645
G1 X103.040 Y126.633 E13.66928
G1 X103.040 Y132.072 E13.71242
G1 X103.001 Y132.072 E13.71273
M106 S254
G1 Z0.300 F5400.000
G1 X102.888 Y132.304
G1 X96.652 Y131.895 F1800.000 E13.76231
G1 X95.794 Y131.675 E13.76933
G1 X90.604 Y128.208 E13.81885
G1 X89.519 Y127.590 E13.82875
G1 X84.323 Y124.118 E13.87833
G1 X83.690 Y123.498 E13.88536
G1 X80.929 Y117.900 E13.93487
G1 X80.298 Y116.823 E13.94478
G1 X77.534 Y111.218 E13.99435
G1 X77.296 Y110.365 E14.00138
G1 X77.704 Y104.137 E14.05089
G1 X77.696 Y102.888 E14.06080
G1 X78.105 Y96.652 E14.11038
G1 X78.325 Y95.794 E14.11740
G1 X81.792 Y90.604 E14.16691
G1 X82.410 Y89.519 E14.17682
G1 X85.882 Y84.323 E14.22640
G1 X86.502 Y83.690 E14.23342
G1 X92.100 Y80.929 E14.28294
G1 X93.177 Y80.298 E14.29284
G1 X98.782 Y77.534 E14.34242
G1 X99.635 Y77.296 E14.34945
G1 X105.863 Y77.704 E14.39896
G1 X107.112 Y77.696 E14.40887
G1 X113.348 Y78.105 E14.45845
G1 X114.206 Y78.325 E14.46547
G1 X119.396 Y81.792 E14.51498
G1 X120.481 Y82.410 E14.52489
G1 X125.677 Y85.882 E14.57447
G1 X126.310 Y86.502 E14.58149
G1 X129.071 Y92.100 E14.63101
G1 X129.702 Y93.177 E14.64091
G1 X132.466 Y98.782 E14.69049
G1 X132.704 Y99.635 E14.69751
G1 X132.296 Y105.863 E14.74703
G1 X132.304 Y107.112 E14.75694
G1 X131.895 Y113.348 E14.80651
G1 X131.675 Y114.206 E14.81354
G1 X128.208 Y119.396 E14.86305
G1 X127.590 Y120.481 E14.87296
G1 X124.118 Y125.677 E14.92254
G1 X123.498 Y126.310 E14.92956
G1 X117.900 Y129.071 E14.97907
G1 X116.823 Y129.702 E14.98898
G1 X111.218 Y132.466 E15.03856
G1 X110.365 Y132.704 E15.04558
G1 X104.137 Y132.296 E15.09510
G1 X102.972 Y132.303 E15.10434
G1 X102.872 Y132.853 F5400.000
G1 X96.565 Y132.440 F1800.000 E15.15448
G1 X95.567 Y132.184 E15.16265
G1 X90.316 Y128.675 E15.21275
G1 X89.230 Y128.057 E15.22266
G1 X83.975 Y124.546 E15.27280
G1 X83.239 Y123.825 E15.28097
G1 X80.445 Y118.161 E15.33107
G1 X79.814 Y117.083 E15.34098
G1 X77.019 Y111.415 E15.39112
G1 X76.741 Y110.422 E15.39929
G1 X77.154 Y104.120 E15.44939
G1 X77.147 Y102.872 E15.45930
G1 X77.560 Y96.565 E15.50944
G1 X77.816 Y95.567 E15.51761
G1 X81.325 Y90.316 E15.56771
G1 X81.943 Y89.230 E15.57762
G1 X85.454 Y83.975 E15.62776
G1 X86.175 Y83.239 E15.63593
G1 X91.839 Y80.445 E15.68603
G1 X92.917 Y79.814 E15.69594
G1 X98.585 Y77.019 E15.74608
G1 X99.578 Y76.741 E15.75425
G1 X105.880 Y77.154 E15.80435
G1 X107.128 Y77.147 E15.81426
G1 X113.435 Y77.560 E15.86440
G1 X114.433 Y77.816 E15.87257
G1 X119.684 Y81.325 E15.92267
G1 X120.770 Y81.943 E15.93258
G1 X126.025 Y85.454 E15.98272
G1 X126.761 Y86.175 E15.99089
G1 X129.555 Y91.839 E16.04100
