; generated by Slic3r 0.7.2b on 2012-06-05 at 12:39:56

; layer_height = 0.1
; perimeters = 1
; solid_layers = 10
; fill_density = 0
; nozzle_diameter = 0.4
; filament_diameter = 2.94
; extrusion_multiplier = 1
; perimeter_speed = 30
; infill_speed = 60
; travel_speed = 90
; extrusion_width_ratio = 0
; scale = 1
; single wall width = 0.56mm

M104 S195 ; set temperature
M92 X78.7402 Y78.7402 E926 ;Set the right speed
G28 ;home all axes
M106 ;turn fan on
M109 S195 ; wait for temperature to be reached
G90 ; use absolute coordinates
G21 ; set units to millimeters
G92 E0 ; reset extrusion distance
M82 ; use absolute distances for extrusion
M106 S254
G1 Z0.100 F5400.000
G1 X97.980 Y98.741
G1
G1 X102.172 Y101.296 F540.000 E0.03895
G1 X102.322 Y101.210 E0.04032
G1 X102.206 Y96.301 E0.07927
G1 X104.559 Y100.611 E0.11822
G1 X104.732 Y100.611 E0.11959
G1 X107.085 Y96.301 E0.15854
G1 X106.969 Y101.210 E0.19749
G1 X107.118 Y101.296 E0.19887
G1 X111.311 Y98.741 E0.23782
G1 X108.756 Y102.934 E0.27677
G1 X108.842 Y103.084 E0.27814
G1 X113.751 Y102.967 E0.31709
G1 X109.442 Y105.320 E0.35604
G1 X109.442 Y105.493 E0.35741
G1 X113.751 Y107.846 E0.39636
G1 X108.842 Y107.730 E0.43531
G1 X108.756 Y107.880 E0.43668
G1 X111.311 Y112.072 E0.47563
G1 X107.118 Y109.517 E0.51458
G1 X106.969 Y109.604 E0.51596
G1 X107.085 Y114.512 E0.55490
G1 X104.732 Y110.203 E0.59385
G1 X104.559 Y110.203 E0.59523
G1 X102.206 Y114.512 E0.63418
G1 X102.322 Y109.604 E0.67313
G1 X102.172 Y109.517 E0.67450
G1 X97.980 Y112.072 E0.71345
G1 X100.535 Y107.880 E0.75240
G1 X100.449 Y107.730 E0.75377
G1 X95.540 Y107.846 E0.79272
G1 X99.849 Y105.493 E0.83167
G1 X99.849 Y105.320 E0.83304
G1 X95.540 Y102.967 E0.87199
G1 X100.449 Y103.084 E0.91094
G1 X100.535 Y102.934 E0.91232
G1 X98.024 Y98.813 E0.95060
G1 X101.993 Y115.304 F5400.000
G1 X102.041 Y115.127 F540.000 E0.95206
G1 X107.298 Y115.304 F5400.000
G1 X107.250 Y115.127 F540.000 E0.95351
G1 X97.400 Y112.652 F5400.000
G1 X97.400 Y112.652 F540.000 E0.95351
G1 X111.891 Y112.652 F5400.000
G1 X111.761 Y112.523 F540.000 E0.95497
G1 X94.748 Y108.059 F5400.000
G1 X94.748 Y108.059 F540.000 E0.95497
G1 X114.543 Y108.059 F5400.000
G1 X114.366 Y108.011 F540.000 E0.95642
G1 X94.748 Y102.755 F5400.000
G1 X94.748 Y102.755 F540.000 E0.95642
G1 X114.543 Y102.755 F5400.000
G1 X114.543 Y102.755 F540.000 E0.95642
G1 X97.400 Y98.161 F5400.000
G1 X97.400 Y98.161 F540.000 E0.95642
G1 X111.891 Y98.161 F5400.000
G1 X111.891 Y98.161 F540.000 E0.95642
G1 X107.298 Y95.509 F5400.000
G1 X107.298 Y95.509 F540.000 E0.95642
G1 X101.993 Y95.509 F5400.000
G1 X101.993 Y95.509 F540.000 E0.95642
G1 X104.889 Y105.535 F5400.000
G1 X104.921 Y105.480 F1080.000 E0.95696
G1 X104.921 Y105.333 E0.95821
G1 X104.847 Y105.205 E0.95946
G1 X104.719 Y105.131 E0.96071
G1 X104.572 Y105.131 E0.96196
G1 X104.444 Y105.205 E0.96320
G1 X104.370 Y105.333 E0.96445
G1 X104.370 Y105.480 E0.96570
G1 X104.444 Y105.608 E0.96695
G1 X104.572 Y105.682 E0.96820
G1 X104.719 Y105.682 E0.96945
G1 X104.847 Y105.608 E0.97070
G1 X105.304 Y105.951 F5400.000
G1 X105.488 Y105.632 F1080.000 E0.97381
G1 X105.488 Y105.181 E0.97763
G1 X105.262 Y104.790 E0.98146
G1 X104.871 Y104.564 E0.98528
G1 X104.420 Y104.564 E0.98910
G1 X104.029 Y104.790 E0.99293
G1 X103.803 Y105.181 E0.99675
G1 X103.803 Y105.632 E1.00057
G1 X104.029 Y106.024 E1.00440
G1 X104.420 Y106.249 E1.00822
G1 X104.871 Y106.249 E1.01204
G1 X105.262 Y106.024 E1.01586
G1 X105.720 Y106.366 F5400.000
G1 X106.055 Y105.784 F1080.000 E1.02155
G1 X106.055 Y105.029 E1.02795
G1 X105.678 Y104.374 E1.03435
G1 X105.023 Y103.997 E1.04074
G1 X104.268 Y103.997 E1.04714
G1 X103.613 Y104.374 E1.05354
G1 X103.235 Y105.029 E1.05994
G1 X103.235 Y105.784 E1.06633
G1 X103.613 Y106.439 E1.07273
G1 X104.268 Y106.817 E1.07913
G1 X105.023 Y106.817 E1.08552
G1 X105.678 Y106.439 E1.09192
G1 X106.135 Y106.781 F5400.000
G1 X106.623 Y105.937 F1080.000 E1.10018
G1 X106.623 Y104.877 E1.10915
G1 X106.093 Y103.959 E1.11813
G1 X105.175 Y103.429 E1.12710
G1 X104.116 Y103.429 E1.13607
G1 X103.198 Y103.959 E1.14504
G1 X102.668 Y104.877 E1.15401
G1 X102.668 Y105.937 E1.16298
G1 X103.198 Y106.854 E1.17196
G1 X104.116 Y107.384 E1.18093
G1 X105.175 Y107.384 E1.18990
G1 X106.093 Y106.854 E1.19887
G1 X106.550 Y107.197 F5400.000
G1 X107.190 Y106.089 F1080.000 E1.20971
G1 X107.190 Y104.725 E1.22125
G1 X106.508 Y103.544 E1.23280
G1 X105.327 Y102.862 E1.24434
G1 X103.964 Y102.862 E1.25589
G1 X102.783 Y103.544 E1.26743
G1 X102.101 Y104.725 E1.27898
G1 X102.101 Y106.089 E1.29053
G1 X102.783 Y107.270 E1.30207
G1 X103.964 Y107.951 E1.31362
G1 X105.327 Y107.951 E1.32516
G1 X106.508 Y107.270 E1.33671
G1 X106.966 Y107.612 F5400.000
G1 X107.758 Y106.241 F1080.000 E1.35012
G1 X107.758 Y104.573 E1.36424
G1 X106.924 Y103.128 E1.37836
G1 X105.479 Y102.295 E1.39248
G1 X103.812 Y102.295 E1.40660
G1 X102.367 Y103.128 E1.42072
G1 X101.533 Y104.573 E1.43484
G1 X101.533 Y106.241 E1.44896
G1 X102.367 Y107.685 E1.46308
G1 X103.812 Y108.519 E1.47720
G1 X105.479 Y108.519 E1.49132
G1 X106.924 Y107.685 E1.50544
G1 X107.458 Y107.895 F5400.000
G1 X107.963 Y108.724 F1080.000 E1.51366
G1 X107.134 Y108.219 E1.52187
G1 X105.837 Y108.968 E1.53456
G1 X105.860 Y109.938 E1.54277
G1 X105.394 Y109.086 E1.55099
G1 X103.896 Y109.086 E1.56367
G1 X103.431 Y109.938 E1.57189
G1 X103.454 Y108.968 E1.58011
G1 X102.157 Y108.219 E1.59279
G1 X101.328 Y108.724 E1.60101
G1 X101.833 Y107.895 E1.60922
G1 X101.084 Y106.598 E1.62191
G1 X100.114 Y106.621 E1.63012
G1 X100.966 Y106.156 E1.63834
G1 X100.966 Y104.658 E1.65102
G1 X100.114 Y104.193 E1.65924
G1 X101.084 Y104.216 E1.66746
G1 X101.833 Y102.918 E1.68014
G1 X101.328 Y102.090 E1.68836
G1 X102.157 Y102.595 E1.69657
G1 X103.454 Y101.846 E1.70926
G1 X103.431 Y100.875 E1.71747
G1 X103.896 Y101.727 E1.72569
G1 X105.394 Y101.727 E1.73837
G1 X105.860 Y100.875 E1.74659
G1 X105.837 Y101.846 E1.75481
G1 X107.134 Y102.595 E1.76749
G1 X107.963 Y102.090 E1.77571
G1 X107.458 Y102.918 E1.78392
G1 X108.207 Y104.216 E1.79661
G1 X109.177 Y104.193 E1.80482
G1 X108.325 Y104.658 E1.81304
G1 X108.325 Y106.156 E1.82572
G1 X109.177 Y106.621 E1.83394
G1 X108.207 Y106.598 E1.84216
G1 X107.500 Y107.822 E1.85413
G1 X108.117 Y107.887 F5400.000
G1 X109.300 Y109.828 F1080.000 E1.87336
G1 X109.066 Y110.061 E1.87616
G1 X107.126 Y108.878 E1.89540
G1 X106.412 Y109.291 E1.90238
G1 X106.466 Y111.562 E1.92162
G1 X106.147 Y111.648 E1.92441
G1 X105.058 Y109.654 E1.94365
G1 X104.233 Y109.654 E1.95063
G1 X103.144 Y111.648 E1.96987
G1 X102.825 Y111.562 E1.97266
G1 X102.879 Y109.291 E1.99190
G1 X102.165 Y108.878 E1.99888
G1 X100.225 Y110.061 E2.01812
G1 X99.991 Y109.828 E2.02092
G1 X101.174 Y107.887 E2.04015
G1 X100.761 Y107.173 E2.04714
G1 X98.490 Y107.227 E2.06637
G1 X98.404 Y106.908 E2.06917
G1 X100.399 Y105.819 E2.08841
G1 X100.399 Y104.994 E2.09539
G1 X98.404 Y103.905 E2.11463
G1 X98.490 Y103.586 E2.11742
G1 X100.761 Y103.640 E2.13666
G1 X101.174 Y102.926 E2.14364
G1 X99.991 Y100.986 E2.16288
G1 X100.225 Y100.752 E2.16567
G1 X102.165 Y101.935 E2.18491
G1 X102.879 Y101.523 E2.19189
G1 X102.825 Y99.251 E2.21113
G1 X103.144 Y99.166 E2.21393
G1 X104.233 Y101.160 E2.23316
G1 X105.058 Y101.160 E2.24015
G1 X106.147 Y99.166 E2.25938
G1 X106.466 Y99.251 E2.26218
G1 X106.412 Y101.523 E2.28142
G1 X107.126 Y101.935 E2.28840
G1 X109.066 Y100.752 E2.30764
G1 X109.300 Y100.986 E2.31043
G1 X108.117 Y102.926 E2.32967
G1 X108.530 Y103.640 E2.33665
G1 X110.801 Y103.586 E2.35589
G1 X110.887 Y103.905 E2.35868
G1 X108.892 Y104.994 E2.37792
G1 X108.892 Y105.819 E2.38490
G1 X110.887 Y106.908 E2.40414
G1 X110.801 Y107.227 E2.40694
G1 X108.530 Y107.173 E2.42617
G1 X108.159 Y107.814 E2.43245
M106 S254
G1 Z0.200 F5400.000
G1 X108.756 Y107.880
G1 X111.311 Y112.072 F1800.000 E2.47140
G1 X107.118 Y109.517 E2.51034
G1 X106.969 Y109.604 E2.51172
G1 X107.085 Y114.512 E2.55067
G1 X104.732 Y110.203 E2.58962
G1 X104.559 Y110.203 E2.59099
G1 X102.206 Y114.512 E2.62994
G1 X102.322 Y109.604 E2.66889
G1 X102.172 Y109.517 E2.67026
G1 X97.980 Y112.072 E2.70921
G1 X100.535 Y107.880 E2.74816
G1 X100.449 Y107.730 E2.74953
G1 X95.540 Y107.846 E2.78848
G1 X99.849 Y105.493 E2.82743
G1 X99.849 Y105.320 E2.82881
G1 X95.540 Y102.967 E2.86776
G1 X100.449 Y103.084 E2.90671
G1 X100.535 Y102.934 E2.90808
G1 X97.980 Y98.741 E2.94703
G1 X102.172 Y101.296 E2.98598
G1 X102.322 Y101.210 E2.98735
G1 X102.206 Y96.301 E3.02630
G1 X104.559 Y100.611 E3.06525
G1 X104.732 Y100.611 E3.06662
G1 X107.085 Y96.301 E3.10557
G1 X106.969 Y101.210 E3.14452
G1 X107.118 Y101.296 E3.14589
G1 X111.311 Y98.741 E3.18484
G1 X108.756 Y102.934 E3.22379
G1 X108.842 Y103.084 E3.22517
G1 X113.751 Y102.967 E3.26412
G1 X109.442 Y105.320 E3.30307
G1 X109.442 Y105.493 E3.30444
G1 X113.751 Y107.846 E3.34339
G1 X108.842 Y107.730 E3.38234
G1 X108.798 Y107.807 E3.38304
G1 X101.993 Y115.304 F5400.000
G1 X102.041 Y115.127 F1800.000 E3.38450
G1 X107.298 Y115.304 F5400.000
G1 X107.250 Y115.127 F1800.000 E3.38596
G1 X97.400 Y112.652 F5400.000
G1 X97.400 Y112.652 F1800.000 E3.38596
G1 X111.891 Y112.652 F5400.000
G1 X111.761 Y112.523 F1800.000 E3.38741
G1 X94.748 Y108.059 F5400.000
G1 X94.748 Y108.059 F1800.000 E3.38741
G1 X114.543 Y108.059 F5400.000
G1 X114.366 Y108.011 F1800.000 E3.38887
G1 X94.748 Y102.755 F5400.000
G1 X94.748 Y102.755 F1800.000 E3.38887
G1 X114.543 Y102.755 F5400.000
G1 X114.543 Y102.755 F1800.000 E3.38887
G1 X97.400 Y98.161 F5400.000
G1 X97.400 Y98.161 F1800.000 E3.38887
G1 X111.891 Y98.161 F5400.000
G1 X111.891 Y98.161 F1800.000 E3.38887
G1 X107.298 Y95.509 F5400.000
G1 X107.298 Y95.509 F1800.000 E3.38887
G1 X101.993 Y95.509 F5400.000
G1 X101.993 Y95.509 F1800.000 E3.38887
G1 X102.595 Y98.984 F5400.000
G1 X103.269 Y98.984 F3600.000 E3.39440
G1 X103.574 Y99.543 F5400.000
G1 X102.608 Y99.543 F3600.000 E3.40232
G1 X102.621 Y100.101 F5400.000
G1 X103.879 Y100.101 F3600.000 E3.41264
G1 X104.184 Y100.660 F5400.000
G1 X102.635 Y100.660 F3600.000 E3.42535
G1 X102.648 Y101.218 F5400.000
G1 X106.643 Y101.218 F3600.000 E3.45813
G1 X106.656 Y100.660 F5400.000
G1 X105.107 Y100.660 F3600.000 E3.47084
G1 X105.412 Y100.101 F5400.000
G1 X106.670 Y100.101 F3600.000 E3.48116
G1 X106.683 Y99.543 F5400.000
G1 X105.717 Y99.543 F3600.000 E3.48908
G1 X106.022 Y98.984 F5400.000
G1 X106.696 Y98.984 F3600.000 E3.49461
G1 X108.078 Y101.218 F5400.000
G1 X109.382 Y101.218 F3600.000 E3.50531
G1 X109.042 Y101.777 F5400.000
G1 X107.162 Y101.777 F3600.000 E3.52073
G1 X107.076 Y101.777 F5400.000
G1 X102.215 Y101.777 F3600.000 E3.56061
G1 X102.129 Y101.777 F5400.000
G1 X100.249 Y101.777 F3600.000 E3.57604
G1 X100.590 Y102.335 F5400.000
G1 X108.701 Y102.335 F3600.000 E3.64258
G1 X108.361 Y102.894 F5400.000
G1 X100.930 Y102.894 F3600.000 E3.70355
G1 X100.646 Y103.452 F5400.000
G1 X108.645 Y103.452 F3600.000 E3.76917
G1 X109.895 Y104.569 F5400.000
G1 X99.396 Y104.569 F3600.000 E3.85530
G1 X100.175 Y105.127 F5400.000
G1 X109.116 Y105.127 F3600.000 E3.92866
G1 X109.116 Y105.686 F5400.000
G1 X100.175 Y105.686 F3600.000 E4.00201
G1 X99.396 Y106.244 F5400.000
G1 X109.895 Y106.244 F3600.000 E4.08815
G1 X110.918 Y106.803 F5400.000
G1 X98.373 Y106.803 F3600.000 E4.19106
G1 X100.646 Y107.361 F5400.000
G1 X108.645 Y107.361 F3600.000 E4.25668
G1 X108.361 Y107.920 F5400.000
G1 X100.930 Y107.920 F3600.000 E4.31764
G1 X100.590 Y108.478 F5400.000
G1 X108.701 Y108.478 F3600.000 E4.38419
G1 X109.042 Y109.037 F5400.000
G1 X107.162 Y109.037 F3600.000 E4.39961
G1 X107.076 Y109.037 F5400.000
G1 X102.215 Y109.037 F3600.000 E4.43949
G1 X102.129 Y109.037 F5400.000
G1 X100.249 Y109.037 F3600.000 E4.45491
G1 X99.909 Y109.595 F5400.000
G1 X101.213 Y109.595 F3600.000 E4.46561
G1 X100.297 Y110.154 F5400.000
G1 X99.568 Y110.154 F3600.000 E4.47159
G1 X102.635 Y110.154 F5400.000
G1 X104.184 Y110.154 F3600.000 E4.48430
G1 X103.879 Y110.712 F5400.000
G1 X102.621 Y110.712 F3600.000 E4.49462
G1 X102.608 Y111.271 F5400.000
G1 X103.574 Y111.271 F3600.000 E4.50254
G1 X103.269 Y111.829 F5400.000
G1 X102.595 Y111.829 F3600.000 E4.50807
G1 X102.648 Y109.595 F5400.000
G1 X106.643 Y109.595 F3600.000 E4.54085
G1 X106.656 Y110.154 F5400.000
G1 X105.107 Y110.154 F3600.000 E4.55356
G1 X105.412 Y110.712 F5400.000
G1 X106.670 Y110.712 F3600.000 E4.56388
G1 X106.683 Y111.271 F5400.000
G1 X105.717 Y111.271 F3600.000 E4.57180
G1 X106.022 Y111.829 F5400.000
G1 X106.696 Y111.829 F3600.000 E4.57733
G1 X108.078 Y109.595 F5400.000
G1 X109.382 Y109.595 F3600.000 E4.58803
G1 X109.722 Y110.154 F5400.000
G1 X108.994 Y110.154 F3600.000 E4.59400
G1 X110.918 Y104.011 F5400.000
G1 X98.373 Y104.011 F3600.000 E4.69692
G1 X99.909 Y101.218 F5400.000
G1 X101.213 Y101.218 F3600.000 E4.70761
G1 X100.297 Y100.660 F5400.000
G1 X99.568 Y100.660 F3600.000 E4.71359
G1 X108.994 Y100.660 F5400.000
G1 X109.722 Y100.660 F3600.000 E4.71956
M106 S254
G1 Z0.300 F5400.000
G1 X108.875 Y102.738
G1 X109.071 Y103.078 F1800.000 E4.72268
G1 X113.751 Y102.967 E4.75981
G1 X109.643 Y105.210 E4.79694
G1 X109.643 Y105.603 E4.80005
G1 X113.751 Y107.846 E4.83719
G1 X109.071 Y107.735 E4.87432
G1 X108.875 Y108.075 E4.87743
G1 X111.311 Y112.072 E4.91457
G1 X107.314 Y109.636 E4.95170
G1 X106.974 Y109.833 E4.95481
G1 X107.085 Y114.512 E4.99195
G1 X104.842 Y110.404 E5.02908
G1 X104.449 Y110.404 E5.03219
G1 X102.206 Y114.512 E5.06932
G1 X102.317 Y109.833 E5.10646
G1 X101.977 Y109.636 E5.10957
G1 X97.980 Y112.072 E5.14670
G1 X100.416 Y108.075 E5.18384
G1 X100.220 Y107.735 E5.18695
G1 X95.540 Y107.846 E5.22408
G1 X99.648 Y105.603 E5.26122
G1 X99.648 Y105.210 E5.26433
G1 X95.540 Y102.967 E5.30146
G1 X100.220 Y103.078 E5.33859
G1 X100.416 Y102.738 E5.34171
G1 X97.980 Y98.741 E5.37884
G1 X101.977 Y101.177 E5.41597
G1 X102.317 Y100.981 E5.41909
G1 X102.206 Y96.301 E5.45622
G1 X104.449 Y100.409 E5.49335
G1 X104.842 Y100.409 E5.49647
G1 X107.085 Y96.301 E5.53360
G1 X106.974 Y100.981 E5.57073
G1 X107.314 Y101.177 E5.57385
G1 X111.311 Y98.741 E5.61098
G1 X108.919 Y102.666 E5.64745
G1 X102.007 Y115.273 F5400.000
G1 X102.048 Y115.121 F1800.000 E5.64869
G1 X107.289 Y115.273 F5400.000
G1 X107.249 Y115.122 F1800.000 E5.64993
G1 X97.427 Y112.632 F5400.000
G1 X97.539 Y112.521 F1800.000 E5.65118
G1 X111.868 Y112.629 F5400.000
G1 X111.758 Y112.519 F1800.000 E5.65242
G1 X94.782 Y108.055 F5400.000
G1 X94.934 Y108.014 F1800.000 E5.65366
G1 X114.512 Y108.050 F5400.000
G1 X114.361 Y108.010 F1800.000 E5.65490
G1 X114.512 Y102.763 F5400.000
G1 X114.727 Y102.705 F1800.000 E5.65667
G1 X94.779 Y102.768 F5400.000
G1 X94.774 Y102.772 F1800.000 E5.65672
G1 X97.420 Y98.188 F5400.000
G1 X97.414 Y98.189 F1800.000 E5.65677
G1 X111.868 Y98.184 F5400.000
G1 X112.026 Y98.026 F1800.000 E5.65854
G1 X107.289 Y95.540 F5400.000
G1 X107.347 Y95.325 F1800.000 E5.66031
G1 X101.997 Y95.543 F5400.000
G1 X101.992 Y95.541 F1800.000 E5.66036
G1 X103.249 Y99.134 F5400.000
G1 X103.249 Y111.679 F3600.000 E5.76327
G1 X103.808 Y110.656 F5400.000
G1 X103.808 Y100.157 F3600.000 E5.84941
G1 X104.366 Y100.735 F5400.000
G1 X104.366 Y110.079 F3600.000 E5.92606
G1 X104.925 Y110.079 F5400.000
G1 X104.925 Y100.735 F3600.000 E6.00272
G1 X105.483 Y100.157 F5400.000
G1 X105.483 Y110.656 F3600.000 E6.08885
G1 X106.042 Y111.679 F5400.000
G1 X106.042 Y99.134 F3600.000 E6.19177
G1 X106.600 Y101.175 F5400.000
G1 X106.600 Y109.638 F3600.000 E6.26120
G1 X107.159 Y109.316 F5400.000
G1 X107.159 Y101.498 F3600.000 E6.32534
G1 X107.717 Y101.351 F5400.000
G1 X107.717 Y109.463 F3600.000 E6.39189
G1 X108.275 Y109.803 F5400.000
G1 X108.275 Y107.923 F3600.000 E6.40731
G1 X108.275 Y108.239 F5400.000
G1 X108.275 Y102.574 F3600.000 E6.45378
G1 X108.275 Y102.890 F5400.000
G1 X108.275 Y101.010 F3600.000 E6.46921
G1 X108.834 Y100.670 F5400.000
G1 X108.834 Y101.974 F3600.000 E6.47991
G1 X109.392 Y101.058 F5400.000
G1 X109.392 Y100.330 F3600.000 E6.48588
G1 X109.392 Y103.396 F5400.000
G1 X109.392 Y104.945 F3600.000 E6.49859
G1 X109.951 Y104.640 F5400.000
G1 X109.951 Y103.383 F3600.000 E6.50891
G1 X110.509 Y103.369 F5400.000
G1 X110.509 Y104.335 F3600.000 E6.51683
G1 X111.068 Y104.030 F5400.000
G1 X111.068 Y103.356 F3600.000 E6.52236
G1 X108.834 Y103.409 F5400.000
G1 X108.834 Y107.404 F3600.000 E6.55514
