; generated by Slic3r 0.7.2b on 2012-06-05 at 19:24:02

; layer_height = 0.1
; perimeters = 1
; solid_layers = 6
; fill_density = .1
; nozzle_diameter = 0.4
; filament_diameter = 2.94
; extrusion_multiplier = 1
; perimeter_speed = 15
; infill_speed = 30
; travel_speed = 90
; extrusion_width_ratio = 0
; scale = 1
; single wall width = 0.56mm

M104 S185 ; set temperature
M92 X78.7402 Y78.7402 E926 ;Set the right speed
G28 ;home all axes
M106 ;turn fan on
M109 S185 ; wait for temperature to be reached
G90 ; use absolute coordinates
G21 ; set units to millimeters
G92 E0 ; reset extrusion distance
M82 ; use absolute distances for extrusion
M106 S254
G1 Z0.100 F5400.000
G1 X87.720 Y80.344
G1
G1 X88.547 Y78.438 F270.000 E0.01647
G1 X89.424 Y76.864 E0.03078
G1 X91.401 Y77.884 E0.04842
G1 X90.894 Y79.370 E0.06088
G1 X90.483 Y81.131 E0.07523
G1 X90.254 Y82.908 E0.08944
G1 X90.206 Y84.682 E0.10352
G1 X90.336 Y86.434 E0.11746
G1 X90.639 Y88.148 E0.13126
G1 X91.109 Y89.805 E0.14493
G1 X91.736 Y91.391 E0.15845
G1 X92.513 Y92.890 E0.17185
G1 X93.428 Y94.288 E0.18510
G1 X94.468 Y95.573 E0.19822
G1 X95.621 Y96.735 E0.21120
G1 X96.872 Y97.763 E0.22405
G1 X98.206 Y98.650 E0.23675
G1 X99.297 Y99.226 E0.24654
G1 X99.681 Y99.384 E0.24983
G1 X99.735 Y98.235 E0.25896
G1 X99.736 Y98.233 E0.25898
G1 X99.779 Y97.341 E0.26607
G1 X100.119 Y95.063 E0.28433
G1 X100.681 Y92.849 E0.30245
G1 X101.456 Y90.719 E0.32044
G1 X102.435 Y88.693 E0.33828
G1 X103.602 Y86.790 E0.35599
G1 X104.944 Y85.028 E0.37357
G1 X106.445 Y83.422 E0.39100
G1 X108.086 Y81.987 E0.40830
G1 X109.849 Y80.734 E0.42546
G1 X111.714 Y79.672 E0.44248
G1 X113.661 Y78.811 E0.45937
G1 X115.668 Y78.155 E0.47612
G1 X117.713 Y77.707 E0.49273
G1 X119.776 Y77.470 E0.50920
G1 X121.579 Y77.443 E0.52350
G1 X121.684 Y79.665 E0.54115
G1 X120.143 Y79.969 E0.55361
G1 X118.412 Y80.494 E0.56796
G1 X116.759 Y81.184 E0.58217
G1 X115.199 Y82.029 E0.59625
G1 X113.746 Y83.018 E0.61019
G1 X112.414 Y84.137 E0.62399
G1 X111.213 Y85.372 E0.63765
G1 X110.154 Y86.709 E0.65118
G1 X109.245 Y88.131 E0.66458
G1 X108.491 Y89.622 E0.67783
G1 X107.898 Y91.166 E0.69095
G1 X107.468 Y92.745 E0.70393
G1 X107.203 Y94.342 E0.71678
G1 X107.102 Y95.941 E0.72948
G1 X107.149 Y97.174 E0.73927
G1 X107.204 Y97.585 E0.74256
G1 X108.226 Y97.058 E0.75169
G1 X108.228 Y97.058 E0.75171
G1 X109.023 Y96.649 E0.75880
G1 X111.165 Y95.804 E0.77706
G1 X113.363 Y95.184 E0.79518
G1 X115.596 Y94.791 E0.81317
G1 X117.839 Y94.625 E0.83101
G1 X120.071 Y94.685 E0.84872
G1 X122.268 Y94.966 E0.86629
G1 X124.409 Y95.463 E0.88373
G1 X126.473 Y96.166 E0.90103
G1 X128.440 Y97.066 E0.91819
G1 X130.292 Y98.151 E0.93521
G1 X132.011 Y99.406 E0.95210
G1 X133.583 Y100.816 E0.96885
G1 X134.993 Y102.364 E0.98546
G1 X136.230 Y104.032 E1.00193
G1 X137.154 Y105.579 E1.01623
G1 X135.282 Y106.781 E1.03388
G1 X134.249 Y105.599 E1.04634
G1 X132.929 Y104.362 E1.06069
G1 X131.505 Y103.276 E1.07490
G1 X129.993 Y102.347 E1.08898
G1 X128.410 Y101.583 E1.10291
G1 X126.775 Y100.989 E1.11672
G1 X125.105 Y100.567 E1.13038
G1 X123.418 Y100.318 E1.14391
G1 X121.731 Y100.241 E1.15730
G1 X120.063 Y100.334 E1.17056
G1 X118.430 Y100.593 E1.18368
G1 X116.847 Y101.010 E1.19666
G1 X115.331 Y101.579 E1.20950
G1 X113.897 Y102.291 E1.22221
G1 X112.852 Y102.948 E1.23200
G1 X112.523 Y103.201 E1.23529
G1 X113.491 Y103.823 E1.24442
G1 X113.492 Y103.825 E1.24444
G1 X114.244 Y104.308 E1.25153
G1 X116.046 Y105.741 E1.26979
G1 X117.682 Y107.335 E1.28791
G1 X119.139 Y109.072 E1.30589
G1 X120.405 Y110.932 E1.32374
G1 X121.469 Y112.894 E1.34145
G1 X122.324 Y114.938 E1.35902
G1 X122.964 Y117.040 E1.37646
G1 X123.387 Y119.179 E1.39376
G1 X123.591 Y121.333 E1.41092
G1 X123.577 Y123.479 E1.42794
G1 X123.350 Y125.595 E1.44483
G1 X122.915 Y127.661 E1.46158
G1 X122.280 Y129.656 E1.47819
G1 X121.453 Y131.562 E1.49466
G1 X120.576 Y133.136 E1.50896
G1 X118.599 Y132.116 E1.52661
G1 X119.106 Y130.630 E1.53907
G1 X119.517 Y128.869 E1.55341
G1 X119.746 Y127.092 E1.56763
G1 X119.794 Y125.318 E1.58170
G1 X119.664 Y123.566 E1.59564
G1 X119.361 Y121.852 E1.60945
G1 X118.891 Y120.195 E1.62311
G1 X118.263 Y118.609 E1.63664
G1 X117.487 Y117.110 E1.65003
G1 X116.572 Y115.712 E1.66329
G1 X115.532 Y114.427 E1.67641
G1 X114.379 Y113.265 E1.68939
G1 X113.128 Y112.237 E1.70223
G1 X111.794 Y111.350 E1.71494
G1 X110.703 Y110.774 E1.72473
G1 X110.319 Y110.616 E1.72802
G1 X110.265 Y111.765 E1.73715
G1 X110.264 Y111.767 E1.73716
G1 X110.221 Y112.659 E1.74425
G1 X109.881 Y114.937 E1.76252
G1 X109.319 Y117.151 E1.78064
G1 X108.544 Y119.281 E1.79862
G1 X107.565 Y121.307 E1.81647
G1 X106.398 Y123.210 E1.83418
G1 X105.056 Y124.972 E1.85175
G1 X103.555 Y126.578 E1.86919
G1 X101.914 Y128.013 E1.88649
G1 X100.151 Y129.266 E1.90365
G1 X98.286 Y130.328 E1.92067
G1 X96.339 Y131.189 E1.93756
G1 X94.332 Y131.845 E1.95430
G1 X92.287 Y132.293 E1.97092
G1 X90.224 Y132.530 E1.98739
G1 X88.421 Y132.557 E2.00169
G1 X88.316 Y130.335 E2.01934
G1 X89.857 Y130.031 E2.03180
G1 X91.588 Y129.506 E2.04614
G1 X93.241 Y128.816 E2.06036
G1 X94.801 Y127.971 E2.07443
G1 X96.254 Y126.982 E2.08837
G1 X97.586 Y125.863 E2.10217
G1 X98.787 Y124.628 E2.11584
G1 X99.846 Y123.291 E2.12937
G1 X100.755 Y121.869 E2.14276
G1 X101.509 Y120.378 E2.15602
G1 X102.102 Y118.834 E2.16913
G1 X102.532 Y117.255 E2.18212
G1 X102.797 Y115.658 E2.19496
G1 X102.898 Y114.059 E2.20767
G1 X102.851 Y112.826 E2.21746
G1 X102.796 Y112.415 E2.22075
G1 X101.774 Y112.942 E2.22988
G1 X101.772 Y112.942 E2.22989
G1 X100.977 Y113.351 E2.23698
G1 X98.835 Y114.196 E2.25525
G1 X96.637 Y114.816 E2.27337
G1 X94.404 Y115.209 E2.29135
G1 X92.161 Y115.375 E2.30920
G1 X89.929 Y115.315 E2.32691
G1 X87.732 Y115.034 E2.34448
G1 X85.591 Y114.537 E2.36192
G1 X83.527 Y113.834 E2.37921
G1 X81.560 Y112.934 E2.39637
G1 X79.708 Y111.849 E2.41340
G1 X77.989 Y110.594 E2.43028
G1 X76.417 Y109.184 E2.44703
G1 X75.007 Y107.636 E2.46364
G1 X73.770 Y105.968 E2.48012
G1 X72.846 Y104.421 E2.49442
G1 X74.718 Y103.219 E2.51207
G1 X75.751 Y104.401 E2.52452
G1 X77.071 Y105.638 E2.53887
G1 X78.495 Y106.724 E2.55308
G1 X80.007 Y107.653 E2.56716
G1 X81.590 Y108.417 E2.58110
G1 X83.225 Y109.011 E2.59490
G1 X84.895 Y109.433 E2.60857
G1 X86.582 Y109.682 E2.62210
G1 X88.269 Y109.759 E2.63549
G1 X89.937 Y109.666 E2.64874
G1 X91.570 Y109.407 E2.66186
G1 X93.153 Y108.990 E2.67484
G1 X94.669 Y108.421 E2.68769
G1 X96.103 Y107.709 E2.70039
G1 X97.148 Y107.052 E2.71019
G1 X97.477 Y106.799 E2.71348
G1 X96.509 Y106.177 E2.72260
G1 X96.508 Y106.175 E2.72262
G1 X95.756 Y105.692 E2.72971
G1 X93.954 Y104.259 E2.74798
G1 X92.318 Y102.665 E2.76610
G1 X90.861 Y100.928 E2.78408
G1 X89.595 Y99.068 E2.80193
G1 X88.531 Y97.106 E2.81964
G1 X87.676 Y95.062 E2.83721
G1 X87.036 Y92.960 E2.85464
G1 X86.613 Y90.821 E2.87194
G1 X86.409 Y88.667 E2.88910
G1 X86.423 Y86.521 E2.90613
G1 X86.650 Y84.405 E2.92301
G1 X87.085 Y82.339 E2.93976
G1 X87.695 Y80.424 E2.95571
G1 X104.990 Y103.685 F5400.000
G1 X103.860 Y104.268 F540.000 E2.96585
G1 X103.796 Y105.621 E2.97668
G1 X104.936 Y106.353 E2.98750
G1 X106.140 Y105.732 E2.99832
G1 X106.204 Y104.379 E3.00914
G1 X105.064 Y103.647 E3.01996
G1 X105.034 Y104.282 F5400.000
G1 X105.639 Y104.671 F540.000 E3.02570
G1 X105.605 Y105.388 E3.03143
G1 X104.966 Y105.718 E3.03717
G1 X104.361 Y105.329 E3.04291
G1 X104.395 Y104.611 E3.04865
G1 X104.959 Y104.321 E3.05372
G1 X105.004 Y104.918 F5400.000
G1 X105.073 Y104.962 F540.000 E3.05438
G1 X105.069 Y105.045 E3.05503
G1 X104.996 Y105.082 E3.05569
G1 X104.927 Y105.038 E3.05635
G1 X104.931 Y104.957 E3.05699
G1 X105.833 Y103.486 F5400.000
G1 X110.564 Y106.525 F540.000 E3.10190
G1 X110.564 Y106.526 E3.10191
G1 X110.650 Y106.582 E3.10272
G1 X106.728 Y104.965 E3.13660
G1 X106.461 Y110.581 E3.18150
G1 X106.460 Y110.582 E3.18151
G1 X106.455 Y110.686 E3.18234
G1 X105.894 Y106.479 E3.21623
G1 X100.897 Y109.056 E3.26113
G1 X100.895 Y109.056 E3.26114
G1 X100.805 Y109.102 E3.26195
G1 X104.167 Y106.514 E3.29583
G1 X99.513 Y103.524 E3.34000
G1 X99.512 Y103.523 E3.34002
G1 X99.350 Y103.418 E3.34156
G1 X103.272 Y105.035 E3.37544
G1 X103.539 Y99.419 E3.42034
G1 X103.540 Y99.418 E3.42035
G1 X103.545 Y99.314 E3.42118
G1 X104.106 Y103.521 E3.45506
G1 X109.103 Y100.944 E3.49996
G1 X109.105 Y100.944 E3.49997
G1 X109.195 Y100.898 E3.50078
G1 X105.900 Y103.434 E3.53399
G1 X106.789 Y103.445 F5400.000
G1 X110.982 Y106.139 F540.000 E3.57378
G1 X110.983 Y106.140 E3.57380
G1 X112.317 Y106.998 E3.58647
G1 X113.859 Y108.224 E3.60220
G1 X115.258 Y109.586 E3.61778
G1 X115.592 Y109.985 E3.62194
G1 X115.097 Y109.578 E3.62705
G1 X113.485 Y108.506 E3.64252
G1 X112.107 Y107.778 E3.65496
G1 X107.241 Y105.772 E3.69699
G1 X107.005 Y110.750 E3.73678
G1 X107.004 Y110.751 E3.73679
G1 X106.928 Y112.336 E3.74946
G1 X106.637 Y114.285 E3.76520
G1 X106.157 Y116.176 E3.78078
G1 X105.979 Y116.665 E3.78494
G1 X106.084 Y116.033 E3.79005
G1 X106.206 Y114.101 E3.80551
G1 X106.147 Y112.544 E3.81796
G1 X105.451 Y107.328 E3.85998
G1 X101.022 Y109.611 E3.89977
G1 X101.021 Y109.611 E3.89979
G1 X99.611 Y110.338 E3.91245
G1 X97.778 Y111.060 E3.92818
G1 X95.900 Y111.590 E3.94377
G1 X95.387 Y111.681 E3.94793
G1 X95.987 Y111.455 E3.95304
G1 X97.721 Y110.595 E3.96850
G1 X99.040 Y109.766 E3.98094
G1 X103.211 Y106.555 E4.02297
G1 X99.082 Y103.902 E4.06217
G1 X99.081 Y103.901 E4.06218
G1 X97.683 Y103.002 E4.07545
G1 X96.141 Y101.776 E4.09118
G1 X94.742 Y100.414 E4.10677
G1 X94.408 Y100.015 E4.11093
G1 X94.903 Y100.422 E4.11604
G1 X96.515 Y101.494 E4.13150
G1 X97.893 Y102.222 E4.14394
G1 X102.759 Y104.228 E4.18597
G1 X102.995 Y99.250 E4.22577
G1 X102.996 Y99.248 E4.22578
G1 X103.072 Y97.664 E4.23845
G1 X103.363 Y95.715 E4.25418
G1 X103.843 Y93.824 E4.26977
G1 X104.021 Y93.335 E4.27392
G1 X103.916 Y93.967 E4.27904
G1 X103.794 Y95.899 E4.29450
G1 X103.853 Y97.456 E4.30694
G1 X104.549 Y102.672 E4.34897
G1 X108.978 Y100.389 E4.38876
G1 X108.979 Y100.389 E4.38877
G1 X110.389 Y99.662 E4.40144
G1 X112.222 Y98.940 E4.41717
G1 X114.100 Y98.410 E4.43275
G1 X114.613 Y98.319 E4.43691
G1 X114.013 Y98.545 E4.44203
G1 X112.279 Y99.405 E4.45749
G1 X110.960 Y100.234 E4.46993
G1 X106.856 Y103.394 E4.51129
G1 X107.745 Y103.404 F5400.000
G1 X111.400 Y105.753 F540.000 E4.54598
G1 X111.401 Y105.754 E4.54599
G1 X112.638 Y106.550 E4.55774
G1 X114.224 Y107.810 E4.57391
G1 X115.662 Y109.211 E4.58994
G1 X116.941 Y110.735 E4.60583
G1 X118.050 Y112.366 E4.62158
G1 X118.982 Y114.085 E4.63720
G1 X119.310 Y114.868 E4.64398
G1 X118.800 Y114.088 E4.65142
G1 X117.584 Y112.586 E4.66685
G1 X116.235 Y111.227 E4.68214
G1 X114.769 Y110.021 E4.69730
G1 X113.203 Y108.980 E4.71231
G1 X111.873 Y108.278 E4.72432
G1 X107.755 Y106.580 E4.75990
G1 X107.548 Y110.919 E4.79459
G1 X107.547 Y110.921 E4.79460
G1 X107.477 Y112.390 E4.80635
G1 X107.178 Y114.393 E4.82252
G1 X106.684 Y116.339 E4.83855
G1 X106.004 Y118.209 E4.85444
G1 X105.146 Y119.985 E4.87019
G1 X104.124 Y121.651 E4.88581
G1 X103.609 Y122.327 E4.89258
G1 X104.029 Y121.495 E4.90002
G1 X104.722 Y119.691 E4.91546
G1 X105.225 Y117.843 E4.93075
G1 X105.536 Y115.971 E4.94591
G1 X105.655 Y114.094 E4.96092
G1 X105.598 Y112.591 E4.97294
G1 X105.008 Y108.176 E5.00850
G1 X101.148 Y110.167 E5.04319
G1 X101.146 Y110.167 E5.04320
G1 X99.839 Y110.840 E5.05495
G1 X97.954 Y111.583 E5.07112
G1 X96.023 Y112.128 E5.08715
G1 X94.063 Y112.473 E5.10304
G1 X92.096 Y112.619 E5.11879
G1 X90.141 Y112.567 E5.13441
G1 X89.299 Y112.459 E5.14118
G1 X90.229 Y112.407 E5.14862
G1 X92.138 Y112.105 E5.16405
G1 X93.990 Y111.617 E5.17935
G1 X95.767 Y110.949 E5.19451
G1 X97.451 Y110.114 E5.20952
G1 X98.725 Y109.313 E5.22153
G1 X102.255 Y106.596 E5.25711
G1 X98.651 Y104.280 E5.29131
G1 X98.650 Y104.279 E5.29133
G1 X97.362 Y103.450 E5.30356
G1 X95.776 Y102.190 E5.31973
G1 X94.338 Y100.789 E5.33576
G1 X93.059 Y99.265 E5.35165
G1 X91.950 Y97.634 E5.36740
G1 X91.018 Y95.915 E5.38302
G1 X90.690 Y95.132 E5.38979
G1 X91.200 Y95.912 E5.39723
G1 X92.416 Y97.414 E5.41267
G1 X93.765 Y98.773 E5.42796
G1 X95.231 Y99.979 E5.44312
G1 X96.797 Y101.020 E5.45813
G1 X98.127 Y101.722 E5.47014
G1 X102.245 Y103.420 E5.50572
G1 X102.452 Y99.081 E5.54041
G1 X102.453 Y99.079 E5.54042
G1 X102.523 Y97.610 E5.55217
G1 X102.822 Y95.607 E5.56834
G1 X103.316 Y93.661 E5.58437
G1 X103.996 Y91.791 E5.60026
G1 X104.854 Y90.015 E5.61601
G1 X105.876 Y88.349 E5.63162
G1 X106.391 Y87.673 E5.63840
G1 X105.971 Y88.505 E5.64584
G1 X105.278 Y90.309 E5.66127
G1 X104.775 Y92.157 E5.67657
G1 X104.464 Y94.029 E5.69172
G1 X104.345 Y95.906 E5.70674
G1 X104.402 Y97.409 E5.71875
G1 X104.992 Y101.824 E5.75432
G1 X108.852 Y99.833 E5.78901
G1 X108.854 Y99.833 E5.78902
G1 X110.161 Y99.160 E5.80077
G1 X112.046 Y98.417 E5.81694
G1 X113.977 Y97.872 E5.83297
G1 X115.937 Y97.527 E5.84886
G1 X117.904 Y97.381 E5.86461
G1 X119.859 Y97.433 E5.88022
G1 X120.701 Y97.541 E5.88700
G1 X119.771 Y97.593 E5.89444
G1 X117.862 Y97.895 E5.90987
G1 X116.010 Y98.383 E5.92517
G1 X114.233 Y99.051 E5.94032
G1 X112.549 Y99.886 E5.95534
G1 X111.275 Y100.687 E5.96735
G1 X107.812 Y103.353 E6.00225
G1 X108.702 Y103.364 F5400.000
G1 X111.819 Y105.366 F540.000 E6.03184
G1 X111.820 Y105.368 E6.03185
G1 X112.960 Y106.101 E6.04268
G1 X114.589 Y107.396 E6.05930
G1 X116.066 Y108.835 E6.07577
G1 X117.381 Y110.402 E6.09210
G1 X118.522 Y112.079 E6.10829
G1 X119.480 Y113.846 E6.12435
G1 X120.249 Y115.685 E6.14027
G1 X120.825 Y117.576 E6.15605
G1 X121.205 Y119.497 E6.17169
G1 X121.316 Y120.672 E6.18112
G1 X120.980 Y119.487 E6.19095
G1 X120.270 Y117.695 E6.20635
G1 X119.391 Y115.998 E6.22161
G1 X118.354 Y114.413 E6.23673
G1 X117.173 Y112.954 E6.25172
G1 X115.864 Y111.635 E6.26657
G1 X114.440 Y110.465 E6.28128
G1 X112.921 Y109.454 E6.29585
G1 X111.639 Y108.777 E6.30743
G1 X108.268 Y107.388 E6.33654
G1 X108.092 Y111.088 E6.36613
G1 X108.091 Y111.090 E6.36614
G1 X108.026 Y112.444 E6.37697
G1 X107.719 Y114.502 E6.39359
G1 X107.212 Y116.501 E6.41006
G1 X106.512 Y118.423 E6.42639
G1 X105.630 Y120.249 E6.44259
G1 X104.579 Y121.963 E6.45864
G1 X103.371 Y123.549 E6.47456
G1 X102.022 Y124.993 E6.49034
G1 X100.547 Y126.282 E6.50598
G1 X99.585 Y126.966 E6.51541
G1 X100.444 Y126.083 E6.52524
G1 X101.641 Y124.572 E6.54064
G1 X102.671 Y122.962 E6.55590
G1 X103.525 Y121.271 E6.57102
G1 X104.198 Y119.520 E6.58601
G1 X104.686 Y117.725 E6.60086
G1 X104.988 Y115.908 E6.61557
G1 X105.103 Y114.087 E6.63014
G1 X105.048 Y112.638 E6.64172
G1 X104.566 Y109.024 E6.67083
G1 X101.273 Y110.722 E6.70042
G1 X101.271 Y110.722 E6.70043
G1 X100.067 Y111.343 E6.71125
G1 X98.131 Y112.106 E6.72787
G1 X96.146 Y112.666 E6.74434
G1 X94.131 Y113.021 E6.76068
G1 X92.109 Y113.171 E6.77687
G1 X90.099 Y113.117 E6.79293
G1 X88.121 Y112.864 E6.80884
G1 X86.197 Y112.417 E6.82462
G1 X84.343 Y111.785 E6.84027
G1 X83.269 Y111.294 E6.84969
G1 X84.463 Y111.596 E6.85953
G1 X86.371 Y111.877 E6.87492
G1 X88.280 Y111.964 E6.89019
G1 X90.171 Y111.858 E6.90531
G1 X92.025 Y111.565 E6.92029
G1 X93.822 Y111.091 E6.93514
G1 X95.547 Y110.443 E6.94985
G1 X97.182 Y109.633 E6.96442
G1 X98.409 Y108.861 E6.97600
G1 X101.298 Y106.636 E7.00512
G1 X98.219 Y104.658 E7.03435
G1 X98.219 Y104.657 E7.03436
G1 X97.040 Y103.899 E7.04555
G1 X95.411 Y102.604 E7.06216
G1 X93.934 Y101.165 E7.07863
G1 X92.619 Y99.598 E7.09497
G1 X91.478 Y97.921 E7.11116
G1 X90.520 Y96.154 E7.12722
G1 X89.751 Y94.315 E7.14314
G1 X89.175 Y92.424 E7.15892
G1 X88.795 Y90.503 E7.17456
G1 X88.684 Y89.328 E7.18398
G1 X89.020 Y90.513 E7.19382
G1 X89.730 Y92.305 E7.20922
G1 X90.609 Y94.002 E7.22448
G1 X91.646 Y95.587 E7.23960
G1 X92.827 Y97.046 E7.25459
G1 X94.136 Y98.365 E7.26944
G1 X95.560 Y99.535 E7.28415
G1 X97.079 Y100.546 E7.29872
G1 X98.361 Y101.223 E7.31030
G1 X101.732 Y102.612 E7.33941
G1 X101.908 Y98.911 E7.36900
G1 X101.909 Y98.910 E7.36902
G1 X101.974 Y97.556 E7.37984
G1 X102.281 Y95.498 E7.39645
G1 X102.788 Y93.499 E7.41293
G1 X103.488 Y91.577 E7.42926
G1 X104.370 Y89.751 E7.44545
G1 X105.421 Y88.037 E7.46151
G1 X106.629 Y86.451 E7.47743
G1 X107.978 Y85.007 E7.49321
G1 X109.453 Y83.718 E7.50885
G1 X110.415 Y83.034 E7.51828
G1 X109.556 Y83.917 E7.52811
G1 X108.359 Y85.428 E7.54351
G1 X107.329 Y87.038 E7.55877
G1 X106.475 Y88.729 E7.57389
