; generated by Slic3r 0.7.2b on 2012-06-05 at 14:53:23

; layer_height = 0.1
; perimeters = 1
; solid_layers = 3
; fill_density = .05
; nozzle_diameter = 0.4
; filament_diameter = 2.94
; extrusion_multiplier = 1
; perimeter_speed = 30
; infill_speed = 60
; travel_speed = 90
; extrusion_width_ratio = 0
; scale = 1
; single wall width = 0.56mm

M104 S195 ; set temperature
M92 X78.7402 Y78.7402 E926 ;Set the right speed
G28 ;home all axes
M106 ;turn fan on
M109 S195 ; wait for temperature to be reached
G90 ; use absolute coordinates
G21 ; set units to millimeters
G92 E0 ; reset extrusion distance
M82 ; use absolute distances for extrusion
M106 S255
G1 Z0.100 F5400.000
M106 S254
G1 Z0.200
G1 X104.733 Y105.080
G1
G1 X105.100 Y105.040 F1800.000 E0.00293
G1 X105.474 Y105.081 E0.00592
G1 X105.694 Y105.381 E0.00887
G1 X105.844 Y105.722 E0.01182
G1 X105.694 Y106.063 E0.01478
G1 X105.473 Y106.364 E0.01773
G1 X105.103 Y106.404 E0.02069
G1 X104.733 Y106.364 E0.02365
G1 X104.512 Y106.063 E0.02660
G1 X104.362 Y105.723 E0.02955
G1 X104.512 Y105.381 E0.03251
G1 X104.683 Y105.148 E0.03481
M106 S254
G1 Z0.300 F5400.000
G1 X87.923 Y114.859
G1 X86.470 Y111.744 F1800.000 E0.06208
G1 X85.581 Y108.424 E0.08934
G1 X85.281 Y105.000 E0.11661
G1 X85.581 Y101.576 E0.14388
G1 X86.470 Y98.256 E0.17114
G1 X87.923 Y95.141 E0.19841
G1 X89.894 Y92.325 E0.22568
G1 X92.325 Y89.894 E0.25295
G1 X95.141 Y87.923 E0.28021
G1 X98.256 Y86.470 E0.30748
G1 X101.576 Y85.581 E0.33475
G1 X105.000 Y85.281 E0.36202
G1 X108.424 Y85.581 E0.38928
G1 X111.744 Y86.470 E0.41655
G1 X114.859 Y87.923 E0.44382
G1 X117.675 Y89.894 E0.47109
G1 X120.106 Y92.325 E0.49835
G1 X122.077 Y95.141 E0.52562
G1 X123.530 Y98.256 E0.55289
G1 X124.419 Y101.576 E0.58015
G1 X124.719 Y105.000 E0.60742
G1 X124.419 Y108.424 E0.63469
G1 X123.530 Y111.744 E0.66196
G1 X122.077 Y114.859 E0.68922
G1 X120.106 Y117.675 E0.71649
G1 X117.675 Y120.106 E0.74376
G1 X114.859 Y122.077 E0.77103
G1 X111.744 Y123.530 E0.79829
G1 X108.424 Y124.419 E0.82556
G1 X105.000 Y124.719 E0.85283
G1 X101.576 Y124.419 E0.88009
G1 X98.256 Y123.530 E0.90736
G1 X95.141 Y122.077 E0.93463
G1 X92.325 Y120.106 E0.96190
G1 X89.894 Y117.675 E0.98916
G1 X87.971 Y114.928 E1.01577
G1 X88.394 Y114.917 F5400.000
M106 S255
G1 X123.351 Y111.094 F3600.000 E1.67534
G1 X123.240 Y111.511 F5400.000
M106 S254
M106 S255
G1 X88.657 Y115.293 F3600.000 E2.32783
G1 X88.921 Y115.669 F5400.000
M106 S254
M106 S255
G1 X123.045 Y111.938 F3600.000 E2.97167
G1 X122.846 Y112.365 F5400.000
M106 S254
M106 S255
G1 X89.184 Y116.045 F3600.000 E3.60678
G1 X89.447 Y116.421 F5400.000
M106 S254
M106 S255
G1 X122.647 Y112.791 F3600.000 E4.23318
G1 X122.448 Y113.218 F5400.000
M106 S254
M106 S255
G1 X89.711 Y116.798 F3600.000 E4.85084
G1 X89.974 Y117.174 F5400.000
M106 S254
M106 S255
G1 X122.249 Y113.645 F3600.000 E5.45978
G1 X122.050 Y114.072 F5400.000
M106 S254
M106 S255
G1 X90.293 Y117.544 F3600.000 E6.05895
G1 X90.658 Y117.909 F5400.000
M106 S254
M106 S255
G1 X121.851 Y114.499 F3600.000 E6.64747
G1 X121.559 Y114.935 F5400.000
M106 S254
M106 S255
G1 X91.023 Y118.274 F3600.000 E7.22361
G1 X91.389 Y118.639 F5400.000
M106 S254
M106 S255
G1 X121.252 Y115.374 F3600.000 E7.78706
G1 X120.945 Y115.813 F5400.000
M106 S254
M106 S255
G1 X91.754 Y119.005 F3600.000 E8.33782
G1 X92.119 Y119.370 F5400.000
M106 S254
M106 S255
G1 X120.638 Y116.251 F3600.000 E8.87590
G1 X120.330 Y116.690 F5400.000
M106 S254
M106 S255
G1 X92.494 Y119.734 F3600.000 E9.40111
G1 X92.994 Y120.084 F5400.000
M106 S254
M106 S255
G1 X120.023 Y117.129 F3600.000 E9.91108
G1 X119.625 Y117.577 F5400.000
M106 S254
M106 S255
G1 X93.495 Y120.434 F3600.000 E10.40410
G1 X93.995 Y120.785 F5400.000
M106 S254
M106 S255
G1 X119.170 Y118.032 F3600.000 E10.87910
G1 X118.716 Y118.487 F5400.000
M106 S254
M106 S255
G1 X94.495 Y121.135 F3600.000 E11.33607
G1 X94.996 Y121.485 F5400.000
M106 S254
M106 S255
G1 X118.261 Y118.942 F3600.000 E11.77503
G1 X117.806 Y119.396 F5400.000
M106 S254
M106 S255
G1 X95.619 Y121.822 F3600.000 E12.19365
G1 X96.322 Y122.150 F5400.000
M106 S254
M106 S255
G1 X117.254 Y119.862 F3600.000 E12.58858
G1 X116.568 Y120.342 F5400.000
M106 S254
M106 S255
G1 X97.026 Y122.478 F3600.000 E12.95729
G1 X97.730 Y122.807 F5400.000
M106 S254
M106 S255
G1 X115.883 Y120.822 F3600.000 E13.29980
G1 X115.197 Y121.302 F5400.000
M106 S254
M106 S255
G1 X98.544 Y123.123 F3600.000 E13.61399
G1 X99.618 Y123.410 F5400.000
M106 S254
M106 S255
G1 X114.318 Y121.803 F3600.000 E13.89135
G1 X113.184 Y122.332 F5400.000
M106 S254
M106 S255
G1 X100.692 Y123.698 F3600.000 E14.12705
G1 X102.055 Y123.954 F5400.000
M106 S254
M106 S255
G1 X112.049 Y122.861 F3600.000 E14.31562
G1 X109.834 Y123.508 F5400.000
M106 S254
M106 S255
G1 X104.113 Y124.134 F3600.000 E14.42356
G1 X88.145 Y114.539 F5400.000
M106 S254
M106 S255
G1 X123.463 Y110.677 F3600.000 E15.08993
G1 X123.575 Y110.260 F5400.000
M106 S254
M106 S255
G1 X87.966 Y114.153 F3600.000 E15.76180
G1 X87.786 Y113.768 F5400.000
M106 S254
M106 S255
G1 X123.687 Y109.842 F3600.000 E16.43916
G1 X123.799 Y109.425 F5400.000
M106 S254
M106 S255
G1 X87.606 Y113.382 F3600.000 E17.12203
G1 X87.426 Y112.997 F5400.000
M106 S254
M106 S255
G1 X123.910 Y109.008 F3600.000 E17.81039
G1 X124.022 Y108.591 F5400.000
M106 S254
M106 S255
G1 X87.247 Y112.612 F3600.000 E18.50426
G1 X87.067 Y112.226 F5400.000
M106 S254
M106 S255
G1 X124.110 Y108.176 F3600.000 E19.20317
G1 X124.146 Y107.767 F5400.000
M106 S254
M106 S255
G1 X86.887 Y111.841 F3600.000 E19.90615
G1 X86.732 Y111.453 F5400.000
M106 S254
M106 S255
G1 X124.182 Y107.358 F3600.000 E20.61275
G1 X124.218 Y106.949 F5400.000
M106 S254
M106 S255
G1 X86.626 Y111.059 F3600.000 E21.32201
G1 X86.521 Y110.666 F5400.000
M106 S254
M106 S255
G1 X124.253 Y106.540 F3600.000 E22.03393
G1 X124.289 Y106.131 F5400.000
M106 S254
M106 S255
G1 X86.415 Y110.272 F3600.000 E22.74852
G1 X86.310 Y109.879 F5400.000
M106 S254
M106 S255
G1 X124.325 Y105.722 F3600.000 E23.46577
G1 X124.361 Y105.313 F5400.000
M106 S254
M106 S255
G1 X86.204 Y109.485 F3600.000 E24.18569
G1 X86.099 Y109.092 F5400.000
M106 S254
M106 S255
G1 X124.384 Y104.906 F3600.000 E24.90804
G1 X124.349 Y104.504 F5400.000
M106 S254
M106 S255
G1 X85.993 Y108.698 F3600.000 E25.63171
G1 X85.897 Y108.304 F5400.000
M106 S254
M106 S255
G1 X124.314 Y104.104 F3600.000 E26.35655
G1 X124.279 Y103.702 F5400.000
M106 S254
M106 S255
G1 X85.862 Y107.903 F3600.000 E27.08139
G1 X85.826 Y107.501 F5400.000
M106 S254
M106 S255
G1 X124.244 Y103.301 F3600.000 E27.80624
G1 X124.209 Y102.900 F5400.000
M106 S254
M106 S255
G1 X85.791 Y107.101 F3600.000 E28.53108
G1 X85.756 Y106.699 F5400.000
M106 S254
M106 S255
G1 X124.174 Y102.499 F3600.000 E29.25592
G1 X124.138 Y102.097 F5400.000
M106 S254
M106 S255
G1 X85.721 Y106.298 F3600.000 E29.98076
G1 X85.686 Y105.897 F5400.000
M106 S254
M106 S255
G1 X124.103 Y101.696 F3600.000 E30.70560
G1 X124.006 Y101.302 F5400.000
M106 S254
M106 S255
G1 X85.651 Y105.495 F3600.000 E31.42928
G1 X85.616 Y105.094 F5400.000
M106 S254
M106 S255
G1 X123.901 Y100.908 F3600.000 E32.15163
G1 X123.796 Y100.515 F5400.000
M106 S254
M106 S255
G1 X85.639 Y104.687 F3600.000 E32.87155
G1 X85.675 Y104.278 F5400.000
M106 S254
M106 S255
G1 X123.690 Y100.121 F3600.000 E33.58880
G1 X123.585 Y99.728 F5400.000
M106 S254
M106 S255
G1 X85.711 Y103.869 F3600.000 E34.30339
G1 X85.747 Y103.460 F5400.000
M106 S254
M106 S255
G1 X123.479 Y99.334 F3600.000 E35.01531
G1 X123.374 Y98.940 F5400.000
M106 S254
M106 S255
G1 X85.782 Y103.051 F3600.000 E35.72457
G1 X85.818 Y102.642 F5400.000
M106 S254
M106 S255
G1 X123.268 Y98.547 F3600.000 E36.43117
G1 X123.113 Y98.159 F5400.000
M106 S254
M106 S255
G1 X85.854 Y102.233 F3600.000 E37.13415
G1 X85.890 Y101.824 F5400.000
M106 S254
M106 S255
G1 X122.933 Y97.773 F3600.000 E37.83307
G1 X122.753 Y97.389 F5400.000
M106 S254
M106 S255
G1 X85.978 Y101.410 F3600.000 E38.52693
G1 X86.090 Y100.992 F5400.000
M106 S254
M106 S255
G1 X122.574 Y97.003 F3600.000 E39.21530
G1 X122.394 Y96.617 F5400.000
M106 S254
M106 S255
G1 X86.201 Y100.574 F3600.000 E39.89816
G1 X86.313 Y100.158 F5400.000
M106 S254
M106 S255
G1 X122.214 Y96.232 F3600.000 E40.57552
G1 X122.034 Y95.847 F5400.000
M106 S254
M106 S255
G1 X86.425 Y99.740 F3600.000 E41.24739
G1 X86.537 Y99.323 F5400.000
M106 S254
M106 S255
G1 X121.855 Y95.461 F3600.000 E41.91375
G1 X121.606 Y95.084 F5400.000
M106 S254
M106 S255
G1 X86.649 Y98.906 F3600.000 E42.57332
G1 X86.760 Y98.488 F5400.000
M106 S254
M106 S255
G1 X121.343 Y94.707 F3600.000 E43.22581
G1 X121.080 Y94.331 F5400.000
M106 S254
M106 S255
G1 X86.955 Y98.063 F3600.000 E43.86965
G1 X87.154 Y97.635 F5400.000
M106 S254
M106 S255
G1 X120.816 Y93.955 F3600.000 E44.50477
G1 X120.553 Y93.578 F5400.000
M106 S254
M106 S255
G1 X87.353 Y97.208 F3600.000 E45.13116
G1 X87.552 Y96.782 F5400.000
M106 S254
M106 S255
G1 X120.289 Y93.203 F3600.000 E45.74882
G1 X120.026 Y92.826 F5400.000
M106 S254
M106 S255
G1 X87.751 Y96.355 F3600.000 E46.35776
G1 X87.950 Y95.928 F5400.000
M106 S254
M106 S255
G1 X119.707 Y92.456 F3600.000 E46.95693
G1 X119.342 Y92.091 F5400.000
M106 S254
M106 S255
G1 X88.149 Y95.502 F3600.000 E47.54545
G1 X88.441 Y95.064 F5400.000
M106 S254
M106 S255
G1 X118.977 Y91.726 F3600.000 E48.12159
G1 X118.611 Y91.360 F5400.000
M106 S254
M106 S255
G1 X88.748 Y94.625 F3600.000 E48.68504
G1 X89.055 Y94.187 F5400.000
M106 S254
M106 S255
G1 X118.246 Y90.996 F3600.000 E49.23580
G1 X117.881 Y90.630 F5400.000
M106 S254
M106 S255
G1 X89.362 Y93.748 F3600.000 E49.77388
G1 X89.670 Y93.310 F5400.000
M106 S254
M106 S255
G1 X117.506 Y90.267 F3600.000 E50.29909
G1 X117.006 Y89.916 F5400.000
M106 S254
M106 S255
G1 X89.977 Y92.871 F3600.000 E50.80906
G1 X90.375 Y92.423 F5400.000
M106 S254
M106 S255
G1 X116.505 Y89.565 F3600.000 E51.30208
G1 X116.005 Y89.216 F5400.000
M106 S254
M106 S255
G1 X90.830 Y91.968 F3600.000 E51.77708
G1 X91.285 Y91.513 F5400.000
M106 S254
M106 S255
G1 X115.505 Y88.865 F3600.000 E52.23405
G1 X115.004 Y88.514 F5400.000
M106 S254
M106 S255
G1 X91.739 Y91.058 F3600.000 E52.67301
G1 X92.194 Y90.604 F5400.000
M106 S254
M106 S255
G1 X114.381 Y88.178 F3600.000 E53.09163
G1 X113.678 Y87.850 F5400.000
M106 S254
M106 S255
G1 X92.746 Y90.138 F3600.000 E53.48655
G1 X93.432 Y89.658 F5400.000
M106 S254
M106 S255
G1 X112.974 Y87.521 F3600.000 E53.85526
G1 X112.270 Y87.194 F5400.000
M106 S254
M106 S255
G1 X94.117 Y89.179 F3600.000 E54.19776
G1 X94.803 Y88.698 F5400.000
M106 S254
M106 S255
G1 X111.455 Y86.877 F3600.000 E54.51196
G1 X110.382 Y86.590 F5400.000
M106 S254
M106 S255
G1 X95.682 Y88.198 F3600.000 E54.78932
G1 X96.816 Y87.668 F5400.000
M106 S254
M106 S255
G1 X109.308 Y86.302 F3600.000 E55.02502
G1 X107.945 Y86.046 F5400.000
M106 S254
M106 S255
G1 X97.951 Y87.139 F3600.000 E55.21359
G1 X100.166 Y86.492 F5400.000
M106 S254
M106 S255
G1 X105.887 Y85.867 F3600.000 E55.32153
M106 S254
G1 Z0.400 F5400.000
M106 S254
G1 X105.000 Y85.281
G1 X108.424 Y85.581 F1800.000 E55.34880
G1 X111.744 Y86.470 E55.37607
G1 X114.859 Y87.923 E55.40334
G1 X117.675 Y89.894 E55.43060
G1 X120.106 Y92.325 E55.45787
G1 X122.077 Y95.141 E55.48514
G1 X123.530 Y98.256 E55.51240
G1 X124.419 Y101.576 E55.53967
G1 X124.719 Y105.000 E55.56694
G1 X124.419 Y108.424 E55.59421
G1 X123.530 Y111.744 E55.62147
G1 X122.077 Y114.859 E55.64874
G1 X120.106 Y117.675 E55.67601
G1 X117.675 Y120.106 E55.70328
G1 X114.859 Y122.077 E55.73054
G1 X111.744 Y123.530 E55.75781
G1 X108.424 Y124.419 E55.78508
G1 X105.000 Y124.719 E55.81235
G1 X101.576 Y124.419 E55.83961
G1 X98.256 Y123.530 E55.86688
G1 X95.141 Y122.077 E55.89415
G1 X92.325 Y120.106 E55.92141
G1 X89.894 Y117.675 E55.94868
G1 X87.923 Y114.859 E55.97595
G1 X86.470 Y111.744 E56.00322
G1 X85.581 Y108.424 E56.03048
G1 X85.281 Y105.000 E56.05775
G1 X85.581 Y101.576 E56.08502
G1 X86.470 Y98.256 E56.11229
G1 X87.923 Y95.141 E56.13955
G1 X89.894 Y92.325 E56.16682
G1 X92.325 Y89.894 E56.19409
G1 X95.141 Y87.923 E56.22136
G1 X98.256 Y86.470 E56.24862
G1 X101.576 Y85.581 E56.27589
G1 X104.916 Y85.288 E56.30249
G1 X101.218 Y86.185 F5400.000
G1 X108.782 Y86.185 F3600.000 E56.36341
G1 X110.847 Y86.738 F5400.000
G1 X99.153 Y86.738 F3600.000 E56.45759
G1 X97.570 Y87.292 F5400.000
G1 X112.430 Y87.292 F3600.000 E56.57728
G1 X113.617 Y87.845 F5400.000
G1 X96.383 Y87.845 F3600.000 E56.71608
G1 X95.196 Y88.399 F5400.000
G1 X114.804 Y88.399 F3600.000 E56.87400
G1 X115.596 Y88.952 F5400.000
G1 X94.404 Y88.952 F3600.000 E57.04468
G1 X93.614 Y89.505 F5400.000
G1 X116.386 Y89.505 F3600.000 E57.22808
G1 X117.176 Y90.059 F5400.000
G1 X92.824 Y90.059 F3600.000 E57.42421
G1 X92.160 Y90.612 F5400.000
G1 X117.840 Y90.612 F3600.000 E57.63104
G1 X118.393 Y91.165 F5400.000
G1 X91.607 Y91.165 F3600.000 E57.84678
G1 X91.053 Y91.719 F5400.000
G1 X118.947 Y91.719 F3600.000 E58.07144
G1 X119.500 Y92.272 F5400.000
G1 X90.500 Y92.272 F3600.000 E58.30501
G1 X89.990 Y92.826 F5400.000
G1 X120.010 Y92.826 F3600.000 E58.54679
G1 X120.397 Y93.379 F5400.000
G1 X89.603 Y93.379 F3600.000 E58.79480
G1 X89.215 Y93.932 F5400.000
G1 X120.785 Y93.932 F3600.000 E59.04906
G1 X121.172 Y94.486 F5400.000
G1 X88.828 Y94.486 F3600.000 E59.30956
G1 X88.440 Y95.039 F5400.000
G1 X121.560 Y95.039 F3600.000 E59.57631
G1 X121.906 Y95.593 F5400.000
G1 X88.094 Y95.593 F3600.000 E59.84863
G1 X87.836 Y96.146 F5400.000
G1 X122.164 Y96.146 F3600.000 E60.12511
G1 X122.422 Y96.699 F5400.000
G1 X87.578 Y96.699 F3600.000 E60.40574
G1 X87.320 Y97.253 F5400.000
G1 X122.680 Y97.253 F3600.000 E60.69053
G1 X122.938 Y97.806 F5400.000
G1 X87.062 Y97.806 F3600.000 E60.97948
G1 X86.804 Y98.359 F5400.000
G1 X123.196 Y98.359 F3600.000 E61.27258
G1 X123.361 Y98.913 F5400.000
G1 X86.639 Y98.913 F3600.000 E61.56834
G1 X86.491 Y99.466 F5400.000
G1 X123.509 Y99.466 F3600.000 E61.86650
G1 X123.658 Y100.020 F5400.000
G1 X86.342 Y100.020 F3600.000 E62.16704
G1 X86.194 Y100.573 F5400.000
G1 X123.806 Y100.573 F3600.000 E62.46996
G1 X123.954 Y101.126 F5400.000
G1 X86.046 Y101.126 F3600.000 E62.77528
G1 X85.899 Y101.680 F5400.000
G1 X124.101 Y101.680 F3600.000 E63.08296
G1 X124.150 Y102.233 F5400.000
G1 X85.850 Y102.233 F3600.000 E63.39143
G1 X85.802 Y102.786 F5400.000
G1 X124.198 Y102.786 F3600.000 E63.70067
G1 X124.246 Y103.340 F5400.000
G1 X85.754 Y103.340 F3600.000 E64.01069
G1 X85.705 Y103.893 F5400.000
G1 X124.295 Y103.893 F3600.000 E64.32149
G1 X124.343 Y104.447 F5400.000
G1 X85.657 Y104.447 F3600.000 E64.63307
G1 X85.608 Y105.000 F5400.000
G1 X124.392 Y105.000 F3600.000 E64.94543
G1 X124.343 Y105.553 F5400.000
G1 X85.657 Y105.553 F3600.000 E65.25702
G1 X85.705 Y106.107 F5400.000
G1 X124.295 Y106.107 F3600.000 E65.56782
G1 X124.246 Y106.660 F5400.000
G1 X85.754 Y106.660 F3600.000 E65.87784
G1 X85.802 Y107.214 F5400.000
G1 X124.198 Y107.214 F3600.000 E66.18708
G1 X124.150 Y107.767 F5400.000
G1 X85.850 Y107.767 F3600.000 E66.49554
G1 X85.899 Y108.320 F5400.000
G1 X124.101 Y108.320 F3600.000 E66.80322
G1 X123.954 Y108.874 F5400.000
G1 X86.046 Y108.874 F3600.000 E67.10854
G1 X86.194 Y109.427 F5400.000
G1 X123.806 Y109.427 F3600.000 E67.41147
G1 X123.658 Y109.980 F5400.000
G1 X86.342 Y109.980 F3600.000 E67.71201
G1 X86.491 Y110.534 F5400.000
G1 X123.509 Y110.534 F3600.000 E68.01016
G1 X123.361 Y111.087 F5400.000
G1 X86.639 Y111.087 F3600.000 E68.30592
G1 X86.804 Y111.641 F5400.000
G1 X123.196 Y111.641 F3600.000 E68.59903
G1 X122.938 Y112.194 F5400.000
G1 X87.062 Y112.194 F3600.000 E68.88797
G1 X87.320 Y112.747 F5400.000
G1 X122.680 Y112.747 F3600.000 E69.17276
G1 X122.422 Y113.301 F5400.000
G1 X87.578 Y113.301 F3600.000 E69.45340
G1 X87.836 Y113.854 F5400.000
G1 X122.164 Y113.854 F3600.000 E69.72987
G1 X121.906 Y114.408 F5400.000
G1 X88.094 Y114.408 F3600.000 E70.00219
G1 X88.440 Y114.961 F5400.000
G1 X121.560 Y114.961 F3600.000 E70.26894
G1 X121.172 Y115.514 F5400.000
G1 X88.828 Y115.514 F3600.000 E70.52944
G1 X89.215 Y116.068 F5400.000
G1 X120.785 Y116.068 F3600.000 E70.78370
G1 X120.397 Y116.621 F5400.000
G1 X89.603 Y116.621 F3600.000 E71.03172
G1 X89.990 Y117.174 F5400.000
G1 X120.010 Y117.174 F3600.000 E71.27349
G1 X119.500 Y117.728 F5400.000
G1 X90.500 Y117.728 F3600.000 E71.50706
