; generated by Slic3r 0.7.2b on 2012-06-06 at 20:42:54

; layer_height = 0.1
; perimeters = 1
; solid_layers = 0
; fill_density = 0
; nozzle_diameter = 0.4
; filament_diameter = 2.94
; extrusion_multiplier = 1
; perimeter_speed = 20
; infill_speed = 30
; travel_speed = 90
; extrusion_width_ratio = 0
; scale = 1
; single wall width = 0.56mm

M104 S180 ; set temperature
M92 X78.7402 Y78.7402 E926 ;Set the right speed
G28 ;home all axes
M106 ;turn fan on
M109 S180 ; wait for temperature to be reached
G90 ; use absolute coordinates
G21 ; set units to millimeters
G92 E0 ; reset extrusion distance
M82 ; use absolute distances for extrusion
M106 S254
G1 Z0.100 F5400.000
G1 X100.280 Y100.280
G1
G1 X109.720 Y100.280 F180.000 E0.07489
G1 X109.720 Y109.720 E0.14977
G1 X100.280 Y109.720 E0.22466
G1 X100.280 Y100.364 E0.29888
G1 Z0.200 F5400.000
G1 X100.280 Y100.280
G1 X109.720 Y100.280 F600.000 E0.37377
G1 X109.720 Y109.720 E0.44865
G1 X100.280 Y109.720 E0.52354
G1 X100.280 Y100.364 E0.59776
G1 Z0.300 F5400.000
G1 X100.280 Y100.280
G1 X109.720 Y100.280 F600.000 E0.67265
G1 X109.720 Y109.720 E0.74754
G1 X100.280 Y109.720 E0.82242
G1 X100.280 Y100.364 E0.89664
G1 Z0.400 F5400.000
G1 X100.280 Y100.280
G1 X109.720 Y100.280 F600.000 E0.97153
G1 X109.720 Y109.720 E1.04642
G1 X100.280 Y109.720 E1.12130
G1 X100.280 Y100.364 E1.19552
G1 Z0.500 F5400.000
G1 X100.280 Y100.280
G1 X109.720 Y100.280 F600.000 E1.27041
G1 X109.720 Y109.720 E1.34530
G1 X100.280 Y109.720 E1.42018
G1 X100.280 Y100.364 E1.49440
G1 Z0.600 F5400.000
G1 X100.280 Y100.280
G1 X109.720 Y100.280 F600.000 E1.56929
G1 X109.720 Y109.720 E1.64418
G1 X100.280 Y109.720 E1.71906
G1 X100.280 Y100.364 E1.79328
G1 Z0.700 F5400.000
G1 X100.280 Y100.280
G1 X109.720 Y100.280 F600.000 E1.86817
G1 X109.720 Y109.720 E1.94306
G1 X100.280 Y109.720 E2.01795
G1 X100.280 Y100.364 E2.09217
G1 Z0.800 F5400.000
G1 X100.280 Y100.280
G1 X109.720 Y100.280 F600.000 E2.16705
G1 X109.720 Y109.720 E2.24194
G1 X100.280 Y109.720 E2.31683
G1 X100.280 Y100.364 E2.39105
G1 Z0.900 F5400.000
G1 X100.280 Y100.280
G1 X109.720 Y100.280 F600.000 E2.46593
G1 X109.720 Y109.720 E2.54082
G1 X100.280 Y109.720 E2.61571
G1 X100.280 Y100.364 E2.68993
G1 Z1.000 F5400.000
G1 X100.280 Y100.280
G1 X109.720 Y100.280 F600.000 E2.76481
G1 X109.720 Y109.720 E2.83970
G1 X100.280 Y109.720 E2.91459
G1 X100.280 Y100.364 E2.98881
G1 Z1.100 F5400.000
G1 X100.280 Y100.280
G1 X109.720 Y100.280 F600.000 E3.06370
G1 X109.720 Y109.720 E3.13858
G1 X100.280 Y109.720 E3.21347
G1 X100.280 Y100.364 E3.28769
G1 Z1.200 F5400.000
G1 X100.280 Y100.280
G1 X109.720 Y100.280 F600.000 E3.36258
G1 X109.720 Y109.720 E3.43746
G1 X100.280 Y109.720 E3.51235
G1 X100.280 Y100.364 E3.58657
G1 Z1.300 F5400.000
G1 X100.280 Y100.280
G1 X109.720 Y100.280 F600.000 E3.66146
G1 X109.720 Y109.720 E3.73634
G1 X100.280 Y109.720 E3.81123
G1 X100.280 Y100.364 E3.88545
G1 Z1.400 F5400.000
G1 X100.280 Y100.280
G1 X109.720 Y100.280 F600.000 E3.96034
G1 X109.720 Y109.720 E4.03522
G1 X100.280 Y109.720 E4.11011
G1 X100.280 Y100.364 E4.18433
G1 Z1.500 F5400.000
G1 X100.280 Y100.280
G1 X109.720 Y100.280 F600.000 E4.25922
G1 X109.720 Y109.720 E4.33411
G1 X100.280 Y109.720 E4.40899
G1 X100.280 Y100.364 E4.48321
G1 Z1.600 F5400.000
G1 X100.280 Y100.280
G1 X109.720 Y100.280 F600.000 E4.55810
G1 X109.720 Y109.720 E4.63299
G1 X100.280 Y109.720 E4.70787
G1 X100.280 Y100.364 E4.78209
G1 Z1.700 F5400.000
G1 X100.280 Y100.280
G1 X109.720 Y100.280 F600.000 E4.85698
G1 X109.720 Y109.720 E4.93187
G1 X100.280 Y109.720 E5.00675
G1 X100.280 Y100.364 E5.08097
G1 Z1.800 F5400.000
G1 X100.280 Y100.280
G1 X109.720 Y100.280 F600.000 E5.15586
G1 X109.720 Y109.720 E5.23075
G1 X100.280 Y109.720 E5.30563
G1 X100.280 Y100.364 E5.37985
G1 Z1.900 F5400.000
G1 X100.280 Y100.280
G1 X109.720 Y100.280 F600.000 E5.45474
G1 X109.720 Y109.720 E5.52963
G1 X100.280 Y109.720 E5.60452
G1 X100.280 Y100.364 E5.67874
G1 Z2.000 F5400.000
G1 X100.280 Y100.280
G1 X109.720 Y100.280 F600.000 E5.75362
G1 X109.720 Y109.720 E5.82851
G1 X100.280 Y109.720 E5.90340
G1 X100.280 Y100.364 E5.97762
G1 Z2.100 F5400.000
G1 X100.280 Y100.280
G1 X109.720 Y100.280 F600.000 E6.05250
G1 X109.720 Y109.720 E6.12739
G1 X100.280 Y109.720 E6.20228
G1 X100.280 Y100.364 E6.27650
G1 Z2.200 F5400.000
G1 X100.280 Y100.280
G1 X109.720 Y100.280 F600.000 E6.35138
G1 X109.720 Y109.720 E6.42627
G1 X100.280 Y109.720 E6.50116
G1 X100.280 Y100.364 E6.57538
G1 Z2.300 F5400.000
G1 X100.280 Y100.280
G1 X109.720 Y100.280 F600.000 E6.65027
G1 X109.720 Y109.720 E6.72515
G1 X100.280 Y109.720 E6.80004
G1 X100.280 Y100.364 E6.87426
G1 Z2.400 F5400.000
G1 X100.280 Y100.280
G1 X109.720 Y100.280 F600.000 E6.94915
G1 X109.720 Y109.720 E7.02403
G1 X100.280 Y109.720 E7.09892
G1 X100.280 Y100.364 E7.17314
G1 Z2.500 F5400.000
G1 X100.280 Y100.280
G1 X109.720 Y100.280 F600.000 E7.24803
G1 X109.720 Y109.720 E7.32291
G1 X100.280 Y109.720 E7.39780
G1 X100.280 Y100.364 E7.47202
G1 Z2.600 F5400.000
G1 X100.280 Y100.280
G1 X109.720 Y100.280 F600.000 E7.54691
G1 X109.720 Y109.720 E7.62179
G1 X100.280 Y109.720 E7.69668
G1 X100.280 Y100.364 E7.77090
G1 Z2.700 F5400.000
G1 X100.280 Y100.280
G1 X109.720 Y100.280 F600.000 E7.84579
G1 X109.720 Y109.720 E7.92068
G1 X100.280 Y109.720 E7.99556
G1 X100.280 Y100.364 E8.06978
G1 Z2.800 F5400.000
G1 X100.280 Y100.280
G1 X109.720 Y100.280 F600.000 E8.14467
G1 X109.720 Y109.720 E8.21956
G1 X100.280 Y109.720 E8.29444
G1 X100.280 Y100.364 E8.36866
G1 Z2.900 F5400.000
G1 X100.280 Y100.280
G1 X109.720 Y100.280 F600.000 E8.44355
G1 X109.720 Y109.720 E8.51844
G1 X100.280 Y109.720 E8.59332
G1 X100.280 Y100.364 E8.66754
G1 Z3.000 F5400.000
G1 X100.280 Y100.280
G1 X109.720 Y100.280 F600.000 E8.74243
G1 X109.720 Y109.720 E8.81732
G1 X100.280 Y109.720 E8.89220
G1 X100.280 Y100.364 E8.96642
G1 Z3.100 F5400.000
G1 X100.280 Y100.280
G1 X109.720 Y100.280 F600.000 E9.04131
G1 X109.720 Y109.720 E9.11620
G1 X100.280 Y109.720 E9.19109
G1 X100.280 Y100.364 E9.26531
G1 Z3.200 F5400.000
G1 X100.280 Y100.280
G1 X109.720 Y100.280 F600.000 E9.34019
G1 X109.720 Y109.720 E9.41508
G1 X100.280 Y109.720 E9.48997
G1 X100.280 Y100.364 E9.56419
G1 Z3.300 F5400.000
G1 X100.280 Y100.280
G1 X109.720 Y100.280 F600.000 E9.63907
G1 X109.720 Y109.720 E9.71396
G1 X100.280 Y109.720 E9.78885
G1 X100.280 Y100.364 E9.86307
G1 Z3.400 F5400.000
G1 X100.280 Y100.280
G1 X109.720 Y100.280 F600.000 E9.93795
G1 X109.720 Y109.720 E10.01284
G1 X100.280 Y109.720 E10.08773
G1 X100.280 Y100.364 E10.16195
G1 Z3.500 F5400.000
G1 X100.280 Y100.280
G1 X109.720 Y100.280 F600.000 E10.23684
G1 X109.720 Y109.720 E10.31172
G1 X100.280 Y109.720 E10.38661
G1 X100.280 Y100.364 E10.46083
G1 Z3.600 F5400.000
G1 X100.280 Y100.280
G1 X109.720 Y100.280 F600.000 E10.53572
G1 X109.720 Y109.720 E10.61060
G1 X100.280 Y109.720 E10.68549
G1 X100.280 Y100.364 E10.75971
G1 Z3.700 F5400.000
G1 X100.280 Y100.280
G1 X109.720 Y100.280 F600.000 E10.83460
G1 X109.720 Y109.720 E10.90948
G1 X100.280 Y109.720 E10.98437
G1 X100.280 Y100.364 E11.05859
G1 Z3.800 F5400.000
G1 X100.280 Y100.280
G1 X109.720 Y100.280 F600.000 E11.13348
G1 X109.720 Y109.720 E11.20836
G1 X100.280 Y109.720 E11.28325
G1 X100.280 Y100.364 E11.35747
G1 Z3.900 F5400.000
G1 X100.280 Y100.280
G1 X109.720 Y100.280 F600.000 E11.43236
G1 X109.720 Y109.720 E11.50725
G1 X100.280 Y109.720 E11.58213
G1 X100.280 Y100.364 E11.65635
G1 Z4.000 F5400.000
G1 X100.280 Y100.280
G1 X109.720 Y100.280 F600.000 E11.73124
G1 X109.720 Y109.720 E11.80613
G1 X100.280 Y109.720 E11.88101
G1 X100.280 Y100.364 E11.95523
G1 Z4.100 F5400.000
G1 X100.280 Y100.280
G1 X109.720 Y100.280 F600.000 E12.03012
G1 X109.720 Y109.720 E12.10501
G1 X100.280 Y109.720 E12.17989
G1 X100.280 Y100.364 E12.25411
G1 Z4.200 F5400.000
G1 X100.280 Y100.280
G1 X109.720 Y100.280 F600.000 E12.32900
G1 X109.720 Y109.720 E12.40389
G1 X100.280 Y109.720 E12.47877
G1 X100.280 Y100.364 E12.55299
G1 Z4.300 F5400.000
G1 X100.280 Y100.280
G1 X109.720 Y100.280 F600.000 E12.62788
G1 X109.720 Y109.720 E12.70277
G1 X100.280 Y109.720 E12.77766
G1 X100.280 Y100.364 E12.85188
G1 Z4.400 F5400.000
G1 X100.280 Y100.280
G1 X109.720 Y100.280 F600.000 E12.92676
G1 X109.720 Y109.720 E13.00165
G1 X100.280 Y109.720 E13.07654
G1 X100.280 Y100.364 E13.15076
G1 Z4.500 F5400.000
G1 X100.280 Y100.280
G1 X109.720 Y100.280 F600.000 E13.22564
G1 X109.720 Y109.720 E13.30053
G1 X100.280 Y109.720 E13.37542
G1 X100.280 Y100.364 E13.44964
G1 Z4.600 F5400.000
G1 X100.280 Y100.280
G1 X109.720 Y100.280 F600.000 E13.52452
G1 X109.720 Y109.720 E13.59941
G1 X100.280 Y109.720 E13.67430
G1 X100.280 Y100.364 E13.74852
G1 Z4.700 F5400.000
G1 X100.280 Y100.280
G1 X109.720 Y100.280 F600.000 E13.82341
G1 X109.720 Y109.720 E13.89829
G1 X100.280 Y109.720 E13.97318
G1 X100.280 Y100.364 E14.04740
G1 Z4.800 F5400.000
G1 X100.280 Y100.280
G1 X109.720 Y100.280 F600.000 E14.12229
G1 X109.720 Y109.720 E14.19717
G1 X100.280 Y109.720 E14.27206
G1 X100.280 Y100.364 E14.34628
G1 Z4.900 F5400.000
G1 X100.280 Y100.280
G1 X109.720 Y100.280 F600.000 E14.42117
G1 X109.720 Y109.720 E14.49605
G1 X100.280 Y109.720 E14.57094
G1 X100.280 Y100.364 E14.64516
G1 Z5.000 F5400.000
G1 X100.280 Y100.280
G1 X109.720 Y100.280 F600.000 E14.72005
G1 X109.720 Y109.720 E14.79493
G1 X100.280 Y109.720 E14.86982
G1 X100.280 Y100.364 E14.94404
G1 Z5.100 F5400.000
G1 X100.280 Y100.280
G1 X109.720 Y100.280 F600.000 E15.01893
G1 X109.720 Y109.720 E15.09382
G1 X100.280 Y109.720 E15.16870
G1 X100.280 Y100.364 E15.24292
G1 Z5.200 F5400.000
G1 X100.280 Y100.280
G1 X109.720 Y100.280 F600.000 E15.31781
G1 X109.720 Y109.720 E15.39270
G1 X100.280 Y109.720 E15.46758
G1 X100.280 Y100.364 E15.54180
G1 Z5.300 F5400.000
G1 X100.280 Y100.280
G1 X109.720 Y100.280 F600.000 E15.61669
G1 X109.720 Y109.720 E15.69158
G1 X100.280 Y109.720 E15.76646
G1 X100.280 Y100.364 E15.84068
G1 Z5.400 F5400.000
G1 X100.280 Y100.280
G1 X109.720 Y100.280 F600.000 E15.91557
G1 X109.720 Y109.720 E15.99046
G1 X100.280 Y109.720 E16.06534
G1 X100.280 Y100.364 E16.13956
G1 Z5.500 F5400.000
G1 X100.280 Y100.280
G1 X109.720 Y100.280 F600.000 E16.21445
G1 X109.720 Y109.720 E16.28934
G1 X100.280 Y109.720 E16.36423
G1 X100.280 Y100.364 E16.43845
G1 Z5.600 F5400.000
G1 X100.280 Y100.280
G1 X109.720 Y100.280 F600.000 E16.51333
G1 X109.720 Y109.720 E16.58822
G1 X100.280 Y109.720 E16.66311
G1 X100.280 Y100.364 E16.73733
G1 Z5.700 F5400.000
G1 X100.280 Y100.280
G1 X109.720 Y100.280 F600.000 E16.81221
G1 X109.720 Y109.720 E16.88710
G1 X100.280 Y109.720 E16.96199
G1 X100.280 Y100.364 E17.03621
G1 Z5.800 F5400.000
G1 X100.280 Y100.280
G1 X109.720 Y100.280 F600.000 E17.11109
G1 X109.720 Y109.720 E17.18598
G1 X100.280 Y109.720 E17.26087
G1 X100.280 Y100.364 E17.33509
G1 Z5.900 F5400.000
G1 X100.280 Y100.280
G1 X109.720 Y100.280 F600.000 E17.40998
G1 X109.720 Y109.720 E17.48486
G1 X100.280 Y109.720 E17.55975
G1 X100.280 Y100.364 E17.63397
G1 Z6.000 F5400.000
G1 X100.280 Y100.280
G1 X109.720 Y100.280 F600.000 E17.70886
G1 X109.720 Y109.720 E17.78374
G1 X100.280 Y109.720 E17.85863
G1 X100.280 Y100.364 E17.93285
G1 Z6.100 F5400.000
G1 X100.280 Y100.280
G1 X109.720 Y100.280 F600.000 E18.00774
G1 X109.720 Y109.720 E18.08262
G1 X100.280 Y109.720 E18.15751
G1 X100.280 Y100.364 E18.23173
G1 Z6.200 F5400.000
G1 X100.280 Y100.280
G1 X109.720 Y100.280 F600.000 E18.30662
G1 X109.720 Y109.720 E18.38150
G1 X100.280 Y109.720 E18.45639
G1 X100.280 Y100.364 E18.53061
G1 Z6.300 F5400.000
G1 X100.280 Y100.280
G1 X109.720 Y100.280 F600.000 E18.60550
G1 X109.720 Y109.720 E18.68039
G1 X100.280 Y109.720 E18.75527
G1 X100.280 Y100.364 E18.82949
G1 Z6.400 F5400.000
G1 X100.280 Y100.280
G1 X109.720 Y100.280 F600.000 E18.90438
G1 X109.720 Y109.720 E18.97927
G1 X100.280 Y109.720 E19.05415
G1 X100.280 Y100.364 E19.12837
G1 Z6.500 F5400.000
G1 X100.280 Y100.280
G1 X109.720 Y100.280 F600.000 E19.20326
G1 X109.720 Y109.720 E19.27815
G1 X100.280 Y109.720 E19.35303
G1 X100.280 Y100.364 E19.42725
G1 Z6.600 F5400.000
G1 X100.280 Y100.280
G1 X109.720 Y100.280 F600.000 E19.50214
G1 X109.720 Y109.720 E19.57703
G1 X100.280 Y109.720 E19.65191
G1 X100.280 Y100.364 E19.72613
G1 Z6.700 F5400.000
G1 X100.280 Y100.280
G1 X109.720 Y100.280 F600.000 E19.80102
G1 X109.720 Y109.720 E19.87591
G1 X100.280 Y109.720 E19.95080
G1 X100.280 Y100.364 E20.02502
G1 Z6.800 F5400.000
G1 X100.280 Y100.280
G1 X109.720 Y100.280 F600.000 E20.09990
G1 X109.720 Y109.720 E20.17479
G1 X100.280 Y109.720 E20.24968
G1 X100.280 Y100.364 E20.32390
G1 Z6.900 F5400.000
G1 X100.280 Y100.280
G1 X109.720 Y100.280 F600.000 E20.39878
G1 X109.720 Y109.720 E20.47367
G1 X100.280 Y109.720 E20.54856
G1 X100.280 Y100.364 E20.62278
G1 Z7.000 F5400.000
G1 X100.280 Y100.280
G1 X109.720 Y100.280 F600.000 E20.69766
G1 X109.720 Y109.720 E20.77255
G1 X100.280 Y109.720 E20.84744
G1 X100.280 Y100.364 E20.92166
G1 Z7.100 F5400.000
G1 X100.280 Y100.280
G1 X109.720 Y100.280 F600.000 E20.99655
G1 X109.720 Y109.720 E21.07143
G1 X100.280 Y109.720 E21.14632
G1 X100.280 Y100.364 E21.22054
G1 Z7.200 F5400.000
G1 X100.280 Y100.280
G1 X109.720 Y100.280 F600.000 E21.29543
G1 X109.720 Y109.720 E21.37031
G1 X100.280 Y109.720 E21.44520
G1 X100.280 Y100.364 E21.51942
G1 Z7.300 F5400.000
G1 X100.280 Y100.280
G1 X109.720 Y100.280 F600.000 E21.59431
G1 X109.720 Y109.720 E21.66919
G1 X100.280 Y109.720 E21.74408
G1 X100.280 Y100.364 E21.81830
G1 Z7.400 F5400.000
G1 X100.280 Y100.280
G1 X109.720 Y100.280 F600.000 E21.89319
G1 X109.720 Y109.720 E21.96807
G1 X100.280 Y109.720 E22.04296
G1 X100.280 Y100.364 E22.11718
G1 Z7.500 F5400.000
G1 X100.280 Y100.280
G1 X109.720 Y100.280 F600.000 E22.19207
G1 X109.720 Y109.720 E22.26696
G1 X100.280 Y109.720 E22.34184
G1 X100.280 Y100.364 E22.41606
G1 Z7.600 F5400.000
G1 X100.280 Y100.280
G1 X109.720 Y100.280 F600.000 E22.49095
G1 X109.720 Y109.720 E22.56584
G1 X100.280 Y109.720 E22.64072
G1 X100.280 Y100.364 E22.71494
G1 Z7.700 F5400.000
G1 X100.280 Y100.280
G1 X109.720 Y100.280 F600.000 E22.78983
G1 X109.720 Y109.720 E22.86472
G1 X100.280 Y109.720 E22.93960
G1 X100.280 Y100.364 E23.01382
G1 Z7.800 F5400.000
G1 X100.280 Y100.280
G1 X109.720 Y100.280 F600.000 E23.08871
G1 X109.720 Y109.720 E23.16360
G1 X100.280 Y109.720 E23.23848
G1 X100.280 Y100.364 E23.31270
G1 Z7.900 F5400.000
G1 X100.280 Y100.280
G1 X109.720 Y100.280 F600.000 E23.38759
G1 X109.720 Y109.720 E23.46248
G1 X100.280 Y109.720 E23.53737
G1 X100.280 Y100.364 E23.61159
G1 Z8.000 F5400.000
G1 X100.280 Y100.280
G1 X109.720 Y100.280 F600.000 E23.68647
G1 X109.720 Y109.720 E23.76136
G1 X100.280 Y109.720 E23.83625
G1 X100.280 Y100.364 E23.91047
G1 Z8.100 F5400.000
G1 X100.280 Y100.280
G1 X109.720 Y100.280 F600.000 E23.98535
G1 X109.720 Y109.720 E24.06024
G1 X100.280 Y109.720 E24.13513
G1 X100.280 Y100.364 E24.20935
G1 Z8.200 F5400.000
G1 X100.280 Y100.280
G1 X109.720 Y100.280 F600.000 E24.28423
G1 X109.720 Y109.720 E24.35912
G1 X100.280 Y109.720 E24.43401
G1 X100.280 Y100.364 E24.50823
G1 Z8.300 F5400.000
G1 X100.280 Y100.280
G1 X109.720 Y100.280 F600.000 E24.58312
G1 X109.720 Y109.720 E24.65800
G1 X100.280 Y109.720 E24.73289
G1 X100.280 Y100.364 E24.80711
G1 Z8.400 F5400.000
G1 X100.280 Y100.280
G1 X109.720 Y100.280 F600.000 E24.88200
G1 X109.720 Y109.720 E24.95688
G1 X100.280 Y109.720 E25.03177
G1 X100.280 Y100.364 E25.10599
G1 Z8.500 F5400.000
G1 X100.280 Y100.280
G1 X109.720 Y100.280 F600.000 E25.18088
G1 X109.720 Y109.720 E25.25576
G1 X100.280 Y109.720 E25.33065
G1 X100.280 Y100.364 E25.40487
G1 Z8.600 F5400.000
G1 X100.280 Y100.280
G1 X109.720 Y100.280 F600.000 E25.47976
G1 X109.720 Y109.720 E25.55464
G1 X100.280 Y109.720 E25.62953
G1 X100.280 Y100.364 E25.70375
G1 Z8.700 F5400.000
G1 X100.280 Y100.280
G1 X109.720 Y100.280 F600.000 E25.77864
G1 X109.720 Y109.720 E25.85353
G1 X100.280 Y109.720 E25.92841
G1 X100.280 Y100.364 E26.00263
G1 Z8.800 F5400.000
G1 X100.280 Y100.280
G1 X109.720 Y100.280 F600.000 E26.07752
G1 X109.720 Y109.720 E26.15241
G1 X100.280 Y109.720 E26.22729
G1 X100.280 Y100.364 E26.30151
G1 Z8.900 F5400.000
G1 X100.280 Y100.280
G1 X109.720 Y100.280 F600.000 E26.37640
G1 X109.720 Y109.720 E26.45129
G1 X100.280 Y109.720 E26.52617
