; generated by Slic3r 0.7.2b on 2012-06-19 at 21:27:25

; layer_height = 0.2
; perimeters = 2
; solid_layers = 15
; fill_density = 0
; nozzle_diameter = 0.4
; filament_diameter = 2.94
; extrusion_multiplier = 1
; perimeter_speed = 30
; infill_speed = 60
; travel_speed = 90
; extrusion_width_ratio = 0
; scale = 1
; single wall width = 0.56mm

M104 S190 ; set temperature
M92 X78.7402 Y78.7402 E926 ;Set the right speed
G28 ;home all axes
M106 ;turn fan on
M109 S190 ; wait for temperature to be reached
G90 ; use absolute coordinates
G21 ; set units to millimeters
G92 E0 ; reset extrusion distance
M82 ; use absolute distances for extrusion
M106 S254
G1 Z0.200 F5400.000
G1 X98.436 Y95.966
G1
G1 X101.549 Y94.380 F540.000 E0.05411
G1 X105.000 Y93.833 E0.10821
G1 X108.451 Y94.380 E0.16232
G1 X111.564 Y95.966 E0.21642
G1 X114.034 Y98.436 E0.27053
G1 X115.620 Y101.549 E0.32464
G1 X116.167 Y105.000 E0.37874
G1 X115.620 Y108.451 E0.43285
G1 X114.034 Y111.564 E0.48695
G1 X111.564 Y114.034 E0.54106
G1 X108.451 Y115.620 E0.59517
G1 X105.000 Y116.167 E0.64927
G1 X101.549 Y115.620 E0.70338
G1 X98.436 Y114.034 E0.75749
G1 X95.966 Y111.564 E0.81159
G1 X94.380 Y108.451 E0.86570
G1 X93.833 Y105.000 E0.91980
G1 X94.380 Y101.549 E0.97391
G1 X95.966 Y98.436 E1.02802
G1 X98.377 Y96.025 E1.08082
G1 X98.140 Y95.559 F5400.000
G1 X101.394 Y93.901 F540.000 E1.13737
G1 X105.000 Y93.330 E1.19391
G1 X108.606 Y93.901 E1.25046
G1 X111.860 Y95.559 E1.30700
G1 X114.441 Y98.140 E1.36355
G1 X116.099 Y101.394 E1.42009
G1 X116.670 Y105.000 E1.47664
G1 X116.099 Y108.606 E1.53318
G1 X114.441 Y111.860 E1.58973
G1 X111.860 Y114.441 E1.64627
G1 X108.606 Y116.099 E1.70282
G1 X105.000 Y116.670 E1.75936
G1 X101.394 Y116.099 E1.81591
G1 X98.140 Y114.441 E1.87245
G1 X95.559 Y111.860 E1.92900
G1 X93.901 Y108.606 E1.98554
G1 X93.330 Y105.000 E2.04209
G1 X93.901 Y101.394 E2.09863
G1 X95.559 Y98.140 E2.15518
G1 X98.081 Y95.618 E2.21042
G1 X96.800 Y92.392 F5400.000
G1 X94.025 Y88.572 F540.000 E2.28354
G1 X98.161 Y86.465 E2.35541
G1 X99.620 Y90.956 E2.42853
G1 X105.777 Y89.980 E2.52508
G1 X105.777 Y85.259 E2.59820
G1 X110.361 Y85.985 E2.67007
G1 X108.902 Y90.475 E2.74319
G1 X114.457 Y93.306 E2.83974
G1 X117.232 Y89.486 E2.91286
G1 X120.514 Y92.768 E2.98473
G1 X116.694 Y95.543 E3.05785
G1 X119.525 Y101.098 E3.15440
G1 X124.015 Y99.639 E3.22752
G1 X124.741 Y104.223 E3.29939
G1 X120.020 Y104.223 E3.37251
G1 X119.044 Y110.380 E3.46906
G1 X123.535 Y111.839 E3.54218
G1 X121.428 Y115.975 E3.61405
G1 X117.608 Y113.200 E3.68717
G1 X113.200 Y117.608 E3.78372
G1 X115.975 Y121.428 E3.85683
G1 X111.839 Y123.535 E3.92871
G1 X110.380 Y119.044 E4.00183
G1 X104.223 Y120.020 E4.09838
G1 X104.223 Y124.741 E4.17149
G1 X99.639 Y124.015 E4.24337
G1 X101.098 Y119.525 E4.31649
G1 X95.543 Y116.694 E4.41304
G1 X92.768 Y120.514 E4.48615
G1 X89.486 Y117.232 E4.55803
G1 X93.306 Y114.457 E4.63115
G1 X90.475 Y108.902 E4.72769
G1 X85.985 Y110.361 E4.80081
G1 X85.259 Y105.777 E4.87269
G1 X89.980 Y105.777 E4.94581
G1 X90.956 Y99.620 E5.04235
G1 X86.465 Y98.161 E5.11547
G1 X88.572 Y94.025 E5.18735
G1 X92.392 Y96.800 E5.26046
G1 X96.741 Y92.451 E5.35571
G1 X96.149 Y92.341 F5400.000
G1 X93.281 Y88.394 F540.000 E5.43127
G1 X98.454 Y85.758 E5.52117
G1 X99.961 Y90.398 E5.59673
G1 X105.280 Y89.556 E5.68013
G1 X105.280 Y84.677 E5.75568
G1 X111.014 Y85.585 E5.84559
G1 X109.506 Y90.225 E5.92115
G1 X114.304 Y92.670 E6.00454
G1 X117.172 Y88.723 E6.08010
G1 X121.277 Y92.828 E6.17000
G1 X117.330 Y95.696 E6.24556
G1 X119.775 Y100.494 E6.32896
G1 X124.415 Y98.986 E6.40451
G1 X125.323 Y104.720 E6.49442
G1 X120.444 Y104.720 E6.56998
G1 X119.602 Y110.039 E6.65337
G1 X124.242 Y111.546 E6.72893
G1 X121.606 Y116.719 E6.81883
G1 X117.659 Y113.851 E6.89439
G1 X113.851 Y117.659 E6.97779
G1 X116.719 Y121.606 E7.05334
G1 X111.546 Y124.242 E7.14325
G1 X110.039 Y119.602 E7.21881
G1 X104.720 Y120.444 E7.30220
G1 X104.720 Y125.323 E7.37776
G1 X98.986 Y124.415 E7.46766
G1 X100.494 Y119.775 E7.54322
G1 X95.696 Y117.330 E7.62662
G1 X92.828 Y121.277 E7.70217
G1 X88.723 Y117.172 E7.79208
G1 X92.670 Y114.304 E7.86764
G1 X90.225 Y109.506 E7.95103
G1 X85.585 Y111.014 E8.02659
G1 X84.677 Y105.280 E8.11649
G1 X89.556 Y105.280 E8.19205
G1 X90.398 Y99.961 E8.27545
G1 X85.758 Y98.454 E8.35100
G1 X88.394 Y93.281 E8.44091
G1 X92.341 Y96.149 E8.51647
G1 X96.089 Y92.400 E8.59856
G1 X98.387 Y91.993 F5400.000
G1 X97.281 Y88.588 F1080.000 E8.65408
G1 X96.260 Y89.109 E8.67186
G1 X98.413 Y92.073 E8.72868
G1 X104.917 Y91.832 F5400.000
G1 X100.927 Y92.464 F1080.000 E8.79133
G1 X97.252 Y94.336 E8.85529
G1 X94.336 Y97.252 E8.91924
G1 X92.464 Y100.927 E8.98320
G1 X91.819 Y105.000 E9.04715
G1 X92.464 Y109.073 E9.11111
G1 X94.336 Y112.748 E9.17506
G1 X97.252 Y115.664 E9.23902
G1 X100.927 Y117.536 E9.30297
G1 X105.000 Y118.181 E9.36693
G1 X109.073 Y117.536 E9.43088
G1 X112.748 Y115.664 E9.49484
G1 X115.664 Y112.748 E9.55879
G1 X117.536 Y109.073 E9.62275
G1 X118.181 Y105.000 E9.68670
G1 X117.536 Y100.927 E9.75066
G1 X115.664 Y97.252 E9.81461
G1 X112.748 Y94.336 E9.87857
G1 X109.073 Y92.464 E9.94252
G1 X105.000 Y91.819 E10.00648
G1 X105.000 Y92.323 F5400.000
G1 X108.918 Y92.943 F1080.000 E10.06799
G1 X112.452 Y94.744 E10.12950
G1 X115.256 Y97.548 E10.19101
G1 X117.057 Y101.082 E10.25252
G1 X117.677 Y105.000 E10.31403
G1 X117.057 Y108.918 E10.37554
G1 X115.256 Y112.452 E10.43705
G1 X112.452 Y115.256 E10.49856
G1 X108.918 Y117.057 E10.56007
G1 X105.000 Y117.677 E10.62158
G1 X101.082 Y117.057 E10.68309
G1 X97.548 Y115.256 E10.74460
G1 X94.744 Y112.452 E10.80611
G1 X92.943 Y108.918 E10.86763
G1 X92.323 Y105.000 E10.92914
G1 X92.943 Y101.082 E10.99065
G1 X94.744 Y97.548 E11.05216
G1 X97.548 Y94.744 E11.11367
G1 X101.082 Y92.943 E11.17518
G1 X104.917 Y92.336 E11.23539
G1 X105.000 Y92.826 F5400.000
G1 X108.762 Y93.422 F1080.000 E11.29445
G1 X112.155 Y95.151 E11.35352
G1 X114.849 Y97.845 E11.41258
G1 X116.578 Y101.238 E11.47165
G1 X117.174 Y105.000 E11.53071
G1 X116.578 Y108.762 E11.58978
G1 X114.849 Y112.155 E11.64885
G1 X112.155 Y114.849 E11.70791
G1 X108.762 Y116.578 E11.76698
G1 X105.000 Y117.174 E11.82604
G1 X101.238 Y116.578 E11.88511
G1 X97.845 Y114.849 E11.94418
G1 X95.151 Y112.155 E12.00324
G1 X93.422 Y108.762 E12.06231
G1 X92.826 Y105.000 E12.12137
G1 X93.422 Y101.238 E12.18044
G1 X95.151 Y97.845 E12.23951
G1 X97.845 Y95.151 E12.29857
G1 X101.238 Y93.422 E12.35764
G1 X104.917 Y92.840 E12.41540
G1 X107.270 Y90.670 F5400.000
G1 X107.270 Y87.006 F1080.000 E12.47222
G1 X108.402 Y87.186 E12.49000
G1 X107.296 Y90.591 E12.54552
G1 X115.259 Y94.741 F5400.000
G1 X117.412 Y91.777 F1080.000 E12.60234
G1 X118.223 Y92.588 E12.62012
G1 X115.327 Y94.692 E12.67564
G1 X119.330 Y102.730 F5400.000
G1 X122.814 Y101.598 F1080.000 E12.73246
G1 X122.994 Y102.730 E12.75024
G1 X119.414 Y102.730 E12.80576
G1 X118.500 Y110.639 F5400.000
G1 X119.595 Y103.726 F1080.000 E12.91430
G1 X124.159 Y103.726 E12.98508
G1 X123.615 Y100.292 E13.03900
G1 X119.274 Y101.702 E13.10978
G1 X116.059 Y95.390 E13.21963
G1 X119.751 Y92.708 E13.29041
G1 X117.292 Y90.249 E13.34433
G1 X114.610 Y93.941 E13.41511
G1 X108.298 Y90.726 E13.52496
G1 X109.708 Y86.385 E13.59574
G1 X106.274 Y85.841 E13.64966
G1 X106.274 Y90.405 E13.72044
G1 X99.278 Y91.513 E13.83029
G1 X97.868 Y87.173 E13.90107
G1 X94.770 Y88.751 E13.95499
G1 X97.452 Y92.443 E14.02576
G1 X92.443 Y97.452 E14.13562
G1 X88.751 Y94.770 E14.20639
G1 X87.173 Y97.868 E14.26031
G1 X91.513 Y99.278 E14.33109
G1 X90.405 Y106.274 E14.44094
G1 X85.841 Y106.274 E14.51172
G1 X86.385 Y109.708 E14.56564
G1 X90.726 Y108.298 E14.63642
G1 X93.941 Y114.610 E14.74627
G1 X90.249 Y117.292 E14.81705
G1 X92.708 Y119.751 E14.87097
G1 X95.390 Y116.059 E14.94175
G1 X101.702 Y119.274 E15.05160
G1 X100.292 Y123.615 E15.12238
G1 X103.726 Y124.159 E15.17630
G1 X103.726 Y119.595 E15.24708
G1 X110.722 Y118.487 E15.35693
G1 X112.132 Y122.827 E15.42771
G1 X115.230 Y121.249 E15.48163
G1 X112.548 Y117.557 E15.55240
G1 X117.557 Y112.548 E15.66226
G1 X121.249 Y115.230 E15.73303
G1 X122.827 Y112.132 E15.78695
G1 X118.487 Y110.722 E15.85773
G1 X117.942 Y110.981 F5400.000
G1 X119.170 Y103.228 F1080.000 E15.97946
G1 X123.576 Y103.228 E16.04780
G1 X123.215 Y100.945 E16.08365
G1 X119.024 Y102.306 E16.15198
G1 X115.422 Y95.238 E16.27501
G1 X118.987 Y92.648 E16.34335
G1 X117.352 Y91.013 E16.37920
G1 X114.762 Y94.578 E16.44753
G1 X107.694 Y90.976 E16.57056
G1 X109.055 Y86.785 E16.63890
G1 X106.772 Y86.424 E16.67474
G1 X106.772 Y90.830 E16.74308
G1 X98.936 Y92.071 E16.86611
G1 X97.574 Y87.881 E16.93444
G1 X95.515 Y88.930 E16.97029
G1 X98.105 Y92.495 E17.03863
G1 X92.495 Y98.105 E17.16166
G1 X88.930 Y95.515 E17.22999
G1 X87.881 Y97.574 E17.26584
G1 X92.071 Y98.936 E17.33418
G1 X90.830 Y106.772 E17.45721
G1 X86.424 Y106.772 E17.52554
G1 X86.785 Y109.055 E17.56139
G1 X90.976 Y107.694 E17.62973
G1 X94.578 Y114.762 E17.75276
G1 X91.013 Y117.352 E17.82109
G1 X92.648 Y118.987 E17.85694
G1 X95.238 Y115.422 E17.92528
G1 X102.306 Y119.024 E18.04831
G1 X100.945 Y123.215 E18.11664
G1 X103.228 Y123.576 E18.15249
G1 X103.228 Y119.170 E18.22082
G1 X111.064 Y117.929 E18.34386
G1 X112.426 Y122.119 E18.41219
G1 X114.485 Y121.070 E18.44804
G1 X111.895 Y117.505 E18.51637
G1 X117.505 Y111.895 E18.63941
G1 X121.070 Y114.485 E18.70774
G1 X122.119 Y112.426 E18.74359
G1 X117.929 Y111.064 E18.81192
G1 X117.927 Y111.587 F5400.000
G1 X121.412 Y112.719 F1080.000 E18.86874
G1 X120.891 Y113.740 E18.88652
G1 X117.995 Y111.636 E18.94204
G1 X111.370 Y117.327 F5400.000
G1 X117.386 Y111.311 F1080.000 E19.07397
G1 X118.730 Y102.825 E19.20721
G1 X114.830 Y95.170 E19.34044
G1 X107.175 Y91.270 E19.47368
G1 X98.689 Y92.614 E19.60691
G1 X92.614 Y98.689 E19.74015
G1 X91.270 Y107.175 E19.87338
G1 X95.170 Y114.830 E20.00661
G1 X102.825 Y118.730 E20.13985
G1 X111.311 Y117.386 E20.27308
G1 X111.587 Y117.927 F5400.000
G1 X113.740 Y120.891 F1080.000 E20.32990
G1 X112.719 Y121.412 E20.34768
G1 X111.613 Y118.007 E20.40320
G1 X102.730 Y119.330 F5400.000
G1 X102.730 Y122.994 F1080.000 E20.46002
G1 X101.598 Y122.814 E20.47780
G1 X102.704 Y119.409 E20.53332
G1 X94.741 Y115.259 F5400.000
G1 X92.588 Y118.223 F1080.000 E20.59014
G1 X91.777 Y117.413 E20.60792
G1 X94.673 Y115.308 E20.66344
G1 X90.670 Y107.270 F5400.000
G1 X87.186 Y108.402 F1080.000 E20.72026
G1 X87.006 Y107.270 E20.73804
G1 X90.586 Y107.270 E20.79355
G1 X92.073 Y98.413 F5400.000
G1 X88.588 Y97.281 F1080.000 E20.85038
G1 X89.109 Y96.260 E20.86815
G1 X92.005 Y98.364 E20.92367
M106 S254
G1 Z0.400 F5400.000
G1 X95.966 Y98.436
G1 X98.436 Y95.966 F1800.000 E20.97778
G1 X101.549 Y94.380 E21.03188
G1 X105.000 Y93.833 E21.08599
G1 X108.451 Y94.380 E21.14010
G1 X111.564 Y95.966 E21.19420
G1 X114.034 Y98.436 E21.24831
G1 X115.620 Y101.549 E21.30241
G1 X116.167 Y105.000 E21.35652
G1 X115.620 Y108.451 E21.41063
G1 X114.034 Y111.564 E21.46473
G1 X111.564 Y114.034 E21.51884
G1 X108.451 Y115.620 E21.57294
G1 X105.000 Y116.167 E21.62705
G1 X101.549 Y115.620 E21.68116
G1 X98.436 Y114.034 E21.73526
G1 X95.966 Y111.564 E21.78937
G1 X94.380 Y108.451 E21.84347
G1 X93.833 Y105.000 E21.89758
G1 X94.380 Y101.549 E21.95169
G1 X95.928 Y98.511 E22.00449
G1 X95.559 Y98.140 F5400.000
G1 X98.140 Y95.559 F1800.000 E22.06104
G1 X101.394 Y93.901 E22.11758
G1 X105.000 Y93.330 E22.17413
G1 X108.606 Y93.901 E22.23067
G1 X111.860 Y95.559 E22.28722
G1 X114.441 Y98.140 E22.34376
G1 X116.099 Y101.394 E22.40031
G1 X116.670 Y105.000 E22.45685
G1 X116.099 Y108.606 E22.51340
G1 X114.441 Y111.860 E22.56994
G1 X111.860 Y114.441 E22.62649
G1 X108.606 Y116.099 E22.68303
G1 X105.000 Y116.670 E22.73958
G1 X101.394 Y116.099 E22.79612
G1 X98.140 Y114.441 E22.85267
G1 X95.559 Y111.860 E22.90921
G1 X93.901 Y108.606 E22.96576
G1 X93.330 Y105.000 E23.02230
G1 X93.901 Y101.394 E23.07885
G1 X95.520 Y98.215 E23.13409
G1 X92.392 Y96.800 F5400.000
G1 X96.800 Y92.392 F1800.000 E23.23064
G1 X94.025 Y88.572 E23.30376
G1 X98.161 Y86.465 E23.37563
G1 X99.620 Y90.956 E23.44875
G1 X105.777 Y89.980 E23.54530
G1 X105.777 Y85.259 E23.61842
G1 X110.361 Y85.985 E23.69029
G1 X108.902 Y90.475 E23.76341
G1 X114.457 Y93.306 E23.85996
G1 X117.232 Y89.486 E23.93308
G1 X120.514 Y92.768 E24.00495
G1 X116.694 Y95.543 E24.07807
G1 X119.525 Y101.098 E24.17462
G1 X124.015 Y99.639 E24.24774
G1 X124.741 Y104.223 E24.31961
G1 X120.020 Y104.223 E24.39273
G1 X119.044 Y110.380 E24.48928
G1 X123.535 Y111.839 E24.56240
G1 X121.428 Y115.975 E24.63427
G1 X117.608 Y113.200 E24.70739
G1 X113.200 Y117.608 E24.80394
G1 X115.975 Y121.428 E24.87705
G1 X111.839 Y123.535 E24.94893
G1 X110.380 Y119.044 E25.02205
G1 X104.223 Y120.020 E25.11860
G1 X104.223 Y124.741 E25.19171
G1 X99.639 Y124.015 E25.26359
G1 X101.098 Y119.525 E25.33671
G1 X95.543 Y116.694 E25.43326
G1 X92.768 Y120.514 E25.50637
G1 X89.486 Y117.232 E25.57825
G1 X93.306 Y114.457 E25.65137
G1 X90.475 Y108.902 E25.74791
G1 X85.985 Y110.361 E25.82103
G1 X85.259 Y105.777 E25.89291
G1 X89.980 Y105.777 E25.96603
G1 X90.956 Y99.620 E26.06257
G1 X86.465 Y98.161 E26.13569
G1 X88.572 Y94.025 E26.20757
G1 X92.324 Y96.751 E26.27938
G1 X92.341 Y96.149 F5400.000
G1 X96.149 Y92.341 F1800.000 E26.36278
G1 X93.281 Y88.394 E26.43834
G1 X98.454 Y85.758 E26.52824
G1 X99.961 Y90.398 E26.60380
G1 X105.280 Y89.556 E26.68720
G1 X105.280 Y84.677 E26.76275
G1 X111.014 Y85.585 E26.85266
G1 X109.506 Y90.225 E26.92821
G1 X114.304 Y92.670 E27.01161
G1 X117.172 Y88.723 E27.08717
G1 X121.277 Y92.828 E27.17707
G1 X117.330 Y95.696 E27.25263
G1 X119.775 Y100.494 E27.33603
G1 X124.415 Y98.986 E27.41158
G1 X125.323 Y104.720 E27.50149
G1 X120.444 Y104.720 E27.57704
G1 X119.602 Y110.039 E27.66044
G1 X124.242 Y111.546 E27.73600
G1 X121.606 Y116.719 E27.82590
G1 X117.659 Y113.851 E27.90146
G1 X113.851 Y117.659 E27.98486
G1 X116.719 Y121.606 E28.06041
G1 X111.546 Y124.242 E28.15032
G1 X110.039 Y119.602 E28.22587
G1 X104.720 Y120.444 E28.30927
G1 X104.720 Y125.323 E28.38483
G1 X98.986 Y124.415 E28.47473
G1 X100.494 Y119.775 E28.55029
G1 X95.696 Y117.330 E28.63369
G1 X92.828 Y121.277 E28.70924
G1 X88.723 Y117.172 E28.79915
G1 X92.670 Y114.304 E28.87470
G1 X90.225 Y109.506 E28.95810
G1 X85.585 Y111.014 E29.03366
G1 X84.677 Y105.280 E29.12356
G1 X89.556 Y105.280 E29.19912
G1 X90.398 Y99.961 E29.28252
G1 X85.758 Y98.454 E29.35807
G1 X88.394 Y93.281 E29.44798
G1 X92.273 Y96.099 E29.52223
G1 X92.105 Y97.044 F5400.000
G1 X87.368 Y97.044 F3600.000 E29.59561
G1 X87.115 Y97.541 F5400.000
G1 X95.679 Y97.541 F3600.000 E29.72827
G1 X95.277 Y98.039 F5400.000
G1 X87.474 Y98.039 F3600.000 E29.84914
G1 X87.622 Y96.547 F5400.000
G1 X91.421 Y96.547 F3600.000 E29.90799
G1 X90.737 Y96.050 F5400.000
G1 X87.875 Y96.050 F3600.000 E29.95232
G1 X88.128 Y95.552 F5400.000
G1 X90.052 Y95.552 F3600.000 E29.98211
G1 X89.368 Y95.055 F5400.000
G1 X88.382 Y95.055 F3600.000 E29.99739
G1 X89.005 Y98.536 F5400.000
G1 X95.023 Y98.536 F3600.000 E30.09062
G1 X94.770 Y99.033 F5400.000
G1 X90.535 Y99.033 F3600.000 E30.15622
G1 X91.249 Y99.531 F5400.000
G1 X94.517 Y99.531 F3600.000 E30.20684
G1 X94.263 Y100.028 F5400.000
G1 X91.170 Y100.028 F3600.000 E30.25475
G1 X91.092 Y100.525 F5400.000
G1 X94.010 Y100.525 F3600.000 E30.29995
G1 X93.756 Y101.022 F5400.000
G1 X91.013 Y101.022 F3600.000 E30.34245
G1 X90.934 Y101.520 F5400.000
G1 X93.602 Y101.520 F3600.000 E30.38377
G1 X93.523 Y102.017 F5400.000
G1 X90.855 Y102.017 F3600.000 E30.42509
G1 X90.777 Y102.514 F5400.000
G1 X93.444 Y102.514 F3600.000 E30.46642
G1 X93.366 Y103.011 F5400.000
G1 X90.698 Y103.011 F3600.000 E30.50774
G1 X90.619 Y103.509 F5400.000
G1 X93.287 Y103.509 F3600.000 E30.54906
G1 X93.208 Y104.006 F5400.000
G1 X90.540 Y104.006 F3600.000 E30.59039
G1 X90.462 Y104.503 F5400.000
G1 X93.129 Y104.503 F3600.000 E30.63171
G1 X93.050 Y105.000 F5400.000
G1 X90.383 Y105.000 F3600.000 E30.67303
G1 X90.304 Y105.498 F5400.000
G1 X93.129 Y105.498 F3600.000 E30.71679
G1 X93.208 Y105.995 F5400.000
G1 X90.225 Y105.995 F3600.000 E30.76300
G1 X90.387 Y108.481 F5400.000
G1 X85.967 Y108.481 F3600.000 E30.83148
G1 X86.045 Y108.978 F5400.000
G1 X88.857 Y108.978 F3600.000 E30.87503
G1 X87.327 Y109.475 F5400.000
G1 X86.124 Y109.475 F3600.000 E30.89366
