; generated by Slic3r 0.7.2b on 2012-06-06 at 21:22:04

; layer_height = 0.1
; perimeters = 2
; solid_layers = 0
; fill_density = 0
; nozzle_diameter = 0.4
; filament_diameter = 2.94
; extrusion_multiplier = 1
; perimeter_speed = 20
; infill_speed = 30
; travel_speed = 90
; extrusion_width_ratio = 0
; scale = 1
; single wall width = 0.56mm

M104 S180 ; set temperature
M92 X78.7402 Y78.7402 E926 ;Set the right speed
G28 ;home all axes
M106 ;turn fan on
M109 S180 ; wait for temperature to be reached
G90 ; use absolute coordinates
G21 ; set units to millimeters
G92 E0 ; reset extrusion distance
M82 ; use absolute distances for extrusion
M106 S254
G1 Z0.100 F5400.000
G1 X94.957 Y96.283
G1
G1 X100.135 Y92.708 F360.000 E0.04991
G1 X106.381 Y91.950 E0.09983
G1 X112.264 Y94.181 E0.14974
G1 X116.437 Y98.891 E0.19966
G1 X117.943 Y105.000 E0.24957
G1 X116.437 Y111.109 E0.29949
G1 X112.264 Y115.819 E0.34940
G1 X106.381 Y118.050 E0.39931
G1 X100.135 Y117.292 E0.44923
G1 X94.957 Y113.717 E0.49914
G1 X92.033 Y108.146 E0.54906
G1 X92.033 Y101.854 E0.59897
G1 X94.918 Y96.357 E0.64822
G1 X94.533 Y95.908 F5400.000
G1 X99.934 Y92.179 F360.000 E0.70028
G1 X106.449 Y91.388 E0.75234
G1 X112.586 Y93.716 E0.80441
G1 X116.938 Y98.628 E0.85647
G1 X118.508 Y105.000 E0.90853
G1 X116.938 Y111.372 E0.96059
G1 X112.586 Y116.284 E1.01266
G1 X106.449 Y118.612 E1.06472
G1 X99.934 Y117.821 E1.11678
G1 X94.533 Y114.092 E1.16884
G1 X91.483 Y108.281 E1.22090
G1 X91.483 Y101.719 E1.27297
G1 X94.494 Y95.982 E1.32436
G1 Z0.200 F5400.000
G1 X94.957 Y96.283
G1 X100.135 Y92.708 F1200.000 E1.37428
G1 X106.381 Y91.950 E1.42419
G1 X112.264 Y94.181 E1.47411
G1 X116.437 Y98.891 E1.52402
G1 X117.943 Y105.000 E1.57393
G1 X116.437 Y111.109 E1.62385
G1 X112.264 Y115.819 E1.67376
G1 X106.381 Y118.050 E1.72368
G1 X100.135 Y117.292 E1.77359
G1 X94.957 Y113.717 E1.82351
G1 X92.033 Y108.146 E1.87342
G1 X92.033 Y101.854 E1.92333
G1 X94.918 Y96.357 E1.97258
G1 X94.533 Y95.908 F5400.000
G1 X99.934 Y92.179 F1200.000 E2.02464
G1 X106.449 Y91.388 E2.07671
G1 X112.586 Y93.716 E2.12877
G1 X116.938 Y98.628 E2.18083
G1 X118.508 Y105.000 E2.23289
G1 X116.938 Y111.372 E2.28496
G1 X112.586 Y116.284 E2.33702
G1 X106.449 Y118.612 E2.38908
G1 X99.934 Y117.821 E2.44114
G1 X94.533 Y114.092 E2.49321
G1 X91.483 Y108.281 E2.54527
G1 X91.483 Y101.719 E2.59733
G1 X94.494 Y95.982 E2.64873
G1 Z0.300 F5400.000
G1 X94.957 Y96.283
G1 X100.135 Y92.708 F1200.000 E2.69864
G1 X106.381 Y91.950 E2.74855
G1 X112.264 Y94.181 E2.79847
G1 X116.437 Y98.891 E2.84838
G1 X117.943 Y105.000 E2.89830
G1 X116.437 Y111.109 E2.94821
G1 X112.264 Y115.819 E2.99813
G1 X106.381 Y118.050 E3.04804
G1 X100.135 Y117.292 E3.09795
G1 X94.957 Y113.717 E3.14787
G1 X92.033 Y108.146 E3.19778
G1 X92.033 Y101.854 E3.24770
G1 X94.918 Y96.357 E3.29695
G1 X94.533 Y95.908 F5400.000
G1 X99.934 Y92.179 F1200.000 E3.34901
G1 X106.449 Y91.388 E3.40107
G1 X112.586 Y93.716 E3.45313
G1 X116.938 Y98.628 E3.50519
G1 X118.508 Y105.000 E3.55726
G1 X116.938 Y111.372 E3.60932
G1 X112.586 Y116.284 E3.66138
G1 X106.449 Y118.612 E3.71344
G1 X99.934 Y117.821 E3.76551
G1 X94.533 Y114.092 E3.81757
G1 X91.483 Y108.281 E3.86963
G1 X91.483 Y101.719 E3.92169
G1 X94.494 Y95.982 E3.97309
G1 Z0.400 F5400.000
G1 X94.957 Y96.283
G1 X100.135 Y92.708 F1200.000 E4.02300
G1 X106.381 Y91.950 E4.07292
G1 X112.264 Y94.181 E4.12283
G1 X116.437 Y98.891 E4.17275
G1 X117.943 Y105.000 E4.22266
G1 X116.437 Y111.109 E4.27257
G1 X112.264 Y115.819 E4.32249
G1 X106.381 Y118.050 E4.37240
G1 X100.135 Y117.292 E4.42232
G1 X94.957 Y113.717 E4.47223
G1 X92.033 Y108.146 E4.52215
G1 X92.033 Y101.854 E4.57206
G1 X94.918 Y96.357 E4.62131
G1 X94.533 Y95.908 F5400.000
G1 X99.934 Y92.179 F1200.000 E4.67337
G1 X106.449 Y91.388 E4.72543
G1 X112.586 Y93.716 E4.77750
G1 X116.938 Y98.628 E4.82956
G1 X118.508 Y105.000 E4.88162
G1 X116.938 Y111.372 E4.93368
G1 X112.586 Y116.284 E4.98574
G1 X106.449 Y118.612 E5.03781
G1 X99.934 Y117.821 E5.08987
G1 X94.533 Y114.092 E5.14193
G1 X91.483 Y108.281 E5.19399
G1 X91.483 Y101.719 E5.24606
G1 X94.494 Y95.982 E5.29745
G1 Z0.500 F5400.000
G1 X94.957 Y96.283
G1 X100.135 Y92.708 F1200.000 E5.34737
G1 X106.381 Y91.950 E5.39728
G1 X112.264 Y94.181 E5.44719
G1 X116.437 Y98.891 E5.49711
G1 X117.943 Y105.000 E5.54702
G1 X116.437 Y111.109 E5.59694
G1 X112.264 Y115.819 E5.64685
G1 X106.381 Y118.050 E5.69677
G1 X100.135 Y117.292 E5.74668
G1 X94.957 Y113.717 E5.79659
G1 X92.033 Y108.146 E5.84651
G1 X92.033 Y101.854 E5.89642
G1 X94.918 Y96.357 E5.94567
G1 X94.533 Y95.908 F5400.000
G1 X99.934 Y92.179 F1200.000 E5.99773
G1 X106.449 Y91.388 E6.04980
G1 X112.586 Y93.716 E6.10186
G1 X116.938 Y98.628 E6.15392
G1 X118.508 Y105.000 E6.20598
G1 X116.938 Y111.372 E6.25805
G1 X112.586 Y116.284 E6.31011
G1 X106.449 Y118.612 E6.36217
G1 X99.934 Y117.821 E6.41423
G1 X94.533 Y114.092 E6.46629
G1 X91.483 Y108.281 E6.51836
G1 X91.483 Y101.719 E6.57042
G1 X94.494 Y95.982 E6.62181
G1 Z0.600 F5400.000
G1 X94.957 Y96.283
G1 X100.135 Y92.708 F1200.000 E6.67173
G1 X106.381 Y91.950 E6.72164
G1 X112.264 Y94.181 E6.77156
G1 X116.437 Y98.891 E6.82147
G1 X117.943 Y105.000 E6.87139
G1 X116.437 Y111.109 E6.92130
G1 X112.264 Y115.819 E6.97121
G1 X106.381 Y118.050 E7.02113
G1 X100.135 Y117.292 E7.07104
G1 X94.957 Y113.717 E7.12096
G1 X92.033 Y108.146 E7.17087
G1 X92.033 Y101.854 E7.22079
G1 X94.918 Y96.357 E7.27003
G1 X94.533 Y95.908 F5400.000
G1 X99.934 Y92.179 F1200.000 E7.32210
G1 X106.449 Y91.388 E7.37416
G1 X112.586 Y93.716 E7.42622
G1 X116.938 Y98.628 E7.47828
G1 X118.508 Y105.000 E7.53035
G1 X116.938 Y111.372 E7.58241
G1 X112.586 Y116.284 E7.63447
G1 X106.449 Y118.612 E7.68653
G1 X99.934 Y117.821 E7.73859
G1 X94.533 Y114.092 E7.79066
G1 X91.483 Y108.281 E7.84272
G1 X91.483 Y101.719 E7.89478
G1 X94.494 Y95.982 E7.94618
G1 Z0.700 F5400.000
G1 X94.957 Y96.283
G1 X100.135 Y92.708 F1200.000 E7.99609
G1 X106.381 Y91.950 E8.04601
G1 X112.264 Y94.181 E8.09592
G1 X116.437 Y98.891 E8.14583
G1 X117.943 Y105.000 E8.19575
G1 X116.437 Y111.109 E8.24566
G1 X112.264 Y115.819 E8.29558
G1 X106.381 Y118.050 E8.34549
G1 X100.135 Y117.292 E8.39541
G1 X94.957 Y113.717 E8.44532
G1 X92.033 Y108.146 E8.49524
G1 X92.033 Y101.854 E8.54515
G1 X94.918 Y96.357 E8.59440
G1 X94.533 Y95.908 F5400.000
G1 X99.934 Y92.179 F1200.000 E8.64646
G1 X106.449 Y91.388 E8.69852
G1 X112.586 Y93.716 E8.75058
G1 X116.938 Y98.628 E8.80265
G1 X118.508 Y105.000 E8.85471
G1 X116.938 Y111.372 E8.90677
G1 X112.586 Y116.284 E8.95883
G1 X106.449 Y118.612 E9.01090
G1 X99.934 Y117.821 E9.06296
G1 X94.533 Y114.092 E9.11502
G1 X91.483 Y108.281 E9.16708
G1 X91.483 Y101.719 E9.21914
G1 X94.494 Y95.982 E9.27054
G1 Z0.800 F5400.000
G1 X94.957 Y96.283
G1 X100.135 Y92.708 F1200.000 E9.32045
G1 X106.381 Y91.950 E9.37037
G1 X112.264 Y94.181 E9.42028
G1 X116.437 Y98.891 E9.47020
G1 X117.943 Y105.000 E9.52011
G1 X116.437 Y111.109 E9.57003
G1 X112.264 Y115.819 E9.61994
G1 X106.381 Y118.050 E9.66986
G1 X100.135 Y117.292 E9.71977
G1 X94.957 Y113.717 E9.76968
G1 X92.033 Y108.146 E9.81960
G1 X92.033 Y101.854 E9.86951
G1 X94.918 Y96.357 E9.91876
G1 X94.533 Y95.908 F5400.000
G1 X99.934 Y92.179 F1200.000 E9.97082
G1 X106.449 Y91.388 E10.02288
G1 X112.586 Y93.716 E10.07495
G1 X116.938 Y98.628 E10.12701
G1 X118.508 Y105.000 E10.17907
G1 X116.938 Y111.372 E10.23113
G1 X112.586 Y116.284 E10.28320
G1 X106.449 Y118.612 E10.33526
G1 X99.934 Y117.821 E10.38732
G1 X94.533 Y114.092 E10.43938
G1 X91.483 Y108.281 E10.49145
G1 X91.483 Y101.719 E10.54351
G1 X94.494 Y95.982 E10.59490
G1 Z0.900 F5400.000
G1 X94.957 Y96.283
G1 X100.135 Y92.708 F1200.000 E10.64482
G1 X106.381 Y91.950 E10.69473
G1 X112.264 Y94.181 E10.74465
G1 X116.437 Y98.891 E10.79456
G1 X117.943 Y105.000 E10.84448
G1 X116.437 Y111.109 E10.89439
G1 X112.264 Y115.819 E10.94430
G1 X106.381 Y118.050 E10.99422
G1 X100.135 Y117.292 E11.04413
G1 X94.957 Y113.717 E11.09405
G1 X92.033 Y108.146 E11.14396
G1 X92.033 Y101.854 E11.19388
G1 X94.918 Y96.357 E11.24312
G1 X94.533 Y95.908 F5400.000
G1 X99.934 Y92.179 F1200.000 E11.29519
G1 X106.449 Y91.388 E11.34725
G1 X112.586 Y93.716 E11.39931
G1 X116.938 Y98.628 E11.45137
G1 X118.508 Y105.000 E11.50343
G1 X116.938 Y111.372 E11.55550
G1 X112.586 Y116.284 E11.60756
G1 X106.449 Y118.612 E11.65962
G1 X99.934 Y117.821 E11.71168
G1 X94.533 Y114.092 E11.76375
G1 X91.483 Y108.281 E11.81581
G1 X91.483 Y101.719 E11.86787
G1 X94.494 Y95.982 E11.91927
G1 Z1.000 F5400.000
G1 X94.957 Y96.283
G1 X100.135 Y92.708 F1200.000 E11.96918
G1 X106.381 Y91.950 E12.01910
G1 X112.264 Y94.181 E12.06901
G1 X116.437 Y98.891 E12.11892
G1 X117.943 Y105.000 E12.16884
G1 X116.437 Y111.109 E12.21875
G1 X112.264 Y115.819 E12.26867
G1 X106.381 Y118.050 E12.31858
G1 X100.135 Y117.292 E12.36850
G1 X94.957 Y113.717 E12.41841
G1 X92.033 Y108.146 E12.46832
G1 X92.033 Y101.854 E12.51824
G1 X94.918 Y96.357 E12.56749
G1 X94.533 Y95.908 F5400.000
G1 X99.934 Y92.179 F1200.000 E12.61955
G1 X106.449 Y91.388 E12.67161
G1 X112.586 Y93.716 E12.72367
G1 X116.938 Y98.628 E12.77574
G1 X118.508 Y105.000 E12.82780
G1 X116.938 Y111.372 E12.87986
G1 X112.586 Y116.284 E12.93192
G1 X106.449 Y118.612 E12.98398
G1 X99.934 Y117.821 E13.03605
G1 X94.533 Y114.092 E13.08811
G1 X91.483 Y108.281 E13.14017
G1 X91.483 Y101.719 E13.19223
G1 X94.494 Y95.982 E13.24363
G1 Z1.100 F5400.000
G1 X94.957 Y96.283
G1 X100.135 Y92.708 F1200.000 E13.29354
G1 X106.381 Y91.950 E13.34346
G1 X112.264 Y94.181 E13.39337
G1 X116.437 Y98.891 E13.44329
G1 X117.943 Y105.000 E13.49320
G1 X116.437 Y111.109 E13.54312
G1 X112.264 Y115.819 E13.59303
G1 X106.381 Y118.050 E13.64294
G1 X100.135 Y117.292 E13.69286
G1 X94.957 Y113.717 E13.74277
G1 X92.033 Y108.146 E13.79269
G1 X92.033 Y101.854 E13.84260
G1 X94.918 Y96.357 E13.89185
G1 X94.533 Y95.908 F5400.000
G1 X99.934 Y92.179 F1200.000 E13.94391
G1 X106.449 Y91.388 E13.99597
G1 X112.586 Y93.716 E14.04804
G1 X116.938 Y98.628 E14.10010
G1 X118.508 Y105.000 E14.15216
G1 X116.938 Y111.372 E14.20422
G1 X112.586 Y116.284 E14.25629
G1 X106.449 Y118.612 E14.30835
G1 X99.934 Y117.821 E14.36041
G1 X94.533 Y114.092 E14.41247
G1 X91.483 Y108.281 E14.46453
G1 X91.483 Y101.719 E14.51660
G1 X94.494 Y95.982 E14.56799
G1 Z1.200 F5400.000
G1 X94.957 Y96.283
G1 X100.135 Y92.708 F1200.000 E14.61791
G1 X106.381 Y91.950 E14.66782
G1 X112.264 Y94.181 E14.71774
G1 X116.437 Y98.891 E14.76765
G1 X117.943 Y105.000 E14.81756
G1 X116.437 Y111.109 E14.86748
G1 X112.264 Y115.819 E14.91739
G1 X106.381 Y118.050 E14.96731
G1 X100.135 Y117.292 E15.01722
G1 X94.957 Y113.717 E15.06714
G1 X92.033 Y108.146 E15.11705
G1 X92.033 Y101.854 E15.16696
G1 X94.918 Y96.357 E15.21621
G1 X94.533 Y95.908 F5400.000
G1 X99.934 Y92.179 F1200.000 E15.26827
G1 X106.449 Y91.388 E15.32034
G1 X112.586 Y93.716 E15.37240
G1 X116.938 Y98.628 E15.42446
G1 X118.508 Y105.000 E15.47652
G1 X116.938 Y111.372 E15.52859
G1 X112.586 Y116.284 E15.58065
G1 X106.449 Y118.612 E15.63271
G1 X99.934 Y117.821 E15.68477
G1 X94.533 Y114.092 E15.73683
G1 X91.483 Y108.281 E15.78890
G1 X91.483 Y101.719 E15.84096
G1 X94.494 Y95.982 E15.89236
G1 Z1.300 F5400.000
G1 X94.957 Y96.283
G1 X100.135 Y92.708 F1200.000 E15.94227
G1 X106.381 Y91.950 E15.99218
G1 X112.264 Y94.181 E16.04210
G1 X116.437 Y98.891 E16.09201
G1 X117.943 Y105.000 E16.14193
G1 X116.437 Y111.109 E16.19184
G1 X112.264 Y115.819 E16.24176
G1 X106.381 Y118.050 E16.29167
G1 X100.135 Y117.292 E16.34158
G1 X94.957 Y113.717 E16.39150
G1 X92.033 Y108.146 E16.44141
G1 X92.033 Y101.854 E16.49133
G1 X94.918 Y96.357 E16.54058
G1 X94.533 Y95.908 F5400.000
G1 X99.934 Y92.179 F1200.000 E16.59264
G1 X106.449 Y91.388 E16.64470
G1 X112.586 Y93.716 E16.69676
G1 X116.938 Y98.628 E16.74882
G1 X118.508 Y105.000 E16.80089
G1 X116.938 Y111.372 E16.85295
G1 X112.586 Y116.284 E16.90501
G1 X106.449 Y118.612 E16.95707
G1 X99.934 Y117.821 E17.00914
G1 X94.533 Y114.092 E17.06120
G1 X91.483 Y108.281 E17.11326
G1 X91.483 Y101.719 E17.16532
G1 X94.494 Y95.982 E17.21672
G1 Z1.400 F5400.000
G1 X94.957 Y96.283
G1 X100.135 Y92.708 F1200.000 E17.26663
G1 X106.381 Y91.950 E17.31655
G1 X112.264 Y94.181 E17.36646
G1 X116.437 Y98.891 E17.41638
G1 X117.943 Y105.000 E17.46629
G1 X116.437 Y111.109 E17.51620
G1 X112.264 Y115.819 E17.56612
G1 X106.381 Y118.050 E17.61603
G1 X100.135 Y117.292 E17.66595
G1 X94.957 Y113.717 E17.71586
G1 X92.033 Y108.146 E17.76578
G1 X92.033 Y101.854 E17.81569
G1 X94.918 Y96.357 E17.86494
G1 X94.533 Y95.908 F5400.000
G1 X99.934 Y92.179 F1200.000 E17.91700
G1 X106.449 Y91.388 E17.96906
G1 X112.586 Y93.716 E18.02112
G1 X116.938 Y98.628 E18.07319
G1 X118.508 Y105.000 E18.12525
G1 X116.938 Y111.372 E18.17731
G1 X112.586 Y116.284 E18.22937
G1 X106.449 Y118.612 E18.28144
G1 X99.934 Y117.821 E18.33350
G1 X94.533 Y114.092 E18.38556
G1 X91.483 Y108.281 E18.43762
G1 X91.483 Y101.719 E18.48969
G1 X94.494 Y95.982 E18.54108
G1 Z1.500 F5400.000
G1 X94.957 Y96.283
G1 X100.135 Y92.708 F1200.000 E18.59100
G1 X106.381 Y91.950 E18.64091
G1 X112.264 Y94.181 E18.69082
G1 X116.437 Y98.891 E18.74074
G1 X117.943 Y105.000 E18.79065
G1 X116.437 Y111.109 E18.84057
G1 X112.264 Y115.819 E18.89048
G1 X106.381 Y118.050 E18.94040
G1 X100.135 Y117.292 E18.99031
G1 X94.957 Y113.717 E19.04022
G1 X92.033 Y108.146 E19.09014
G1 X92.033 Y101.854 E19.14005
G1 X94.918 Y96.357 E19.18930
G1 X94.533 Y95.908 F5400.000
G1 X99.934 Y92.179 F1200.000 E19.24136
G1 X106.449 Y91.388 E19.29343
G1 X112.586 Y93.716 E19.34549
G1 X116.938 Y98.628 E19.39755
G1 X118.508 Y105.000 E19.44961
G1 X116.938 Y111.372 E19.50167
G1 X112.586 Y116.284 E19.55374
G1 X106.449 Y118.612 E19.60580
G1 X99.934 Y117.821 E19.65786
G1 X94.533 Y114.092 E19.70992
G1 X91.483 Y108.281 E19.76199
G1 X91.483 Y101.719 E19.81405
G1 X94.494 Y95.982 E19.86544
G1 Z1.600 F5400.000
G1 X94.957 Y96.283
G1 X100.135 Y92.708 F1200.000 E19.91536
G1 X106.381 Y91.950 E19.96527
G1 X112.264 Y94.181 E20.01519
G1 X116.437 Y98.891 E20.06510
G1 X117.943 Y105.000 E20.11502
G1 X116.437 Y111.109 E20.16493
G1 X112.264 Y115.819 E20.21484
G1 X106.381 Y118.050 E20.26476
G1 X100.135 Y117.292 E20.31467
G1 X94.957 Y113.717 E20.36459
G1 X92.033 Y108.146 E20.41450
G1 X92.033 Y101.854 E20.46442
G1 X94.918 Y96.357 E20.51366
G1 X94.533 Y95.908 F5400.000
G1 X99.934 Y92.179 F1200.000 E20.56573
G1 X106.449 Y91.388 E20.61779
G1 X112.586 Y93.716 E20.66985
G1 X116.938 Y98.628 E20.72191
G1 X118.508 Y105.000 E20.77398
G1 X116.938 Y111.372 E20.82604
G1 X112.586 Y116.284 E20.87810
G1 X106.449 Y118.612 E20.93016
G1 X99.934 Y117.821 E20.98222
G1 X94.533 Y114.092 E21.03429
G1 X91.483 Y108.281 E21.08635
G1 X91.483 Y101.719 E21.13841
G1 X94.494 Y95.982 E21.18981
G1 Z1.700 F5400.000
G1 X94.957 Y96.283
G1 X100.135 Y92.708 F1200.000 E21.23972
G1 X106.381 Y91.950 E21.28964
G1 X112.264 Y94.181 E21.33955
G1 X116.437 Y98.891 E21.38946
G1 X117.943 Y105.000 E21.43938
G1 X116.437 Y111.109 E21.48929
G1 X112.264 Y115.819 E21.53921
G1 X106.381 Y118.050 E21.58912
G1 X100.135 Y117.292 E21.63904
G1 X94.957 Y113.717 E21.68895
G1 X92.033 Y108.146 E21.73886
G1 X92.033 Y101.854 E21.78878
G1 X94.918 Y96.357 E21.83803
G1 X94.533 Y95.908 F5400.000
G1 X99.934 Y92.179 F1200.000 E21.89009
G1 X106.449 Y91.388 E21.94215
G1 X112.586 Y93.716 E21.99421
G1 X116.938 Y98.628 E22.04628
G1 X118.508 Y105.000 E22.09834
G1 X116.938 Y111.372 E22.15040
G1 X112.586 Y116.284 E22.20246
G1 X106.449 Y118.612 E22.25453
G1 X99.934 Y117.821 E22.30659
G1 X94.533 Y114.092 E22.35865
G1 X91.483 Y108.281 E22.41071
G1 X91.483 Y101.719 E22.46277
G1 X94.494 Y95.982 E22.51417
G1 Z1.800 F5400.000
G1 X94.957 Y96.283
G1 X100.135 Y92.708 F1200.000 E22.56408
G1 X106.381 Y91.950 E22.61400
G1 X112.264 Y94.181 E22.66391
G1 X116.437 Y98.891 E22.71383
G1 X117.943 Y105.000 E22.76374
G1 X116.437 Y111.109 E22.81366
G1 X112.264 Y115.819 E22.86357
G1 X106.381 Y118.050 E22.91348
G1 X100.135 Y117.292 E22.96340
G1 X94.957 Y113.717 E23.01331
G1 X92.033 Y108.146 E23.06323
G1 X92.033 Y101.854 E23.11314
G1 X94.918 Y96.357 E23.16239
G1 X94.533 Y95.908 F5400.000
G1 X99.934 Y92.179 F1200.000 E23.21445
G1 X106.449 Y91.388 E23.26651
G1 X112.586 Y93.716 E23.31858
G1 X116.938 Y98.628 E23.37064
G1 X118.508 Y105.000 E23.42270
G1 X116.938 Y111.372 E23.47476
