; generated by Slic3r 0.7.2b on 2012-06-18 at 20:09:51

; layer_height = 0.2
; perimeters = 2
; solid_layers = 0
; fill_density = .5
; nozzle_diameter = 0.4
; filament_diameter = 2.94
; extrusion_multiplier = 1
; perimeter_speed = 30
; infill_speed = 60
; travel_speed = 90
; extrusion_width_ratio = 0
; scale = 1
; single wall width = 0.56mm

M104 S190 ; set temperature
M92 X78.7402 Y78.7402 E926 ;Set the right speed
G28 ;home all axes
M106 ;turn fan on
M109 S190 ; wait for temperature to be reached
G90 ; use absolute coordinates
G21 ; set units to millimeters
G92 E0 ; reset extrusion distance
M82 ; use absolute distances for extrusion
M106 S254
G1 Z0.200 F5400.000
G1 X95.477 Y107.582
G1
G1 X95.678 Y107.282 F540.000 E0.00559
G1 X95.951 Y107.045 E0.01118
G1 X96.276 Y106.889 E0.01676
G1 X96.629 Y106.821 E0.02234
G1 X96.986 Y106.846 E0.02787
G1 X97.328 Y106.962 E0.03348
G1 X97.626 Y107.166 E0.03906
G1 X97.862 Y107.437 E0.04463
G1 X98.018 Y107.759 E0.05017
G1 X98.088 Y108.114 E0.05577
G1 X98.060 Y108.472 E0.06132
G1 X97.945 Y108.813 E0.06690
G1 X97.743 Y109.110 E0.07247
G1 X97.472 Y109.346 E0.07804
G1 X97.147 Y109.505 E0.08363
G1 X96.792 Y109.573 E0.08924
G1 X96.435 Y109.545 E0.09478
G1 X96.097 Y109.430 E0.10032
G1 X95.796 Y109.228 E0.10592
G1 X95.562 Y108.956 E0.11148
G1 X95.405 Y108.633 E0.11704
G1 X95.334 Y108.280 E0.12262
G1 X95.362 Y107.920 E0.12821
G1 X95.450 Y107.661 E0.13245
G1 X95.028 Y107.359 F5400.000
G1 X94.871 Y107.819 F540.000 E0.13999
G1 X94.833 Y108.310 E0.14761
G1 X94.930 Y108.794 E0.15525
G1 X95.144 Y109.232 E0.16280
G1 X95.463 Y109.604 E0.17039
G1 X95.651 Y109.730 E0.17390
G1 X75.031 Y109.730 E0.49324
G1 X78.753 Y105.880 E0.57617
G1 X80.002 Y107.187 E0.60416
G1 X81.297 Y105.909 E0.63233
G1 X82.478 Y107.220 E0.65966
G1 X83.745 Y105.899 E0.68800
G1 X84.969 Y107.191 E0.71556
G1 X86.271 Y105.899 E0.74396
G1 X87.471 Y107.212 E0.77151
G1 X88.743 Y105.902 E0.79980
G1 X89.962 Y107.195 E0.82732
G1 X91.243 Y105.912 E0.85541
G1 X92.462 Y107.183 E0.88268
G1 X95.821 Y103.902 E0.95539
G1 X93.483 Y101.540 E1.00686
G1 X103.028 Y101.540 E1.15467
G1 X112.134 Y95.639 E1.32272
G1 X109.578 Y101.494 E1.42166
G1 X130.668 Y102.911 E1.74901
G1 X135.783 Y98.615 E1.85246
G1 X132.731 Y104.430 E1.95416
G1 X135.583 Y110.149 E2.05313
G1 X130.623 Y105.926 E2.15401
G1 X116.481 Y108.822 E2.37757
G1 X113.233 Y115.148 E2.48769
G1 X107.445 Y109.730 E2.61047
G1 X97.789 Y109.730 E2.76001
G1 X98.119 Y109.443 E2.76678
G1 X98.394 Y109.036 E2.77439
G1 X98.551 Y108.572 E2.78198
G1 X98.589 Y108.084 E2.78955
G1 X98.493 Y107.600 E2.79720
G1 X98.280 Y107.161 E2.80475
G1 X97.959 Y106.792 E2.81232
G1 X97.553 Y106.513 E2.81996
G1 X97.084 Y106.355 E2.82762
G1 X96.599 Y106.321 E2.83515
G1 X96.119 Y106.413 E2.84273
G1 X95.675 Y106.626 E2.85035
G1 X95.302 Y106.950 E2.85800
G1 X95.074 Y107.289 E2.86433
G1 X91.912 Y102.604 F5400.000
G1 X91.039 Y101.540 F540.000 E2.88564
G1 X92.884 Y101.540 E2.91422
G1 X91.968 Y102.542 E2.93524
G1 X90.371 Y101.540 F5400.000
G1 X89.411 Y102.598 F540.000 E2.95736
G1 X88.554 Y101.540 E2.97845
G1 X90.287 Y101.540 E3.00530
G1 X85.387 Y101.540 F5400.000
G1 X84.403 Y102.591 F540.000 E3.02759
G1 X83.512 Y101.540 E3.04892
G1 X85.303 Y101.540 E3.07664
G1 X86.033 Y101.540 F5400.000
G1 X87.882 Y101.540 F540.000 E3.10528
G1 X86.937 Y102.586 E3.12711
G1 X86.088 Y101.604 E3.14722
G1 X82.850 Y101.540 F5400.000
G1 X81.949 Y102.546 F540.000 E3.16813
G1 X81.026 Y101.540 E3.18927
G1 X82.766 Y101.540 E3.21621
G1 X83.180 Y101.917 F5400.000
G1 X81.953 Y103.286 F540.000 E3.24467
G1 X80.717 Y101.938 E3.27300
G1 X79.390 Y103.263 E3.30204
G1 X78.574 Y102.364 E3.32085
G1 X79.941 Y101.043 E3.35029
G1 X102.881 Y101.043 E3.70554
G1 X113.251 Y94.322 E3.89692
G1 X110.316 Y101.046 E4.01053
G1 X130.502 Y102.402 E4.32383
G1 X136.522 Y97.346 E4.44559
G1 X136.522 Y98.278 E4.46002
G1 X133.289 Y104.436 E4.56772
G1 X136.522 Y110.917 E4.67989
G1 X136.522 Y111.601 E4.69048
G1 X130.486 Y106.461 E4.81326
G1 X116.814 Y109.262 E5.02937
G1 X113.374 Y115.961 E5.14600
G1 X107.249 Y110.227 E5.27594
G1 X73.858 Y110.227 E5.79304
G1 X78.755 Y105.163 E5.90213
G1 X80.012 Y106.478 E5.93031
G1 X81.318 Y105.190 E5.95871
G1 X82.490 Y106.490 E5.98582
G1 X83.747 Y105.179 E6.01395
G1 X84.980 Y106.480 E6.04171
G1 X86.288 Y105.181 E6.07025
G1 X87.482 Y106.487 E6.09765
G1 X88.749 Y105.182 E6.12583
G1 X89.972 Y106.481 E6.15346
G1 X91.250 Y105.201 E6.18147
G1 X92.474 Y106.477 E6.20884
G1 X95.115 Y103.896 E6.26603
G1 X93.186 Y101.947 E6.30850
G1 X91.891 Y103.363 E6.33822
G1 X90.703 Y101.915 E6.36725
G1 X89.390 Y103.361 E6.39750
G1 X88.216 Y101.913 E6.42638
G1 X86.929 Y103.336 E6.45610
G1 X85.708 Y101.924 E6.48500
G1 X84.384 Y103.338 E6.51499
G1 X83.234 Y101.981 E6.54255
M106 S254
G1 Z0.400 F5400.000
G1 X95.477 Y107.582
G1 X95.678 Y107.282 F1800.000 E6.54813
G1 X95.951 Y107.045 E6.55373
G1 X96.276 Y106.889 E6.55931
G1 X96.629 Y106.821 E6.56489
G1 X96.986 Y106.846 E6.57042
G1 X97.328 Y106.962 E6.57602
G1 X97.626 Y107.166 E6.58161
G1 X97.862 Y107.437 E6.58717
G1 X98.018 Y107.759 E6.59271
G1 X98.088 Y108.114 E6.59832
G1 X98.060 Y108.472 E6.60387
G1 X97.945 Y108.813 E6.60944
G1 X97.743 Y109.110 E6.61501
G1 X97.472 Y109.346 E6.62058
G1 X97.147 Y109.505 E6.62618
G1 X96.792 Y109.573 E6.63178
G1 X96.435 Y109.545 E6.63732
G1 X96.097 Y109.430 E6.64286
G1 X95.796 Y109.228 E6.64846
G1 X95.562 Y108.956 E6.65402
G1 X95.405 Y108.633 E6.65959
G1 X95.334 Y108.280 E6.66517
G1 X95.362 Y107.920 E6.67076
G1 X95.450 Y107.661 E6.67500
G1 X95.028 Y107.359 F5400.000
G1 X94.871 Y107.819 F1800.000 E6.68253
G1 X94.833 Y108.310 E6.69016
G1 X94.930 Y108.794 E6.69779
G1 X95.144 Y109.232 E6.70535
G1 X95.463 Y109.604 E6.71294
G1 X95.651 Y109.730 E6.71644
G1 X75.031 Y109.730 E7.03579
G1 X78.753 Y105.880 E7.11872
G1 X80.002 Y107.187 E7.14670
G1 X81.297 Y105.909 E7.17488
G1 X82.478 Y107.220 E7.20221
G1 X83.745 Y105.899 E7.23055
G1 X84.969 Y107.191 E7.25811
G1 X86.271 Y105.899 E7.28651
G1 X87.471 Y107.212 E7.31406
G1 X88.743 Y105.902 E7.34235
G1 X89.962 Y107.195 E7.36987
G1 X91.243 Y105.912 E7.39795
G1 X92.462 Y107.183 E7.42523
G1 X95.821 Y103.902 E7.49793
G1 X93.483 Y101.540 E7.54940
G1 X103.028 Y101.540 E7.69722
G1 X112.134 Y95.639 E7.86526
G1 X109.578 Y101.494 E7.96421
G1 X130.668 Y102.911 E8.29156
G1 X135.783 Y98.615 E8.39501
G1 X132.731 Y104.430 E8.49671
G1 X135.583 Y110.149 E8.59567
G1 X130.623 Y105.926 E8.69655
G1 X116.481 Y108.822 E8.92012
G1 X113.233 Y115.148 E9.03023
G1 X107.445 Y109.730 E9.15301
G1 X97.789 Y109.730 E9.30255
G1 X98.119 Y109.443 E9.30932
G1 X98.394 Y109.036 E9.31694
G1 X98.551 Y108.572 E9.32452
G1 X98.589 Y108.084 E9.33209
G1 X98.493 Y107.600 E9.33974
G1 X98.280 Y107.161 E9.34730
G1 X97.959 Y106.792 E9.35487
G1 X97.553 Y106.513 E9.36250
G1 X97.084 Y106.355 E9.37016
G1 X96.599 Y106.321 E9.37769
G1 X96.119 Y106.413 E9.38527
G1 X95.675 Y106.626 E9.39290
G1 X95.302 Y106.950 E9.40055
G1 X95.074 Y107.289 E9.40687
G1 X91.912 Y102.604 F5400.000
G1 X91.039 Y101.540 F1800.000 E9.42819
G1 X92.884 Y101.540 E9.45677
G1 X91.968 Y102.542 E9.47779
G1 X90.371 Y101.540 F5400.000
G1 X89.411 Y102.598 F1800.000 E9.49991
G1 X88.554 Y101.540 E9.52100
G1 X90.287 Y101.540 E9.54784
G1 X85.386 Y101.540 F5400.000
G1 X84.403 Y102.591 F1800.000 E9.57012
G1 X83.512 Y101.540 E9.59145
G1 X85.302 Y101.540 E9.61916
G1 X86.032 Y101.540 F5400.000
G1 X87.882 Y101.540 F1800.000 E9.64781
G1 X86.937 Y102.586 E9.66965
G1 X86.087 Y101.604 E9.68976
G1 X82.850 Y101.540 F5400.000
G1 X81.949 Y102.546 F1800.000 E9.71067
G1 X81.026 Y101.540 E9.73181
G1 X82.766 Y101.540 E9.75875
G1 X83.180 Y101.917 F5400.000
G1 X81.953 Y103.286 F1800.000 E9.78722
G1 X80.717 Y101.938 E9.81554
G1 X79.390 Y103.263 E9.84458
G1 X78.574 Y102.364 E9.86339
G1 X79.941 Y101.043 E9.89284
G1 X102.881 Y101.043 E10.24809
G1 X113.251 Y94.322 E10.43946
G1 X110.316 Y101.046 E10.55307
G1 X130.502 Y102.402 E10.86638
G1 X136.522 Y97.346 E10.98813
G1 X136.522 Y98.278 E11.00257
G1 X133.289 Y104.436 E11.11027
G1 X136.522 Y110.917 E11.22243
G1 X136.522 Y111.601 E11.23302
G1 X130.486 Y106.461 E11.35580
G1 X116.814 Y109.262 E11.57192
G1 X113.374 Y115.961 E11.68854
G1 X107.249 Y110.227 E11.81849
G1 X73.858 Y110.227 E12.33559
G1 X78.755 Y105.163 E12.44468
G1 X80.012 Y106.478 E12.47285
G1 X81.318 Y105.190 E12.50126
G1 X82.490 Y106.490 E12.52836
G1 X83.747 Y105.179 E12.55650
G1 X84.980 Y106.480 E12.58426
G1 X86.288 Y105.181 E12.61280
G1 X87.482 Y106.487 E12.64020
G1 X88.749 Y105.182 E12.66837
G1 X89.972 Y106.481 E12.69600
G1 X91.250 Y105.201 E12.72401
G1 X92.474 Y106.477 E12.75138
G1 X95.115 Y103.896 E12.80857
G1 X93.186 Y101.947 E12.85105
G1 X91.891 Y103.363 E12.88077
G1 X90.703 Y101.915 E12.90979
G1 X89.390 Y103.361 E12.94004
G1 X88.216 Y101.913 E12.96892
G1 X86.929 Y103.336 E12.99864
G1 X85.707 Y101.924 E13.02756
G1 X84.384 Y103.338 E13.05754
G1 X83.234 Y101.981 E13.08509
G1 X79.413 Y107.789 F5400.000
G1 X78.170 Y107.072 F3600.000 E13.10732
G1 X78.170 Y106.876 E13.11034
G1 X78.752 Y106.274 E13.12331
G1 X79.946 Y107.523 E13.15007
G1 X79.910 Y107.502 E13.15071
G1 X79.413 Y107.789 E13.15960
G1 X80.502 Y109.457 F5400.000
G1 X80.904 Y109.225 F3600.000 E13.16678
G1 X81.306 Y109.457 E13.17397
G1 X80.502 Y109.457 E13.18641
G1 X82.300 Y109.457 F5400.000
G1 X81.153 Y108.794 F3600.000 E13.20693
G1 X81.153 Y108.220 E13.21582
G1 X80.011 Y107.561 E13.23624
G1 X80.378 Y107.199 E13.24422
G1 X81.401 Y107.789 E13.26252
G1 X81.898 Y107.502 E13.27141
G1 X83.141 Y108.220 E13.29363
G1 X83.141 Y108.794 E13.30252
G1 X84.289 Y109.457 E13.32305
G1 X83.295 Y109.457 E13.33844
G1 X82.893 Y109.225 E13.34563
G1 X82.491 Y109.457 E13.35282
G1 X82.300 Y109.457 E13.35577
G1 X84.480 Y109.457 F5400.000
G1 X84.881 Y109.225 F3600.000 E13.36295
G1 X85.283 Y109.457 E13.37014
G1 X84.480 Y109.457 E13.38259
G1 X86.278 Y109.457 F5400.000
G1 X85.130 Y108.794 F3600.000 E13.40311
G1 X85.130 Y108.220 E13.41200
G1 X83.887 Y107.502 E13.43422
G1 X83.390 Y107.789 E13.44311
G1 X82.696 Y107.389 E13.45553
G1 X83.744 Y106.295 E13.47899
G1 X84.136 Y106.709 E13.48781
G1 X84.136 Y107.072 E13.49344
G1 X84.896 Y107.511 E13.50704
G1 X84.963 Y107.581 E13.50854
G1 X84.983 Y107.561 E13.50899
G1 X85.379 Y107.789 E13.51605
G1 X85.876 Y107.502 E13.52494
G1 X87.119 Y108.220 E13.54717
G1 X87.119 Y108.794 E13.55606
G1 X88.266 Y109.457 E13.57658
G1 X87.272 Y109.457 E13.59198
G1 X86.870 Y109.225 E13.59917
G1 X86.468 Y109.457 E13.60635
G1 X86.278 Y109.457 E13.60930
G1 X88.457 Y109.457 F5400.000
G1 X88.859 Y109.225 F3600.000 E13.61649
G1 X89.261 Y109.457 E13.62368
G1 X88.457 Y109.457 E13.63612
G1 X90.255 Y109.457 F5400.000
G1 X89.107 Y108.794 F3600.000 E13.65664
G1 X89.107 Y108.220 E13.66553
G1 X87.864 Y107.502 E13.68776
G1 X87.367 Y107.789 E13.69665
G1 X86.124 Y107.072 E13.71888
G1 X86.124 Y106.498 E13.72777
G1 X86.081 Y106.473 E13.72855
G1 X86.261 Y106.293 E13.73249
G1 X87.465 Y107.611 E13.76012
G1 X88.113 Y106.943 E13.77453
G1 X88.113 Y107.072 E13.77653
G1 X89.356 Y107.789 E13.79875
G1 X89.853 Y107.502 E13.80764
G1 X89.903 Y107.531 E13.80853
G1 X89.956 Y107.588 E13.80973
G1 X89.972 Y107.571 E13.81009
G1 X91.096 Y108.220 E13.83019
G1 X91.096 Y108.794 E13.83908
G1 X92.244 Y109.457 E13.85960
G1 X91.249 Y109.457 E13.87500
G1 X90.847 Y109.225 E13.88218
G1 X90.446 Y109.457 E13.88937
G1 X90.255 Y109.457 E13.89232
G1 X92.434 Y109.457 F5400.000
G1 X92.836 Y109.225 F3600.000 E13.89951
G1 X93.238 Y109.457 E13.90669
G1 X92.434 Y109.457 E13.91914
G1 X94.232 Y109.457 F5400.000
G1 X93.085 Y108.794 F3600.000 E13.93966
G1 X93.085 Y108.220 E13.94855
G1 X91.842 Y107.502 E13.97078
G1 X91.345 Y107.789 E13.97967
G1 X90.336 Y107.207 E13.99771
G1 X91.239 Y106.303 E14.01750
G1 X92.456 Y107.571 E14.04472
G1 X92.641 Y107.390 E14.04873
G1 X93.333 Y107.789 E14.06111
G1 X93.830 Y107.502 E14.07000
G1 X94.587 Y107.939 E14.08354
G1 X94.558 Y108.327 E14.08956
G1 X94.663 Y108.854 E14.09788
G1 X94.426 Y108.938 E14.10177
G1 X94.519 Y109.401 E14.10908
G1 X94.423 Y109.457 E14.11080
G1 X94.232 Y109.457 E14.11375
G1 X94.712 Y107.437 F5400.000
G1 X94.079 Y107.072 F3600.000 E14.12507
G1 X94.079 Y106.498 E14.13396
G1 X93.749 Y106.307 E14.13986
G1 X94.119 Y105.947 E14.14786
G1 X94.328 Y106.067 E14.15159
G1 X94.825 Y105.780 E14.16048
G1 X95.724 Y106.299 E14.17656
G1 X95.523 Y106.396 E14.18001
G1 X95.096 Y106.768 E14.18879
G1 X94.781 Y107.237 E14.19753
G1 X94.712 Y107.437 E14.20082
G1 X99.204 Y109.457 F5400.000
G1 X98.802 Y109.225 F3600.000 E14.20801
G1 X98.574 Y109.356 E14.21208
G1 X98.821 Y108.627 E14.22400
G1 X98.861 Y108.111 E14.23202
G1 X99.051 Y108.220 E14.23541
G1 X99.051 Y108.794 E14.24430
G1 X100.198 Y109.457 E14.26483
G1 X99.204 Y109.457 E14.28022
G1 X100.389 Y109.457 F5400.000
G1 X100.791 Y109.225 F3600.000 E14.28741
G1 X101.193 Y109.457 E14.29460
G1 X100.389 Y109.457 E14.30704
G1 X102.187 Y109.457 F5400.000
G1 X101.039 Y108.794 F3600.000 E14.32756
G1 X101.039 Y108.220 E14.33645
G1 X99.796 Y107.502 E14.35868
G1 X99.299 Y107.789 E14.36757
G1 X98.729 Y107.460 E14.37778
G1 X98.510 Y107.009 E14.38553
G1 X98.143 Y106.587 E14.39421
G1 X98.056 Y106.528 E14.39583
G1 X98.056 Y106.498 E14.39629
G1 X97.784 Y106.340 E14.40116
G1 X97.676 Y106.267 E14.40318
G1 X97.627 Y106.250 E14.40398
G1 X96.813 Y105.780 E14.41853
G1 X96.316 Y106.067 E14.42742
G1 X95.073 Y105.350 E14.44965
G1 X95.073 Y105.014 E14.45485
G1 X95.966 Y104.143 E14.47416
G1 X97.062 Y104.776 E14.49377
G1 X97.062 Y105.350 E14.50266
G1 X98.305 Y106.067 E14.52489
G1 X98.802 Y105.780 E14.53378
G1 X100.045 Y106.498 E14.55600
G1 X100.045 Y107.072 E14.56489
G1 X101.288 Y107.789 E14.58712
G1 X101.785 Y107.502 E14.59601
G1 X103.028 Y108.220 E14.61824
G1 X103.028 Y108.794 E14.62713
G1 X104.176 Y109.457 E14.64765
G1 X103.181 Y109.457 E14.66305
G1 X102.780 Y109.225 E14.67023
G1 X102.378 Y109.457 E14.67742
G1 X102.187 Y109.457 E14.68037
G1 X104.366 Y109.457 F5400.000
G1 X104.768 Y109.225 F3600.000 E14.68756
G1 X105.170 Y109.457 E14.69474
G1 X104.366 Y109.457 E14.70719
G1 X111.977 Y113.598 F5400.000
G1 X111.388 Y113.047 F3600.000 E14.71968
G1 X111.977 Y113.387 E14.73020
G1 X111.977 Y113.598 E14.73347
G1 X113.155 Y114.701 F5400.000
G1 X112.989 Y114.545 F3600.000 E14.73701
G1 X113.179 Y114.655 E14.74041
G1 X113.155 Y114.701 E14.74121
G1 X113.861 Y113.326 F5400.000
G1 X112.723 Y112.669 F3600.000 E14.76157
G1 X112.226 Y112.956 E14.77046
G1 X110.983 Y112.239 E14.79268
G1 X110.983 Y111.665 E14.80157
G1 X109.740 Y110.947 E14.82380
G1 X109.372 Y111.159 E14.83038
G1 X107.553 Y109.457 E14.86897
G1 X107.159 Y109.457 E14.87507
G1 X106.757 Y109.225 E14.88226
G1 X106.355 Y109.457 E14.88944
G1 X106.164 Y109.457 E14.89240
G1 X105.017 Y108.794 E14.91292
G1 X105.017 Y108.220 E14.92181
G1 X103.774 Y107.502 E14.94403
G1 X103.277 Y107.789 E14.95292
G1 X102.034 Y107.072 E14.97515
G1 X102.034 Y106.498 E14.98404
G1 X100.791 Y105.780 E15.00627
G1 X100.294 Y106.067 E15.01516
G1 X99.051 Y105.350 E15.03738
G1 X99.051 Y104.776 E15.04627
G1 X97.808 Y104.058 E15.06850
G1 X97.311 Y104.345 E15.07739
G1 X96.068 Y103.627 E15.09962
G1 X96.068 Y103.053 E15.10851
G1 X94.838 Y102.343 E15.13050
G1 X95.059 Y101.813 E15.13939
G1 X95.073 Y101.813 E15.13962
G1 X95.073 Y101.905 E15.14104
G1 X96.316 Y102.623 E15.16326
G1 X96.813 Y102.336 E15.17215
G1 X98.056 Y103.053 E15.19438
G1 X98.056 Y103.627 E15.20327
G1 X99.299 Y104.345 E15.22550
G1 X99.796 Y104.058 E15.23439
G1 X101.039 Y104.776 E15.25661
G1 X101.039 Y105.350 E15.26550
G1 X102.282 Y106.067 E15.28773
G1 X102.780 Y105.780 E15.29662
G1 X104.022 Y106.498 E15.31885
G1 X104.022 Y107.072 E15.32774
G1 X105.265 Y107.789 E15.34996
G1 X105.763 Y107.502 E15.35886
G1 X107.005 Y108.220 E15.38108
G1 X107.005 Y108.794 E15.38997
G1 X108.248 Y109.512 E15.41220
G1 X108.746 Y109.225 E15.42109
G1 X109.988 Y109.942 E15.44331
G1 X109.988 Y110.516 E15.45221
G1 X111.231 Y111.234 E15.47443
G1 X111.729 Y110.947 E15.48332
G1 X112.971 Y111.665 E15.50555
G1 X112.971 Y112.239 E15.51444
G1 X114.089 Y112.884 E15.53442
G1 X113.861 Y113.326 E15.54212
G1 X114.771 Y111.555 F5400.000
G1 X113.717 Y110.947 F3600.000 E15.56096
G1 X113.220 Y111.234 E15.56985
G1 X111.977 Y110.516 E15.59208
G1 X111.977 Y109.942 E15.60097
G1 X110.734 Y109.225 E15.62320
