; generated by Slic3r 0.7.2b on 2012-06-09 at 19:03:52

; layer_height = 0.1
; perimeters = 1
; solid_layers = 0
; fill_density = 0
; nozzle_diameter = 0.4
; filament_diameter = 2.94
; extrusion_multiplier = 1
; perimeter_speed = 15
; infill_speed = 30
; travel_speed = 90
; extrusion_width_ratio = 0
; scale = 1
; single wall width = 0.56mm

M104 S185 ; set temperature
M92 X78.7402 Y78.7402 E926 ;Set the right speed
G28 ;home all axes
M106 ;turn fan on
M109 S185 ; wait for temperature to be reached
G90 ; use absolute coordinates
G21 ; set units to millimeters
G92 E0 ; reset extrusion distance
M82 ; use absolute distances for extrusion
M106 S254
G1 Z0.100 F5400.000
G1 X101.317 Y100.632
G1
G1 X101.318 Y100.629 F270.000 E0.00002
M106 S254
G1 Z0.200 F5400.000
G1 X100.443 Y104.694
G1 X100.531 Y104.746 F600.000 E0.00084
G1 X100.600 Y104.822 E0.00165
G1 X100.642 Y104.915 E0.00246
G1 X100.652 Y105.017 E0.00327
G1 X100.631 Y105.117 E0.00408
G1 X100.580 Y105.206 E0.00490
G1 X100.504 Y105.274 E0.00571
G1 X100.410 Y105.316 E0.00652
G1 X100.308 Y105.327 E0.00733
G1 X100.208 Y105.305 E0.00815
G1 X100.120 Y105.254 E0.00896
G1 X100.051 Y105.178 E0.00977
G1 X100.009 Y105.085 E0.01058
G1 X99.999 Y104.983 E0.01139
G1 X100.020 Y104.883 E0.01221
G1 X100.071 Y104.794 E0.01302
G1 X100.147 Y104.726 E0.01383
G1 X100.241 Y104.684 E0.01464
G1 X100.343 Y104.673 E0.01546
G1 X100.361 Y104.677 E0.01560
G1 X96.972 Y107.890 F5400.000
G1 X97.017 Y107.996 F900.000 E0.01652
G1 X97.772 Y104.020 F5400.000
G1 X97.655 Y103.975 F900.000 E0.01751
G1 X96.449 Y102.771 F5400.000
G1 X96.483 Y102.784 F900.000 E0.01780
G1 X98.520 Y100.949 F5400.000
G1 X98.555 Y100.937 F900.000 E0.01809
G1 X99.860 Y100.589 F5400.000
G1 X99.769 Y100.614 F900.000 E0.01884
M106 S254
G1 Z0.300 F5400.000
G1 X100.092 Y104.127
G1 X100.373 Y104.098 F600.000 E0.02108
G1 X100.649 Y104.156 E0.02333
G1 X100.894 Y104.298 E0.02557
G1 X101.083 Y104.508 E0.02781
G1 X101.198 Y104.766 E0.03005
G1 X101.228 Y105.047 E0.03230
G1 X101.169 Y105.324 E0.03454
G1 X101.028 Y105.569 E0.03678
G1 X100.818 Y105.758 E0.03903
G1 X100.559 Y105.873 E0.04127
G1 X100.278 Y105.902 E0.04351
G1 X100.001 Y105.844 E0.04575
G1 X99.757 Y105.702 E0.04799
G1 X99.568 Y105.492 E0.05024
G1 X99.453 Y105.234 E0.05248
G1 X99.423 Y104.953 E0.05472
G1 X99.482 Y104.676 E0.05697
G1 X99.623 Y104.431 E0.05921
G1 X99.833 Y104.242 E0.06145
G1 X100.015 Y104.161 E0.06303
G1 X100.714 Y109.448 F5400.000
G1 X100.722 Y109.425 F900.000 E0.06322
G1 X99.631 Y109.383 F5400.000
G1 X99.322 Y109.349 F900.000 E0.06569
G1 X102.197 Y109.041 F5400.000
G1 X102.192 Y108.992 F900.000 E0.06609
G1 X98.311 Y108.954 F5400.000
G1 X98.029 Y108.826 F900.000 E0.06854
G1 X103.354 Y108.265 F5400.000
G1 X103.334 Y108.219 F900.000 E0.06894
G1 X97.188 Y108.138 F5400.000
G1 X96.961 Y107.929 F900.000 E0.07139
G1 X104.215 Y107.169 F5400.000
G1 X104.181 Y107.132 F900.000 E0.07179
G1 X96.237 Y106.746 F5400.000
G1 X96.222 Y106.746 F900.000 E0.07190
G1 X104.694 Y105.860 F5400.000
G1 X104.651 Y105.836 F900.000 E0.07230
G1 X95.897 Y105.398 F5400.000
G1 X95.885 Y105.393 F900.000 E0.07241
G1 X104.745 Y104.468 F5400.000
G1 X104.697 Y104.458 F900.000 E0.07279
G1 X95.991 Y104.010 F5400.000
G1 X95.981 Y104.002 F900.000 E0.07289
G1 X99.346 Y106.210 F5400.000
G1 X99.423 Y105.938 F900.000 E0.07514
G1 X99.143 Y105.768 E0.07774
G1 X99.075 Y104.639 E0.08671
G1 X98.718 Y104.383 E0.09020
G1 X104.363 Y103.128 F5400.000
G1 X104.316 Y103.134 F900.000 E0.09057
G1 X96.510 Y102.719 F5400.000
G1 X96.502 Y102.709 F900.000 E0.09068
G1 X103.677 Y102.086 F5400.000
G1 X103.545 Y101.992 F900.000 E0.09197
G1 X97.402 Y101.652 F5400.000
G1 X97.398 Y101.639 F900.000 E0.09208
G1 X102.611 Y101.193 F5400.000
G1 X102.458 Y101.143 F900.000 E0.09336
G1 X98.580 Y100.913 F5400.000
G1 X98.580 Y100.898 F900.000 E0.09348
G1 X101.322 Y100.674 F5400.000
G1 X101.162 Y100.672 F900.000 E0.09476
G1 X99.929 Y100.575 F5400.000
G1 X99.934 Y100.558 F900.000 E0.09490
M106 S254
G1 Z0.400 F5400.000
G1 X100.397 Y100.794
G1 X100.524 Y100.814 F600.000 E0.09592
G1 X100.694 Y100.805 E0.09727
G1 X100.409 Y103.523 E0.11895
G1 X100.850 Y103.617 E0.12253
G1 X101.694 Y101.020 E0.14419
G1 X101.821 Y101.085 E0.14532
G1 X101.972 Y101.125 E0.14656
G1 X100.861 Y103.621 E0.16824
G1 X101.252 Y103.847 E0.17182
G1 X102.858 Y101.637 E0.19349
G1 X102.968 Y101.747 E0.19473
G1 X103.088 Y101.825 E0.19586
G1 X101.261 Y103.854 E0.21752
G1 X101.563 Y104.190 E0.22110
G1 X103.774 Y102.583 E0.24278
G1 X103.851 Y102.735 E0.24413
G1 X103.932 Y102.835 E0.24515
G1 X101.569 Y104.199 E0.26680
G1 X101.753 Y104.612 E0.27038
G1 X104.353 Y103.767 E0.29207
G1 X104.381 Y103.946 E0.29351
G1 X104.423 Y104.056 E0.29444
G1 X101.756 Y104.623 E0.31607
G1 X101.803 Y105.072 E0.31965
G1 X104.536 Y105.072 E0.34134
G1 X104.507 Y105.259 E0.34284
G1 X104.512 Y105.368 E0.34371
G1 X101.802 Y105.083 E0.36533
G1 X101.708 Y105.525 E0.36891
G1 X104.308 Y106.369 E0.39059
G1 X104.219 Y106.542 E0.39213
G1 X104.192 Y106.643 E0.39296
G1 X101.704 Y105.535 E0.41456
G1 X101.479 Y105.926 E0.41814
G1 X103.689 Y107.532 E0.43982
G1 X103.551 Y107.670 E0.44136
G1 X103.495 Y107.757 E0.44218
G1 X101.471 Y105.935 E0.46378
G1 X101.136 Y106.237 E0.46736
G1 X102.741 Y108.446 E0.48902
G1 X102.572 Y108.533 E0.49053
G1 X102.487 Y108.601 E0.49139
G1 X101.126 Y106.244 E0.51298
G1 X100.714 Y106.427 E0.51657
G1 X101.557 Y109.022 E0.53821
G1 X101.378 Y109.051 E0.53965
G1 X101.269 Y109.093 E0.54058
G1 X100.703 Y106.430 E0.56217
G1 X100.254 Y106.477 E0.56575
G1 X100.254 Y109.204 E0.58738
G1 X100.086 Y109.178 E0.58873
G1 X99.958 Y109.184 E0.58975
G1 X100.242 Y106.477 E0.61135
G1 X99.801 Y106.383 E0.61493
G1 X98.959 Y108.975 E0.63655
G1 X98.819 Y108.904 E0.63779
G1 X98.682 Y108.867 E0.63891
G1 X99.790 Y106.379 E0.66052
G1 X99.399 Y106.153 E0.66410
G1 X97.798 Y108.357 E0.68571
G1 X97.698 Y108.256 E0.68683
G1 X97.567 Y108.171 E0.68807
G1 X99.390 Y106.146 E0.70969
G1 X99.088 Y105.810 E0.71327
G1 X96.886 Y107.411 E0.73487
G1 X96.827 Y107.296 E0.73589
G1 X96.720 Y107.164 E0.73724
G1 X99.082 Y105.801 E0.75887
G1 X98.898 Y105.388 E0.76245
G1 X96.310 Y106.229 E0.78404
G1 X96.291 Y106.114 E0.78497
G1 X96.226 Y105.945 E0.78641
G1 X98.895 Y105.377 E0.80806
G1 X98.848 Y104.928 E0.81164
G1 X96.126 Y104.928 E0.83323
G1 X96.143 Y104.821 E0.83409
G1 X96.133 Y104.632 E0.83560
G1 X98.849 Y104.917 E0.85726
G1 X98.943 Y104.475 E0.86084
G1 X96.353 Y103.634 E0.88244
G1 X96.401 Y103.541 E0.88327
G1 X96.451 Y103.353 E0.88481
G1 X98.947 Y104.465 E0.90648
G1 X99.172 Y104.074 E0.91006
G1 X96.969 Y102.473 E0.93167
G1 X97.043 Y102.399 E0.93249
G1 X97.149 Y102.236 E0.93404
G1 X99.180 Y104.065 E0.95572
G1 X99.515 Y103.763 E0.95930
G1 X97.913 Y101.558 E0.98092
G1 X98.010 Y101.509 E0.98178
G1 X98.158 Y101.389 E0.98329
G1 X99.525 Y103.756 E1.00497
G1 X99.937 Y103.573 E1.00855
G1 X99.095 Y100.979 E1.03019
G1 X99.210 Y100.961 E1.03112
G1 X99.380 Y100.896 E1.03256
G1 X99.948 Y103.570 E1.05424
G1 X100.397 Y103.523 E1.05782
G1 X100.397 Y100.878 E1.07880
M106 S254
G1 Z0.500 F5400.000
G1 X100.338 Y100.784
G1 X100.519 Y100.813 F600.000 E1.08025
G1 X100.755 Y100.801 E1.08213
G1 X100.527 Y102.966 E1.09941
G1 X100.969 Y103.060 E1.10299
G1 X101.641 Y100.992 E1.12024
G1 X101.819 Y101.083 E1.12183
G1 X102.031 Y101.140 E1.12356
G1 X101.146 Y103.128 E1.14083
G1 X101.537 Y103.354 E1.14441
G1 X102.816 Y101.593 E1.16168
G1 X102.971 Y101.748 E1.16341
G1 X103.139 Y101.857 E1.16500
G1 X101.684 Y103.473 E1.18225
G1 X101.986 Y103.809 E1.18583
G1 X103.748 Y102.529 E1.20311
G1 X103.855 Y102.739 E1.20499
G1 X103.970 Y102.882 E1.20644
G1 X102.089 Y103.968 E1.22367
G1 X102.273 Y104.380 E1.22725
G1 X104.345 Y103.707 E1.24453
G1 X104.384 Y103.955 E1.24653
G1 X104.444 Y104.112 E1.24786
G1 X102.322 Y104.563 E1.26507
G1 X102.369 Y105.012 E1.26866
G1 X104.548 Y105.012 E1.28594
G1 X104.507 Y105.271 E1.28801
G1 X104.515 Y105.428 E1.28926
G1 X102.359 Y105.201 E1.30646
G1 X102.265 Y105.643 E1.31004
G1 X104.336 Y106.316 E1.32732
G1 X104.215 Y106.554 E1.32944
G1 X104.176 Y106.701 E1.33064
G1 X102.197 Y105.820 E1.34782
G1 X101.972 Y106.211 E1.35140
G1 X103.732 Y107.490 E1.36867
G1 X103.543 Y107.679 E1.37079
G1 X103.461 Y107.807 E1.37199
G1 X101.852 Y106.358 E1.38916
G1 X101.517 Y106.660 E1.39274
G1 X102.795 Y108.420 E1.40999
G1 X102.562 Y108.538 E1.41207
G1 X102.440 Y108.637 E1.41331
G1 X101.358 Y106.764 E1.43048
G1 X100.945 Y106.947 E1.43406
G1 X101.617 Y109.013 E1.45129
G1 X101.369 Y109.052 E1.45328
G1 X101.212 Y109.113 E1.45461
G1 X100.762 Y106.996 E1.47177
G1 X100.313 Y107.044 E1.47536
G1 X100.313 Y109.213 E1.49257
G1 X100.080 Y109.176 E1.49444
G1 X99.898 Y109.186 E1.49589
G1 X100.124 Y107.034 E1.51306
G1 X99.682 Y106.940 E1.51664
G1 X99.013 Y109.001 E1.53384
G1 X98.818 Y108.902 E1.53557
G1 X98.625 Y108.850 E1.53716
G1 X99.505 Y106.872 E1.55434
G1 X99.114 Y106.646 E1.55792
G1 X97.841 Y108.398 E1.57510
G1 X97.700 Y108.257 E1.57668
G1 X97.517 Y108.138 E1.57842
G1 X98.967 Y106.527 E1.59561
G1 X98.665 Y106.191 E1.59920
G1 X96.914 Y107.463 E1.61637
G1 X96.831 Y107.301 E1.61781
G1 X96.683 Y107.117 E1.61969
G1 X98.562 Y106.032 E1.63690
G1 X98.378 Y105.620 E1.64048
G1 X96.321 Y106.288 E1.65765
G1 X96.294 Y106.123 E1.65898
G1 X96.204 Y105.888 E1.66097
G1 X98.329 Y105.437 E1.67820
G1 X98.282 Y104.988 E1.68178
G1 X96.118 Y104.988 E1.69895
G1 X96.143 Y104.833 E1.70019
G1 X96.129 Y104.571 E1.70227
G1 X98.292 Y104.799 E1.71952
G1 X98.386 Y104.357 E1.72310
G1 X96.327 Y103.688 E1.74027
G1 X96.396 Y103.553 E1.74147
G1 X96.465 Y103.295 E1.74359
G1 X98.454 Y104.180 E1.76086
G1 X98.679 Y103.789 E1.76444
G1 X96.927 Y102.516 E1.78162
G1 X97.035 Y102.409 E1.78282
G1 X97.180 Y102.184 E1.78494
G1 X98.799 Y103.642 E1.80222
G1 X99.134 Y103.340 E1.80580
G1 X97.860 Y101.586 E1.82300
G1 X98.000 Y101.514 E1.82425
G1 X98.204 Y101.350 E1.82632
G1 X99.293 Y103.236 E1.84361
G1 X99.706 Y103.053 E1.84719
G1 X99.035 Y100.989 E1.86440
G1 X99.201 Y100.963 E1.86574
G1 X99.436 Y100.873 E1.86773
G1 X99.889 Y103.004 E1.88501
G1 X100.338 Y102.956 E1.88859
G1 X100.338 Y100.868 E1.90516
G1 X99.504 Y109.347 F5400.000
G1 X99.503 Y109.345 F900.000 E1.90517
G1 X98.201 Y108.881 F5400.000
G1 X98.201 Y108.879 F900.000 E1.90519
G1 X97.106 Y108.034 F5400.000
G1 X97.106 Y108.032 F900.000 E1.90521
G1 X96.326 Y106.891 F5400.000
G1 X96.328 Y106.888 F900.000 E1.90523
G1 X95.938 Y105.562 F5400.000
G1 X95.941 Y105.560 F900.000 E1.90526
G1 X104.383 Y103.306 F5400.000
G1 X104.362 Y103.308 F900.000 E1.90542
G1 X103.642 Y102.143 F5400.000
G1 X103.660 Y102.136 F900.000 E1.90558
M106 S254
G1 Z0.600 F5400.000
G1 X103.708 Y102.484
G1 X103.746 Y102.522 F600.000 E1.90600
G1 X103.859 Y102.744 E1.90798
G1 X103.972 Y102.884 E1.90941
G1 X103.993 Y102.937 E1.90986
G1 X102.609 Y103.736 E1.92254
G1 X102.793 Y104.149 E1.92612
G1 X104.322 Y103.652 E1.93887
G1 X104.345 Y103.697 E1.93928
G1 X104.387 Y103.964 E1.94142
G1 X104.445 Y104.115 E1.94271
G1 X104.448 Y104.172 E1.94316
G1 X102.888 Y104.504 E1.95581
G1 X102.935 Y104.953 E1.95939
G1 X104.544 Y104.953 E1.97215
G1 X104.551 Y105.000 E1.97253
G1 X104.506 Y105.282 E1.97480
G1 X104.514 Y105.433 E1.97600
G1 X104.500 Y105.486 E1.97643
G1 X102.916 Y105.320 E1.98907
G1 X102.822 Y105.761 E1.99265
G1 X104.352 Y106.259 E2.00541
G1 X104.345 Y106.303 E2.00577
G1 X104.211 Y106.566 E2.00811
G1 X104.173 Y106.707 E2.00927
G1 X104.144 Y106.752 E2.00969
G1 X102.690 Y106.105 E2.02231
G1 X102.465 Y106.496 E2.02589
G1 X103.765 Y107.441 E2.03865
G1 X103.746 Y107.478 E2.03898
G1 X103.535 Y107.689 E2.04135
G1 X103.454 Y107.813 E2.04252
G1 X103.415 Y107.845 E2.04293
G1 X102.233 Y106.781 E2.05554
G1 X101.898 Y107.084 E2.05912
G1 X102.842 Y108.383 E2.07186
G1 X102.813 Y108.411 E2.07218
G1 X102.552 Y108.544 E2.07451
G1 X102.429 Y108.644 E2.07576
G1 X102.384 Y108.661 E2.07614
G1 X101.589 Y107.284 E2.08875
G1 X101.177 Y107.467 E2.09234
G1 X101.672 Y108.992 E2.10505
G1 X101.638 Y109.010 E2.10536
G1 X101.360 Y109.054 E2.10760
G1 X101.198 Y109.116 E2.10897
G1 X101.153 Y109.119 E2.10933
G1 X100.822 Y107.563 E2.12195
G1 X100.373 Y107.610 E2.12554
G1 X100.373 Y109.210 E2.13823
G1 X100.335 Y109.217 E2.13854
G1 X100.074 Y109.175 E2.14063
G1 X99.880 Y109.185 E2.14217
G1 X99.839 Y109.174 E2.14251
G1 X100.006 Y107.590 E2.15514
G1 X99.564 Y107.497 E2.15873
G1 X99.070 Y109.016 E2.17140
G1 X99.032 Y109.010 E2.17171
G1 X98.816 Y108.900 E2.17363
G1 X98.606 Y108.844 E2.17536
G1 X98.572 Y108.822 E2.17568
G1 X99.221 Y107.365 E2.18833
G1 X98.830 Y107.139 E2.19191
G1 X97.892 Y108.430 E2.20456
G1 X97.856 Y108.411 E2.20489
G1 X97.702 Y108.257 E2.20661
G1 X97.499 Y108.126 E2.20853
G1 X97.475 Y108.095 E2.20884
G1 X98.544 Y106.908 E2.22152
G1 X98.242 Y106.572 E2.22510
G1 X96.953 Y107.508 E2.23774
G1 X96.923 Y107.478 E2.23807
G1 X96.835 Y107.305 E2.23961
G1 X96.669 Y107.100 E2.24170
G1 X96.655 Y107.064 E2.24201
G1 X98.042 Y106.264 E2.25471
G1 X97.858 Y105.851 E2.25829
G1 X96.345 Y106.343 E2.27091
G1 X96.324 Y106.303 E2.27127
G1 X96.297 Y106.131 E2.27265
G1 X96.197 Y105.869 E2.27488
G1 X96.194 Y105.830 E2.27519
G1 X97.763 Y105.496 E2.28791
G1 X97.716 Y105.047 E2.29149
G1 X96.126 Y105.047 E2.30411
G1 X96.118 Y105.000 E2.30449
G1 X96.143 Y104.844 E2.30574
G1 X96.127 Y104.551 E2.30807
G1 X96.138 Y104.512 E2.30839
G1 X97.735 Y104.680 E2.32113
G1 X97.829 Y104.239 E2.32471
G1 X96.317 Y103.747 E2.33732
G1 X96.324 Y103.697 E2.33773
G1 X96.392 Y103.565 E2.33890
G1 X96.469 Y103.277 E2.34127
G1 X96.492 Y103.241 E2.34160
G1 X97.961 Y103.895 E2.35436
G1 X98.186 Y103.504 E2.35794
G1 X96.899 Y102.569 E2.37056
G1 X96.923 Y102.522 E2.37098
G1 X97.026 Y102.419 E2.37214
G1 X97.187 Y102.171 E2.37448
G1 X97.222 Y102.142 E2.37484
G1 X98.418 Y103.219 E2.38760
G1 X98.753 Y102.917 E2.39118
G1 X97.817 Y101.628 E2.40382
G1 X97.856 Y101.589 E2.40426
G1 X97.990 Y101.520 E2.40545
G1 X98.213 Y101.340 E2.40772
G1 X98.257 Y101.323 E2.40810
G1 X99.062 Y102.716 E2.42086
G1 X99.474 Y102.533 E2.42444
G1 X98.981 Y101.016 E2.43710
G1 X99.032 Y100.990 E2.43755
G1 X99.192 Y100.964 E2.43884
G1 X99.444 Y100.868 E2.44098
G1 X99.495 Y100.865 E2.44138
G1 X99.829 Y102.437 E2.45413
G1 X100.278 Y102.390 E2.45771
G1 X100.278 Y100.792 E2.47039
G1 X100.335 Y100.783 E2.47084
G1 X100.513 Y100.812 E2.47227
G1 X100.762 Y100.799 E2.47425
G1 X100.813 Y100.812 E2.47467
G1 X100.645 Y102.409 E2.48741
G1 X101.087 Y102.503 E2.49099
G1 X101.582 Y100.981 E2.50369
G1 X101.638 Y100.990 E2.50414
G1 X101.818 Y101.082 E2.50574
G1 X102.036 Y101.140 E2.50753
G1 X102.082 Y101.170 E2.50797
G1 X101.430 Y102.635 E2.52069
G1 X101.821 Y102.861 E2.52428
G1 X102.764 Y101.564 E2.53700
G1 X102.813 Y101.589 E2.53743
G1 X102.973 Y101.748 E2.53923
G1 X103.142 Y101.859 E2.54083
G1 X103.178 Y101.903 E2.54128
G1 X102.107 Y103.092 E2.55398
G1 X102.409 Y103.428 E2.55756
G1 X103.640 Y102.533 E2.56963
G1 X99.449 Y109.331 F5400.000
G1 X99.374 Y109.308 F900.000 E2.57026
G1 X98.155 Y108.849 F5400.000
G1 X98.085 Y108.802 F900.000 E2.57092
G1 X97.073 Y107.991 F5400.000
G1 X97.018 Y107.922 F900.000 E2.57162
G1 X96.279 Y106.782 F5400.000
G1 X96.293 Y106.740 F900.000 E2.57197
M106 S254
G1 Z0.700 F5400.000
G1 X96.374 Y106.396
G1 X96.326 Y106.303 F600.000 E2.57280
G1 X96.300 Y106.140 E2.57411
G1 X96.196 Y105.867 E2.57643
G1 X96.191 Y105.770 E2.57720
G1 X97.197 Y105.556 E2.58536
G1 X97.150 Y105.107 E2.58895
G1 X96.137 Y105.107 E2.59698
G1 X96.120 Y105.000 E2.59784
G1 X96.143 Y104.856 E2.59900
G1 X96.127 Y104.550 E2.60143
G1 X96.152 Y104.454 E2.60222
G1 X97.178 Y104.562 E2.61040
G1 X97.272 Y104.120 E2.61398
G1 X96.309 Y103.807 E2.62202
G1 X96.326 Y103.697 E2.62290
G1 X96.387 Y103.577 E2.62397
G1 X96.468 Y103.276 E2.62644
G1 X96.523 Y103.190 E2.62725
G1 X97.468 Y103.611 E2.63545
G1 X97.693 Y103.220 E2.63903
G1 X96.873 Y102.624 E2.64707
G1 X96.925 Y102.522 E2.64798
G1 X97.018 Y102.428 E2.64903
G1 X97.187 Y102.169 E2.65148
G1 X97.268 Y102.103 E2.65231
G1 X98.037 Y102.796 E2.66052
G1 X98.372 Y102.493 E2.66410
G1 X97.775 Y101.671 E2.67216
G1 X97.858 Y101.589 E2.67309
G1 X97.981 Y101.526 E2.67418
G1 X98.212 Y101.339 E2.67654
G1 X98.313 Y101.300 E2.67740
G1 X98.830 Y102.196 E2.68561
G1 X99.243 Y102.013 E2.68919
G1 X98.928 Y101.044 E2.69727
G1 X99.033 Y100.990 E2.69821
