; generated by Slic3r 0.7.2b on 2012-06-09 at 17:26:27

; layer_height = 0.1
; perimeters = 1
; solid_layers = 6
; fill_density = .1
; nozzle_diameter = 0.4
; filament_diameter = 2.94
; extrusion_multiplier = 1
; perimeter_speed = 15
; infill_speed = 30
; travel_speed = 90
; extrusion_width_ratio = 0
; scale = 1
; single wall width = 0.56mm

M104 S185 ; set temperature
M92 X78.7402 Y78.7402 E926 ;Set the right speed
G28 ;home all axes
M106 ;turn fan on
M109 S185 ; wait for temperature to be reached
G90 ; use absolute coordinates
G21 ; set units to millimeters
G92 E0 ; reset extrusion distance
M82 ; use absolute distances for extrusion
M106 S254
G1 Z0.100 F5400.000
G1 X106.254 Y118.325
G1
G1 X106.377 Y118.290 F180.000 E0.00101
G1 X106.402 Y118.266 E0.00129
G1 X106.414 Y118.271 E0.00139
G1 X106.529 Y118.292 E0.00232
G1 X106.555 Y118.292 E0.00252
G1 X106.620 Y118.296 E0.00304
G1 X106.627 Y118.296 E0.00310
G1 X106.768 Y118.304 E0.00422
G1 X106.829 Y118.314 E0.00471
G1 X106.883 Y118.330 E0.00515
G1 X106.923 Y118.350 E0.00550
G1 X106.962 Y118.381 E0.00590
G1 X107.098 Y118.509 E0.00738
G1 X107.194 Y118.578 E0.00832
G1 X107.338 Y118.620 E0.00950
G1 X107.441 Y118.604 E0.01033
G1 X107.498 Y118.592 E0.01079
G1 X107.512 Y118.583 E0.01092
G1 X107.517 Y118.591 E0.01099
G1 X107.615 Y118.672 E0.01200
G1 X107.728 Y118.708 E0.01294
G1 X107.807 Y118.717 E0.01357
G1 X107.838 Y118.718 E0.01382
G1 X107.845 Y118.718 E0.01387
G1 X107.846 Y118.718 E0.01388
G1 X107.867 Y118.739 E0.01412
G1 X107.942 Y118.803 E0.01490
G1 X107.995 Y118.825 E0.01536
G1 X108.017 Y118.838 E0.01556
G1 X108.066 Y118.850 E0.01596
G1 X108.068 Y118.852 E0.01598
G1 X108.098 Y118.860 E0.01623
G1 X108.137 Y118.898 E0.01666
G1 X108.261 Y118.999 E0.01793
G1 X108.342 Y118.991 E0.01857
G1 X108.517 Y119.021 E0.01998
G1 X108.613 Y119.096 E0.02095
G1 X108.693 Y119.095 E0.02158
G1 X108.897 Y119.130 E0.02323
G1 X108.944 Y119.009 E0.02425
G1 X108.982 Y119.052 E0.02471
G1 X109.043 Y119.075 E0.02523
G1 X109.121 Y119.111 E0.02591
G1 X109.264 Y119.097 E0.02705
G1 X109.332 Y119.072 E0.02763
G1 X109.365 Y119.127 E0.02814
G1 X109.493 Y119.220 E0.02939
G1 X109.626 Y119.260 E0.03049
G1 X109.638 Y119.261 E0.03059
G1 X109.612 Y119.300 E0.03096
G1 X109.555 Y119.467 E0.03236
G1 X109.542 Y119.636 E0.03370
G1 X109.565 Y119.799 E0.03500
G1 X109.619 Y119.951 E0.03628
G1 X109.695 Y120.087 E0.03753
G1 X109.786 Y120.207 E0.03871
G1 X109.844 Y120.269 E0.03939
G1 X109.832 Y120.276 E0.03950
G1 X109.672 Y120.367 E0.04096
G1 X109.689 Y120.531 E0.04226
G1 X109.543 Y120.629 E0.04366
G1 X109.516 Y120.730 E0.04449
G1 X109.351 Y120.666 E0.04589
G1 X109.231 Y120.729 E0.04697
G1 X109.155 Y120.758 E0.04761
G1 X109.100 Y120.695 E0.04828
G1 X109.022 Y120.584 E0.04936
G1 X108.962 Y120.476 E0.05033
G1 X108.918 Y120.377 E0.05119
G1 X108.890 Y120.295 E0.05188
G1 X108.838 Y120.044 E0.05391
G1 X108.775 Y119.913 E0.05507
G1 X108.665 Y119.815 E0.05624
G1 X108.562 Y119.764 E0.05715
G1 X108.378 Y119.697 E0.05870
G1 X108.335 Y119.676 E0.05908
G1 X108.285 Y119.644 E0.05955
G1 X108.222 Y119.595 E0.06019
G1 X107.932 Y119.330 E0.06330
G1 X107.798 Y119.229 E0.06463
G1 X107.742 Y119.215 E0.06509
G1 X107.600 Y119.169 E0.06627
G1 X107.503 Y119.218 E0.06714
G1 X107.418 Y119.250 E0.06786
G1 X107.334 Y119.354 E0.06892
G1 X107.312 Y119.389 E0.06925
G1 X107.307 Y119.394 E0.06930
G1 X107.299 Y119.401 E0.06939
G1 X107.285 Y119.409 E0.06951
G1 X107.266 Y119.416 E0.06967
G1 X107.058 Y119.454 E0.07135
G1 X106.951 Y119.483 E0.07223
G1 X106.843 Y119.546 E0.07322
G1 X106.769 Y119.624 E0.07407
G1 X106.716 Y119.706 E0.07485
G1 X106.705 Y119.719 E0.07499
G1 X106.694 Y119.729 E0.07510
G1 X106.684 Y119.735 E0.07519
G1 X106.672 Y119.740 E0.07529
G1 X106.645 Y119.744 E0.07552
G1 X106.602 Y119.744 E0.07586
G1 X106.570 Y119.740 E0.07611
G1 X106.605 Y119.667 E0.07676
G1 X106.611 Y119.526 E0.07788
G1 X106.597 Y119.481 E0.07825
G1 X106.614 Y119.452 E0.07852
G1 X106.673 Y119.372 E0.07931
G1 X106.665 Y119.259 E0.08021
G1 X106.666 Y119.169 E0.08092
G1 X106.609 Y119.096 E0.08166
G1 X106.576 Y119.048 E0.08211
G1 X106.505 Y118.986 E0.08286
G1 X106.438 Y118.940 E0.08350
G1 X106.365 Y118.901 E0.08416
G1 X106.289 Y118.871 E0.08481
G1 X106.248 Y118.859 E0.08515
G1 X106.277 Y118.764 E0.08594
G1 X106.224 Y118.685 E0.08669
G1 X106.243 Y118.674 E0.08687
G1 X106.269 Y118.573 E0.08770
G1 X106.314 Y118.464 E0.08863
G1 X106.286 Y118.402 E0.08917
G1 Z0.200 F5400.000
G1 X106.260 Y118.343
G1 X106.254 Y118.325 F600.000 E0.08932
G1 X106.377 Y118.290 E0.09033
G1 X106.402 Y118.266 E0.09061
G1 X106.414 Y118.271 E0.09071
G1 X106.529 Y118.292 E0.09163
G1 X106.555 Y118.292 E0.09184
G1 X106.620 Y118.296 E0.09236
G1 X106.627 Y118.296 E0.09242
G1 X106.768 Y118.304 E0.09353
G1 X106.829 Y118.314 E0.09403
G1 X106.883 Y118.330 E0.09447
G1 X106.923 Y118.350 E0.09482
G1 X106.962 Y118.381 E0.09522
G1 X107.098 Y118.509 E0.09670
G1 X107.194 Y118.578 E0.09764
G1 X107.338 Y118.620 E0.09882
G1 X107.441 Y118.604 E0.09965
G1 X107.498 Y118.592 E0.10011
G1 X107.512 Y118.583 E0.10024
G1 X107.517 Y118.591 E0.10031
G1 X107.615 Y118.672 E0.10132
G1 X107.728 Y118.708 E0.10226
G1 X107.807 Y118.717 E0.10289
G1 X107.838 Y118.718 E0.10314
G1 X107.845 Y118.718 E0.10319
G1 X107.846 Y118.718 E0.10320
G1 X107.867 Y118.739 E0.10344
G1 X107.942 Y118.803 E0.10422
G1 X107.995 Y118.825 E0.10468
G1 X108.017 Y118.838 E0.10488
G1 X108.066 Y118.850 E0.10528
G1 X108.068 Y118.852 E0.10530
G1 X108.098 Y118.860 E0.10555
G1 X108.137 Y118.898 E0.10598
G1 X108.261 Y118.999 E0.10725
G1 X108.342 Y118.991 E0.10789
G1 X108.517 Y119.021 E0.10930
G1 X108.613 Y119.096 E0.11027
G1 X108.693 Y119.095 E0.11090
G1 X108.897 Y119.130 E0.11255
G1 X108.944 Y119.009 E0.11357
G1 X108.982 Y119.052 E0.11403
G1 X109.043 Y119.075 E0.11455
G1 X109.121 Y119.111 E0.11523
G1 X109.264 Y119.097 E0.11637
G1 X109.332 Y119.072 E0.11695
G1 X109.365 Y119.127 E0.11746
G1 X109.493 Y119.220 E0.11871
G1 X109.626 Y119.260 E0.11981
G1 X109.638 Y119.261 E0.11991
G1 X109.612 Y119.300 E0.12028
G1 X109.555 Y119.467 E0.12168
G1 X109.542 Y119.636 E0.12302
G1 X109.565 Y119.799 E0.12432
G1 X109.619 Y119.951 E0.12560
G1 X109.695 Y120.087 E0.12685
G1 X109.786 Y120.207 E0.12803
G1 X109.844 Y120.269 E0.12870
G1 X109.832 Y120.276 E0.12882
G1 X109.672 Y120.367 E0.13028
G1 X109.689 Y120.531 E0.13158
G1 X109.543 Y120.629 E0.13298
G1 X109.516 Y120.730 E0.13381
G1 X109.351 Y120.666 E0.13521
G1 X109.231 Y120.729 E0.13629
G1 X109.155 Y120.758 E0.13693
G1 X109.100 Y120.695 E0.13760
G1 X109.022 Y120.584 E0.13868
G1 X108.962 Y120.476 E0.13965
G1 X108.918 Y120.377 E0.14051
G1 X108.890 Y120.295 E0.14120
G1 X108.838 Y120.044 E0.14323
G1 X108.775 Y119.913 E0.14438
G1 X108.665 Y119.815 E0.14556
G1 X108.562 Y119.764 E0.14646
G1 X108.378 Y119.697 E0.14802
G1 X108.335 Y119.676 E0.14840
G1 X108.285 Y119.644 E0.14887
G1 X108.222 Y119.595 E0.14950
G1 X107.932 Y119.330 E0.15262
G1 X107.798 Y119.229 E0.15395
G1 X107.742 Y119.215 E0.15441
G1 X107.600 Y119.169 E0.15559
G1 X107.503 Y119.218 E0.15646
G1 X107.418 Y119.250 E0.15718
G1 X107.334 Y119.354 E0.15824
G1 X107.312 Y119.389 E0.15857
G1 X107.307 Y119.394 E0.15862
G1 X107.299 Y119.401 E0.15871
G1 X107.285 Y119.409 E0.15883
G1 X107.266 Y119.416 E0.15899
G1 X107.058 Y119.454 E0.16067
G1 X106.951 Y119.483 E0.16155
G1 X106.843 Y119.546 E0.16254
G1 X106.769 Y119.624 E0.16339
G1 X106.716 Y119.706 E0.16417
G1 X106.705 Y119.719 E0.16431
G1 X106.694 Y119.729 E0.16442
G1 X106.684 Y119.735 E0.16451
G1 X106.672 Y119.740 E0.16461
G1 X106.645 Y119.744 E0.16484
G1 X106.602 Y119.744 E0.16518
G1 X106.570 Y119.740 E0.16543
G1 X106.605 Y119.667 E0.16608
G1 X106.611 Y119.526 E0.16720
G1 X106.597 Y119.481 E0.16757
G1 X106.614 Y119.452 E0.16784
G1 X106.673 Y119.372 E0.16863
G1 X106.665 Y119.259 E0.16952
G1 X106.666 Y119.169 E0.17024
G1 X106.609 Y119.096 E0.17098
G1 X106.576 Y119.048 E0.17143
G1 X106.505 Y118.986 E0.17218
G1 X106.438 Y118.940 E0.17282
G1 X106.365 Y118.901 E0.17348
G1 X106.289 Y118.871 E0.17413
G1 X106.248 Y118.859 E0.17447
G1 X106.277 Y118.764 E0.17526
G1 X106.224 Y118.685 E0.17601
G1 X106.243 Y118.674 E0.17619
G1 X106.269 Y118.573 E0.17702
G1 X106.314 Y118.464 E0.17795
G1 X106.294 Y118.420 E0.17833
G1 Z0.300 F5400.000
G1 X106.314 Y118.464
G1 X106.260 Y118.343 F600.000 E0.17938
G1 X106.254 Y118.325 E0.17954
G1 X106.377 Y118.290 E0.18055
G1 X106.402 Y118.266 E0.18082
G1 X106.414 Y118.271 E0.18092
G1 X106.529 Y118.292 E0.18185
G1 X106.555 Y118.292 E0.18206
G1 X106.620 Y118.296 E0.18258
G1 X106.627 Y118.296 E0.18263
G1 X106.768 Y118.304 E0.18375
G1 X106.829 Y118.314 E0.18424
G1 X106.883 Y118.330 E0.18468
G1 X106.923 Y118.350 E0.18504
G1 X106.962 Y118.381 E0.18544
G1 X107.098 Y118.509 E0.18692
G1 X107.194 Y118.578 E0.18785
G1 X107.338 Y118.620 E0.18904
G1 X107.441 Y118.604 E0.18987
G1 X107.498 Y118.592 E0.19033
G1 X107.512 Y118.583 E0.19046
G1 X107.517 Y118.591 E0.19053
G1 X107.615 Y118.672 E0.19154
G1 X107.728 Y118.708 E0.19248
G1 X107.807 Y118.717 E0.19311
G1 X107.838 Y118.718 E0.19336
G1 X107.845 Y118.718 E0.19341
G1 X107.846 Y118.718 E0.19342
G1 X107.867 Y118.739 E0.19365
G1 X107.942 Y118.803 E0.19444
G1 X107.995 Y118.825 E0.19490
G1 X108.017 Y118.838 E0.19509
G1 X108.066 Y118.850 E0.19549
G1 X108.068 Y118.852 E0.19551
G1 X108.098 Y118.860 E0.19576
G1 X108.137 Y118.898 E0.19619
G1 X108.261 Y118.999 E0.19746
G1 X108.342 Y118.991 E0.19811
G1 X108.517 Y119.021 E0.19952
G1 X108.613 Y119.096 E0.20048
G1 X108.693 Y119.095 E0.20112
G1 X108.897 Y119.130 E0.20276
G1 X108.944 Y119.009 E0.20379
G1 X108.982 Y119.052 E0.20425
G1 X109.043 Y119.075 E0.20477
G1 X109.121 Y119.111 E0.20545
G1 X109.264 Y119.097 E0.20658
G1 X109.332 Y119.072 E0.20716
G1 X109.365 Y119.127 E0.20767
G1 X109.493 Y119.220 E0.20893
G1 X109.626 Y119.260 E0.21003
G1 X109.638 Y119.261 E0.21012
G1 X109.612 Y119.300 E0.21049
G1 X109.555 Y119.467 E0.21189
G1 X109.542 Y119.636 E0.21324
G1 X109.565 Y119.799 E0.21454
G1 X109.619 Y119.951 E0.21582
G1 X109.695 Y120.087 E0.21706
G1 X109.786 Y120.207 E0.21825
G1 X109.844 Y120.269 E0.21892
G1 X109.832 Y120.276 E0.21904
G1 X109.672 Y120.367 E0.22049
G1 X109.689 Y120.531 E0.22180
G1 X109.543 Y120.629 E0.22319
G1 X109.516 Y120.730 E0.22402
G1 X109.351 Y120.666 E0.22543
G1 X109.231 Y120.729 E0.22650
G1 X109.155 Y120.758 E0.22715
G1 X109.100 Y120.695 E0.22781
G1 X109.022 Y120.584 E0.22889
G1 X108.962 Y120.476 E0.22987
G1 X108.918 Y120.377 E0.23073
G1 X108.890 Y120.295 E0.23142
G1 X108.838 Y120.044 E0.23345
G1 X108.775 Y119.913 E0.23460
G1 X108.665 Y119.815 E0.23577
G1 X108.562 Y119.764 E0.23668
G1 X108.378 Y119.697 E0.23824
G1 X108.335 Y119.676 E0.23861
G1 X108.285 Y119.644 E0.23908
G1 X108.222 Y119.595 E0.23972
G1 X107.932 Y119.330 E0.24284
G1 X107.798 Y119.229 E0.24416
G1 X107.742 Y119.215 E0.24462
G1 X107.600 Y119.169 E0.24581
G1 X107.503 Y119.218 E0.24667
G1 X107.418 Y119.250 E0.24739
G1 X107.334 Y119.354 E0.24845
G1 X107.312 Y119.389 E0.24878
G1 X107.307 Y119.394 E0.24884
G1 X107.299 Y119.401 E0.24892
G1 X107.285 Y119.409 E0.24905
G1 X107.266 Y119.416 E0.24921
G1 X107.058 Y119.454 E0.25089
G1 X106.951 Y119.483 E0.25177
G1 X106.843 Y119.546 E0.25276
G1 X106.769 Y119.624 E0.25361
G1 X106.716 Y119.706 E0.25438
G1 X106.705 Y119.719 E0.25452
G1 X106.694 Y119.729 E0.25464
G1 X106.684 Y119.735 E0.25473
G1 X106.672 Y119.740 E0.25483
G1 X106.645 Y119.744 E0.25505
G1 X106.602 Y119.744 E0.25539
G1 X106.570 Y119.740 E0.25565
G1 X106.605 Y119.667 E0.25629
G1 X106.611 Y119.526 E0.25742
G1 X106.597 Y119.481 E0.25779
G1 X106.614 Y119.452 E0.25805
G1 X106.673 Y119.372 E0.25884
G1 X106.665 Y119.259 E0.25974
G1 X106.666 Y119.169 E0.26045
G1 X106.609 Y119.096 E0.26119
G1 X106.576 Y119.048 E0.26165
G1 X106.505 Y118.986 E0.26240
G1 X106.438 Y118.940 E0.26304
G1 X106.365 Y118.901 E0.26370
G1 X106.289 Y118.871 E0.26435
G1 X106.248 Y118.859 E0.26468
G1 X106.277 Y118.764 E0.26548
G1 X106.224 Y118.685 E0.26623
G1 X106.243 Y118.674 E0.26641
G1 X106.269 Y118.573 E0.26723
G1 X106.281 Y118.542 E0.26750
G1 Z0.400 F5400.000
G1 X106.269 Y118.573
G1 X106.314 Y118.464 F600.000 E0.26843
G1 X106.260 Y118.343 E0.26948
G1 X106.254 Y118.325 E0.26963
G1 X106.377 Y118.290 E0.27064
G1 X106.402 Y118.266 E0.27092
G1 X106.414 Y118.271 E0.27102
G1 X106.529 Y118.292 E0.27195
G1 X106.555 Y118.292 E0.27215
G1 X106.620 Y118.296 E0.27267
G1 X106.627 Y118.296 E0.27273
G1 X106.768 Y118.304 E0.27385
G1 X106.829 Y118.314 E0.27434
G1 X106.883 Y118.330 E0.27478
G1 X106.923 Y118.350 E0.27514
G1 X106.962 Y118.381 E0.27554
G1 X107.098 Y118.509 E0.27701
G1 X107.194 Y118.578 E0.27795
G1 X107.338 Y118.620 E0.27914
G1 X107.441 Y118.604 E0.27996
G1 X107.498 Y118.592 E0.28042
G1 X107.512 Y118.583 E0.28055
G1 X107.517 Y118.591 E0.28063
G1 X107.615 Y118.672 E0.28163
G1 X107.728 Y118.708 E0.28258
G1 X107.807 Y118.717 E0.28321
G1 X107.838 Y118.718 E0.28345
G1 X107.845 Y118.718 E0.28350
G1 X107.846 Y118.718 E0.28351
G1 X107.867 Y118.739 E0.28375
G1 X107.942 Y118.803 E0.28454
G1 X107.995 Y118.825 E0.28499
G1 X108.017 Y118.838 E0.28519
G1 X108.066 Y118.850 E0.28559
G1 X108.068 Y118.852 E0.28561
G1 X108.098 Y118.860 E0.28586
G1 X108.137 Y118.898 E0.28629
G1 X108.261 Y118.999 E0.28756
G1 X108.342 Y118.991 E0.28821
G1 X108.517 Y119.021 E0.28961
G1 X108.613 Y119.096 E0.29058
G1 X108.693 Y119.095 E0.29121
G1 X108.897 Y119.130 E0.29286
G1 X108.944 Y119.009 E0.29389
G1 X108.982 Y119.052 E0.29434
G1 X109.043 Y119.075 E0.29486
G1 X109.121 Y119.111 E0.29555
G1 X109.264 Y119.097 E0.29668
G1 X109.332 Y119.072 E0.29726
G1 X109.365 Y119.127 E0.29777
G1 X109.493 Y119.220 E0.29902
G1 X109.626 Y119.260 E0.30013
G1 X109.638 Y119.261 E0.30022
G1 X109.612 Y119.300 E0.30059
G1 X109.555 Y119.467 E0.30199
G1 X109.542 Y119.636 E0.30334
G1 X109.565 Y119.799 E0.30464
G1 X109.619 Y119.951 E0.30592
G1 X109.695 Y120.087 E0.30716
G1 X109.786 Y120.207 E0.30835
G1 X109.844 Y120.269 E0.30902
G1 X109.832 Y120.276 E0.30913
G1 X109.672 Y120.367 E0.31059
G1 X109.689 Y120.531 E0.31189
G1 X109.543 Y120.629 E0.31329
G1 X109.516 Y120.730 E0.31412
G1 X109.351 Y120.666 E0.31552
G1 X109.231 Y120.729 E0.31660
G1 X109.155 Y120.758 E0.31725
G1 X109.100 Y120.695 E0.31791
G1 X109.022 Y120.584 E0.31899
G1 X108.962 Y120.476 E0.31997
G1 X108.918 Y120.377 E0.32082
G1 X108.890 Y120.295 E0.32151
G1 X108.838 Y120.044 E0.32355
G1 X108.775 Y119.913 E0.32470
G1 X108.665 Y119.815 E0.32587
G1 X108.562 Y119.764 E0.32678
G1 X108.378 Y119.697 E0.32833
G1 X108.335 Y119.676 E0.32871
G1 X108.285 Y119.644 E0.32918
G1 X108.222 Y119.595 E0.32982
G1 X107.932 Y119.330 E0.33293
G1 X107.798 Y119.229 E0.33426
G1 X107.742 Y119.215 E0.33472
G1 X107.600 Y119.169 E0.33591
G1 X107.503 Y119.218 E0.33677
G1 X107.418 Y119.250 E0.33749
G1 X107.334 Y119.354 E0.33855
G1 X107.312 Y119.389 E0.33888
G1 X107.307 Y119.394 E0.33894
G1 X107.299 Y119.401 E0.33902
G1 X107.285 Y119.409 E0.33915
G1 X107.266 Y119.416 E0.33931
G1 X107.058 Y119.454 E0.34098
G1 X106.951 Y119.483 E0.34186
G1 X106.843 Y119.546 E0.34285
G1 X106.769 Y119.624 E0.34370
G1 X106.716 Y119.706 E0.34448
G1 X106.705 Y119.719 E0.34462
G1 X106.694 Y119.729 E0.34473
G1 X106.684 Y119.735 E0.34483
G1 X106.672 Y119.740 E0.34493
G1 X106.645 Y119.744 E0.34515
G1 X106.602 Y119.744 E0.34549
G1 X106.570 Y119.740 E0.34575
G1 X106.605 Y119.667 E0.34639
G1 X106.611 Y119.526 E0.34752
G1 X106.597 Y119.481 E0.34789
G1 X106.614 Y119.452 E0.34815
G1 X106.673 Y119.372 E0.34894
G1 X106.665 Y119.259 E0.34984
G1 X106.666 Y119.169 E0.35055
G1 X106.609 Y119.096 E0.35129
G1 X106.576 Y119.048 E0.35175
G1 X106.505 Y118.986 E0.35249
G1 X106.438 Y118.940 E0.35314
G1 X106.365 Y118.901 E0.35379
G1 X106.289 Y118.871 E0.35445
G1 X106.248 Y118.859 E0.35478
G1 X106.277 Y118.764 E0.35557
G1 X106.224 Y118.685 E0.35632
G1 X106.243 Y118.674 E0.35650
G1 X106.248 Y118.654 E0.35667
G1 Z0.500 F5400.000
G1 X106.243 Y118.674
G1 X106.269 Y118.573 F600.000 E0.35749
G1 X106.314 Y118.464 E0.35842
G1 X106.260 Y118.343 E0.35947
G1 X106.254 Y118.325 E0.35963
G1 X106.377 Y118.290 E0.36064
G1 X106.402 Y118.266 E0.36091
G1 X106.414 Y118.271 E0.36101
G1 X106.529 Y118.292 E0.36194
G1 X106.555 Y118.292 E0.36215
G1 X106.620 Y118.296 E0.36267
G1 X106.627 Y118.296 E0.36272
G1 X106.768 Y118.304 E0.36384
